P3
240 450
255
54 67 102 54 67 102 54 67 102 54 67 102 54 67 102 54 67 102 54 67 102 54 67 102 54 67 102 54 67 102 54 67 102 54 67 102 54 67 102 54 67 102 54 67 102 54 67 102 54 67 102 54 67 102 54 67 102 54 67 102 54 67 102 54 67 102 54 67 102 54 67 102 54 67 102 54 67 102 54 67 102 54 67 102 54 67 102 54 67 102 54 67 102 54 67 102 54 67 102 54 67 102 54 67 102 54 67 102 54 67 102 54 67 102 54 67 102 54 67 102 54 67 102 54 67 102 54 67 102 54 67 102 54 67 102 54 67 102 54 67 102 54 67 102 54 67 102 54 67 102 54 67 102 54 67 102 54 67 102 54 67 102 54 67 102 54 67 102 54 67 102 54 67 102 54 67 102 54 67 102 54 67 102 54 67 102 54 67 102 54 67 102 54 67 102 54 67 102 54 67 102 54 67 102 54 67 102 54 67 102 54 67 102 54 67 102 54 67 102 54 67 102 54 67 102 54 67 102 54 67 102 54 67 102 54 67 102 54 67 102 54 67 102 54 67 102 54 67 102 54 67 102 54 67 102 54 67 102 54 67 102 54 67 102 54 67 102 54 67 102 54 67 102 54 67 102 54 67 102 54 67 102 54 67 102 54 67 102 54 67 102 54 67 102 54 67 102 54 67 102 54 67 102 54 67 102 54 67 102 54 67 102 54 67 102 54 67 102 54 67 102 54 67 102 54 67 102 54 67 102 54 67 102 54 67 102 54 67 102 54 67 102 54 67 102 54 67 102 54 67 102 54 67 102 54 67 102 54 67 102 54 67 102 54 67 102 54 67 102 54 67 102 54 67 102 54 67 102 54 67 102 54 67 102 54 67 102 54 67 102 54 67 102 54 67 102 54 67 102 54 67 102 54 67 102 54 67 102 54 67 102 54 67 102 54 67 102 54 67 102 54 67 102 54 67 102 54 67 102 54 67 102 54 67 102 54 67 102 54 67 102 54 67 102 54 67 102 54 67 102 54 67 102 54 67 102 54 67 102 54 67 102 54 67 102 54 67 102 54 67 102 54 67 102 54 67 102 54 67 102 54 67 102 54 67 102 54 67 102 54 67 102 54 67 102 54 67 102 54 67 102 54 67 102 54 67 102 54 67 102 54 67 102 54 67 102 54 67 102 54 67 102 54 67 102 54 67 102 54 67 102 54 67 102 54 67 102 54 67 102 54 67 102 54 67 102 54 67 102 54 67 102 54 67 102 54 67 102 54 67 102 54 67 102 54 67 102 54 67 102 54 67 102 54 67 102 54 67 102 54 67 102 54 67 102 54 67 102 54 67 102 54 67 102 54 67 102 54 67 102 54 67 102 54 67 102 54 67 102 54 67 102 54 67 102 54 67 102 54 67 102 54 67 102 54 67 102 54 67 102 54 67 102 54 67 102 54 67 102 54 67 102 54 67 102 54 67 102 54 67 102 54 67 102 54 67 102 54 67 102 54 67 102 54 67 102 54 67 102 54 67 102 54 67 102 54 67 102 54 67 102 54 67 102 54 67 102 54 67 102 54 67 102 54 67 102 54 67 102 54 67 102 54 67 102 54 67 102 54 67 102 54 67 102 54 67 102 54 67 102
54 67 102 54 67 102 54 67 102 54 67 102 54 67 102 54 67 102 54 67 102 54 67 102 54 67 102 54 67 102 54 67 102 54 67 102 54 67 102 54 67 102 54 67 102 54 67 102 54 67 102 54 67 102 54 67 102 54 67 102 54 67 102 54 67 102 54 67 102 54 67 102 54 67 102 54 67 102 54 67 102 54 67 102 54 67 102 54 67 102 54 67 102 54 67 102 54 67 102 54 67 102 54 67 102 54 67 102 54 67 102 54 67 102 54 67 102 54 67 102 54 67 102 54 67 102 54 67 102 54 67 102 54 67 102 54 67 102 54 67 102 54 67 102 54 67 102 54 67 102 54 67 102 54 67 102 54 67 102 54 67 102 54 67 102 54 67 102 54 67 102 54 67 102 54 67 102 54 67 102 54 67 102 54 67 102 54 67 102 54 67 102 54 67 102 54 67 102 54 67 102 54 67 102 54 67 102 54 67 102 54 67 102 54 67 102 54 67 102 54 67 102 54 67 102 54 67 102 54 67 102 54 67 102 54 67 102 54 67 102 54 67 102 54 67 102 54 67 102 54 67 102 54 67 102 54 67 102 54 67 102 54 67 102 54 67 102 54 67 102 54 67 102 54 67 102 54 67 102 54 67 102 54 67 102 54 67 102 54 67 102 54 67 102 54 67 102 54 67 102 54 67 102 54 67 102 54 67 102 54 67 102 54 67 102 54 67 102 54 67 102 54 67 102 54 67 102 54 67 102 54 67 102 54 67 102 54 67 102 54 67 102 54 67 102 54 67 102 54 67 102 54 67 102 54 67 102 54 67 102 54 67 102 54 67 102 54 67 102 54 67 102 54 67 102 54 67 102 54 67 102 54 67 102 54 67 102 54 67 102 54 67 102 54 67 102 54 67 102 54 67 102 54 67 102 54 67 102 54 67 102 54 67 102 54 67 102 54 67 102 54 67 102 54 67 102 54 67 102 54 67 102 54 67 102 54 67 102 54 67 102 54 67 102 54 67 102 54 67 102 54 67 102 54 67 102 54 67 102 54 67 102 54 67 102 54 67 102 54 67 102 54 67 102 54 67 102 54 67 102 54 67 102 54 67 102 54 67 102 54 67 102 54 67 102 54 67 102 54 67 102 54 67 102 54 67 102 54 67 102 54 67 102 54 67 102 54 67 102 54 67 102 54 67 102 54 67 102 54 67 102 54 67 102 54 67 102 54 67 102 54 67 102 54 67 102 54 67 102 54 67 102 54 67 102 54 67 102 54 67 102 54 67 102 54 67 102 54 67 102 54 67 102 54 67 102 54 67 102 54 67 102 54 67 102 54 67 102 54 67 102 54 67 102 54 67 102 54 67 102 54 67 102 54 67 102 54 67 102 54 67 102 54 67 102 54 67 102 54 67 102 54 67 102 54 67 102 54 67 102 54 67 102 54 67 102 54 67 102 54 67 102 54 67 102 54 67 102 54 67 102 54 67 102 54 67 102 54 67 102 54 67 102 54 67 102 54 67 102 54 67 102 54 67 102 54 67 102 54 67 102 54 67 102 54 67 102 54 67 102 54 67 102 54 67 102 54 67 102 54 67 102 54 67 102 54 67 102 54 67 102 54 67 102 54 67 102 54 67 102
54 67 102 54 67 102 54 67 102 54 67 102 54 67 102 54 67 102 54 67 102 54 67 102 54 67 102 54 67 102 54 67 102 54 67 102 54 67 102 54 67 102 54 67 102 54 67 102 54 67 102 54 67 102 54 67 102 54 67 102 54 67 102 54 67 102 54 67 102 54 67 102 54 67 102 54 67 102 54 67 102 54 67 102 54 67 102 54 67 102 54 67 102 54 67 102 54 67 102 54 67 102 54 67 102 54 67 102 54 67 102 54 67 102 54 67 102 54 67 102 54 67 102 54 67 102 54 67 102 54 67 102 54 67 102 54 67 102 54 67 102 54 67 102 54 67 102 54 67 102 54 67 102 54 67 102 54 67 102 54 67 102 54 67 102 54 67 102 54 67 102 54 67 102 54 67 102 54 67 102 54 67 102 54 67 102 54 67 102 54 67 102 54 67 102 54 67 102 54 67 102 54 67 102 54 67 102 54 67 102 54 67 102 54 67 102 54 67 102 54 67 102 54 67 102 54 67 102 54 67 102 54 67 102 54 67 102 54 67 102 54 67 102 54 67 102 54 67 102 54 67 102 54 67 102 54 67 102 54 67 102 54 67 102 54 67 102 54 67 102 54 67 102 54 67 102 54 67 102 54 67 102 54 67 102 54 67 102 54 67 102 54 67 102 54 67 102 54 67 102 54 67 102 54 67 102 54 67 102 54 67 102 54 67 102 54 67 102 54 67 102 54 67 102 54 67 102 54 67 102 54 67 102 54 67 102 54 67 102 54 67 102 54 67 102 54 67 102 54 67 102 54 67 102 54 67 102 54 67 102 54 67 102 54 67 102 54 67 102 54 67 102 54 67 102 54 67 102 54 67 102 54 67 102 54 67 102 54 67 102 54 67 102 54 67 102 54 67 102 54 67 102 54 67 102 54 67 102 54 67 102 54 67 102 54 67 102 54 67 102 54 67 102 54 67 102 54 67 102 54 67 102 54 67 102 54 67 102 54 67 102 54 67 102 54 67 102 54 67 102 54 67 102 54 67 102 54 67 102 54 67 102 54 67 102 54 67 102 54 67 102 54 67 102 54 67 102 54 67 102 54 67 102 54 67 102 54 67 102 54 67 102 54 67 102 54 67 102 54 67 102 54 67 102 54 67 102 54 67 102 54 67 102 54 67 102 54 67 102 54 67 102 54 67 102 54 67 102 54 67 102 54 67 102 54 67 102 54 67 102 54 67 102 54 67 102 54 67 102 54 67 102 54 67 102 54 67 102 54 67 102 54 67 102 54 67 102 54 67 102 54 67 102 54 67 102 54 67 102 54 67 102 54 67 102 54 67 102 54 67 102 54 67 102 54 67 102 54 67 102 54 67 102 54 67 102 54 67 102 54 67 102 54 67 102 54 67 102 54 67 102 54 67 102 54 67 102 54 67 102 54 67 102 54 67 102 54 67 102 54 67 102 54 67 102 54 67 102 54 67 102 54 67 102 54 67 102 54 67 102 54 67 102 54 67 102 54 67 102 54 67 102 54 67 102 54 67 102 54 67 102 54 67 102 54 67 102 54 67 102 54 67 102 54 67 102 54 67 102 54 67 102 54 67 102 54 67 102 54 67 102 54 67 102 54 67 102 54 67 102
54 67 102 54 67 102 54 67 102 54 67 102 54 67 102 54 67 102 54 67 102 54 67 102 54 67 102 54 67 102 54 67 102 54 67 102 54 67 102 54 67 102 54 67 102 54 67 102 54 67 102 54 67 102 54 67 102 54 67 102 54 67 102 54 67 102 54 67 102 54 67 102 54 67 102 54 67 102 54 67 102 54 67 102 54 67 102 54 67 102 54 67 102 54 67 102 54 67 102 54 67 102 54 67 102 54 67 102 54 67 102 54 67 102 54 67 102 54 67 102 54 67 102 54 67 102 54 67 102 54 67 102 54 67 102 54 67 102 54 67 102 54 67 102 54 67 102 54 67 102 54 67 102 54 67 102 54 67 102 54 67 102 54 67 102 54 67 102 54 67 102 54 67 102 54 67 102 54 67 102 54 67 102 54 67 102 54 67 102 54 67 102 54 67 102 54 67 102 54 67 102 54 67 102 54 67 102 54 67 102 54 67 102 54 67 102 54 67 102 54 67 102 54 67 102 54 67 102 54 67 102 54 67 102 54 67 102 54 67 102 54 67 102 54 67 102 54 67 102 54 67 102 54 67 102 54 67 102 54 67 102 54 67 102 54 67 102 54 67 102 54 67 102 54 67 102 54 67 102 54 67 102 54 67 102 54 67 102 54 67 102 54 67 102 54 67 102 54 67 102 54 67 102 54 67 102 54 67 102 54 67 102 54 67 102 54 67 102 54 67 102 54 67 102 54 67 102 54 67 102 54 67 102 54 67 102 54 67 102 54 67 102 54 67 102 54 67 102 54 67 102 54 67 102 54 67 102 54 67 102 54 67 102 54 67 102 54 67 102 54 67 102 54 67 102 54 67 102 54 67 102 54 67 102 54 67 102 54 67 102 54 67 102 54 67 102 54 67 102 54 67 102 54 67 102 54 67 102 54 67 102 54 67 102 54 67 102 54 67 102 54 67 102 54 67 102 54 67 102 54 67 102 54 67 102 54 67 102 54 67 102 54 67 102 54 67 102 54 67 102 54 67 102 54 67 102 54 67 102 54 67 102 54 67 102 54 67 102 54 67 102 54 67 102 54 67 102 54 67 102 54 67 102 54 67 102 54 67 102 54 67 102 54 67 102 54 67 102 54 67 102 54 67 102 54 67 102 54 67 102 54 67 102 54 67 102 54 67 102 54 67 102 54 67 102 54 67 102 54 67 102 54 67 102 54 67 102 54 67 102 54 67 102 54 67 102 54 67 102 54 67 102 54 67 102 54 67 102 54 67 102 54 67 102 54 67 102 54 67 102 54 67 102 54 67 102 54 67 102 54 67 102 54 67 102 54 67 102 54 67 102 54 67 102 54 67 102 54 67 102 54 67 102 54 67 102 54 67 102 54 67 102 54 67 102 54 67 102 54 67 102 54 67 102 54 67 102 54 67 102 54 67 102 54 67 102 54 67 102 54 67 102 54 67 102 54 67 102 54 67 102 54 67 102 54 67 102 54 67 102 54 67 102 54 67 102 54 67 102 54 67 102 54 67 102 54 67 102 54 67 102 54 67 102 54 67 102 54 67 102 54 67 102 54 67 102 54 67 102 54 67 102 54 67 102 54 67 102 54 67 102 54 67 102 54 67 102 54 67 102
54 67 102 54 67 102 54 67 102 54 67 102 54 67 102 54 67 102 54 67 102 54 67 102 54 67 102 54 67 102 54 67 102 54 67 102 54 67 102 54 67 102 54 67 102 54 67 102 54 67 102 54 67 102 54 67 102 54 67 102 54 67 102 54 67 102 54 67 102 54 67 102 54 67 102 54 67 102 54 67 102 54 67 102 54 67 102 54 67 102 54 67 102 54 67 102 54 67 102 54 67 102 54 67 102 54 67 102 54 67 102 54 67 102 54 67 102 54 67 102 54 67 102 54 67 102 54 67 102 54 67 102 54 67 102 54 67 102 54 67 102 54 67 102 54 67 102 54 67 102 54 67 102 54 67 102 54 67 102 54 67 102 54 67 102 54 67 102 54 67 102 54 67 102 54 67 102 54 67 102 54 67 102 54 67 102 54 67 102 54 67 102 54 67 102 54 67 102 54 67 102 54 67 102 54 67 102 54 67 102 54 67 102 54 67 102 54 67 102 54 67 102 54 67 102 54 67 102 54 67 102 54 67 102 54 67 102 54 67 102 54 67 102 54 67 102 54 67 102 54 67 102 54 67 102 54 67 102 54 67 102 54 67 102 54 67 102 54 67 102 54 67 102 54 67 102 54 67 102 54 67 102 54 67 102 54 67 102 54 67 102 54 67 102 54 67 102 54 67 102 54 67 102 54 67 102 54 67 102 54 67 102 54 67 102 54 67 102 54 67 102 54 67 102 54 67 102 54 67 102 54 67 102 54 67 102 54 67 102 54 67 102 54 67 102 54 67 102 54 67 102 54 67 102 54 67 102 54 67 102 54 67 102 54 67 102 54 67 102 54 67 102 54 67 102 54 67 102 54 67 102 54 67 102 54 67 102 54 67 102 54 67 102 54 67 102 54 67 102 54 67 102 54 67 102 54 67 102 54 67 102 54 67 102 54 67 102 54 67 102 54 67 102 54 67 102 54 67 102 54 67 102 54 67 102 54 67 102 54 67 102 54 67 102 54 67 102 54 67 102 54 67 102 54 67 102 54 67 102 54 67 102 54 67 102 54 67 102 54 67 102 54 67 102 54 67 102 54 67 102 54 67 102 54 67 102 54 67 102 54 67 102 54 67 102 54 67 102 54 67 102 54 67 102 54 67 102 54 67 102 54 67 102 54 67 102 54 67 102 54 67 102 54 67 102 54 67 102 54 67 102 54 67 102 54 67 102 54 67 102 54 67 102 54 67 102 54 67 102 54 67 102 54 67 102 54 67 102 54 67 102 54 67 102 54 67 102 54 67 102 54 67 102 54 67 102 54 67 102 54 67 102 54 67 102 54 67 102 54 67 102 54 67 102 54 67 102 54 67 102 54 67 102 54 67 102 54 67 102 54 67 102 54 67 102 54 67 102 54 67 102 54 67 102 54 67 102 54 67 102 54 67 102 54 67 102 54 67 102 54 67 102 54 67 102 54 67 102 54 67 102 54 67 102 54 67 102 54 67 102 54 67 102 54 67 102 54 67 102 54 67 102 54 67 102 54 67 102 54 67 102 54 67 102 54 67 102 54 67 102 54 67 102 54 67 102 54 67 102 54 67 102 54 67 102 54 67 102 54 67 102 54 67 102 54 67 102 54 67 102
54 67 102 54 67 102 54 67 102 54 67 102 54 67 102 54 67 102 54 67 102 54 67 102 54 67 102 54 67 102 54 67 102 54 67 102 54 67 102 54 67 102 54 67 102 54 67 102 54 67 102 54 67 102 54 67 102 54 67 102 54 67 102 54 67 102 54 67 102 54 67 102 54 67 102 54 67 102 54 67 102 54 67 102 54 67 102 54 67 102 54 67 102 54 67 102 54 67 102 54 67 102 54 67 102 54 67 102 54 67 102 54 67 102 54 67 102 54 67 102 54 67 102 54 67 102 54 67 102 54 67 102 54 67 102 54 67 102 54 67 102 54 67 102 54 67 102 54 67 102 54 67 102 54 67 102 54 67 102 54 67 102 54 67 102 54 67 102 54 67 102 54 67 102 54 67 102 54 67 102 54 67 102 54 67 102 54 67 102 54 67 102 54 67 102 54 67 102 54 67 102 54 67 102 54 67 102 54 67 102 54 67 102 54 67 102 54 67 102 54 67 102 54 67 102 54 67 102 54 67 102 54 67 102 54 67 102 54 67 102 54 67 102 54 67 102 54 67 102 54 67 102 54 67 102 54 67 102 54 67 102 54 67 102 54 67 102 54 67 102 54 67 102 54 67 102 54 67 102 54 67 102 54 67 102 54 67 102 54 67 102 54 67 102 54 67 102 54 67 102 54 67 102 54 67 102 54 67 102 54 67 102 54 67 102 54 67 102 54 67 102 54 67 102 54 67 102 54 67 102 54 67 102 54 67 102 54 67 102 54 67 102 54 67 102 54 67 102 54 67 102 54 67 102 54 67 102 54 67 102 54 67 102 54 67 102 54 67 102 54 67 102 54 67 102 54 67 102 54 67 102 54 67 102 54 67 102 54 67 102 54 67 102 54 67 102 54 67 102 54 67 102 54 67 102 54 67 102 54 67 102 54 67 102 54 67 102 54 67 102 54 67 102 54 67 102 54 67 102 54 67 102 54 67 102 54 67 102 54 67 102 54 67 102 54 67 102 54 67 102 54 67 102 54 67 102 54 67 102 54 67 102 54 67 102 54 67 102 54 67 102 54 67 102 54 67 102 54 67 102 54 67 102 54 67 102 54 67 102 54 67 102 54 67 102 54 67 102 54 67 102 54 67 102 54 67 102 54 67 102 54 67 102 54 67 102 54 67 102 54 67 102 54 67 102 54 67 102 54 67 102 54 67 102 54 67 102 54 67 102 54 67 102 54 67 102 54 67 102 54 67 102 54 67 102 54 67 102 54 67 102 54 67 102 54 67 102 54 67 102 54 67 102 54 67 102 54 67 102 54 67 102 54 67 102 54 67 102 54 67 102 54 67 102 54 67 102 54 67 102 54 67 102 54 67 102 54 67 102 54 67 102 54 67 102 54 67 102 54 67 102 54 67 102 54 67 102 54 67 102 54 67 102 54 67 102 54 67 102 54 67 102 54 67 102 54 67 102 54 67 102 54 67 102 54 67 102 54 67 102 54 67 102 54 67 102 54 67 102 54 67 102 54 67 102 54 67 102 54 67 102 54 67 102 54 67 102 54 67 102 54 67 102 54 67 102 54 67 102 54 67 102 54 67 102 54 67 102 54 67 102 54 67 102 54 67 102 54 67 102
54 67 102 54 67 102 54 67 102 54 67 102 54 67 102 54 67 102 54 67 102 54 67 102 54 67 102 54 67 102 54 67 102 54 67 102 54 67 102 54 67 102 54 67 102 54 67 102 54 67 102 54 67 102 54 67 102 54 67 102 54 67 102 54 67 102 54 67 102 54 67 102 54 67 102 54 67 102 54 67 102 54 67 102 54 67 102 54 67 102 54 67 102 54 67 102 54 67 102 54 67 102 54 67 102 54 67 102 54 67 102 54 67 102 54 67 102 54 67 102 54 67 102 54 67 102 54 67 102 54 67 102 54 67 102 54 67 102 54 67 102 54 67 102 54 67 102 54 67 102 54 67 102 54 67 102 54 67 102 54 67 102 54 67 102 54 67 102 54 67 102 54 67 102 54 67 102 54 67 102 54 67 102 54 67 102 54 67 102 54 67 102 54 67 102 54 67 102 54 67 102 54 67 102 54 67 102 54 67 102 54 67 102 54 67 102 54 67 102 54 67 102 54 67 102 54 67 102 54 67 102 54 67 102 54 67 102 54 67 102 54 67 102 54 67 102 54 67 102 54 67 102 54 67 102 54 67 102 54 67 102 54 67 102 54 67 102 54 67 102 54 67 102 54 67 102 54 67 102 54 67 102 54 67 102 54 67 102 54 67 102 54 67 102 54 67 102 54 67 102 54 67 102 54 67 102 54 67 102 54 67 102 54 67 102 54 67 102 54 67 102 54 67 102 54 67 102 54 67 102 54 67 102 54 67 102 54 67 102 54 67 102 54 67 102 54 67 102 54 67 102 54 67 102 54 67 102 54 67 102 54 67 102 54 67 102 54 67 102 54 67 102 54 67 102 54 67 102 54 67 102 54 67 102 54 67 102 54 67 102 54 67 102 54 67 102 54 67 102 54 67 102 54 67 102 54 67 102 54 67 102 54 67 102 54 67 102 54 67 102 54 67 102 54 67 102 54 67 102 54 67 102 54 67 102 54 67 102 54 67 102 54 67 102 54 67 102 54 67 102 54 67 102 54 67 102 54 67 102 54 67 102 54 67 102 54 67 102 54 67 102 54 67 102 54 67 102 54 67 102 54 67 102 54 67 102 54 67 102 54 67 102 54 67 102 54 67 102 54 67 102 54 67 102 54 67 102 54 67 102 54 67 102 54 67 102 54 67 102 54 67 102 54 67 102 54 67 102 54 67 102 54 67 102 54 67 102 54 67 102 54 67 102 54 67 102 54 67 102 54 67 102 54 67 102 54 67 102 54 67 102 54 67 102 54 67 102 54 67 102 54 67 102 54 67 102 54 67 102 54 67 102 54 67 102 54 67 102 54 67 102 54 67 102 54 67 102 54 67 102 54 67 102 54 67 102 54 67 102 54 67 102 54 67 102 54 67 102 54 67 102 54 67 102 54 67 102 54 67 102 54 67 102 54 67 102 54 67 102 54 67 102 54 67 102 54 67 102 54 67 102 54 67 102 54 67 102 54 67 102 54 67 102 54 67 102 54 67 102 54 67 102 54 67 102 54 67 102 54 67 102 54 67 102 54 67 102 54 67 102 54 67 102 54 67 102 54 67 102 54 67 102 54 67 102 54 67 102 54 67 102 54 67 102 54 67 102 54 67 102
54 67 102 54 67 102 54 67 102 54 67 102 54 67 102 54 67 102 54 67 102 54 67 102 54 67 102 54 67 102 54 67 102 54 67 102 54 67 102 54 67 102 54 67 102 54 67 102 54 67 102 54 67 102 54 67 102 54 67 102 54 67 102 54 67 102 54 67 102 54 67 102 54 67 102 54 67 102 54 67 102 54 67 102 54 67 102 54 67 102 54 67 102 54 67 102 54 67 102 54 67 102 54 67 102 54 67 102 54 67 102 54 67 102 54 67 102 54 67 102 54 67 102 54 67 102 54 67 102 54 67 102 54 67 102 54 67 102 54 67 102 54 67 102 54 67 102 54 67 102 54 67 102 54 67 102 54 67 102 54 67 102 54 67 102 54 67 102 54 67 102 54 67 102 54 67 102 54 67 102 54 67 102 54 67 102 54 67 102 54 67 102 54 67 102 54 67 102 54 67 102 54 67 102 54 67 102 54 67 102 54 67 102 54 67 102 54 67 102 54 67 102 54 67 102 54 67 102 54 67 102 54 67 102 54 67 102 54 67 102 54 67 102 54 67 102 54 67 102 54 67 102 54 67 102 54 67 102 54 67 102 54 67 102 54 67 102 54 67 102 54 67 102 54 67 102 54 67 102 54 67 102 54 67 102 54 67 102 54 67 102 54 67 102 54 67 102 54 67 102 54 67 102 54 67 102 54 67 102 54 67 102 54 67 102 54 67 102 54 67 102 54 67 102 54 67 102 54 67 102 54 67 102 54 67 102 54 67 102 54 67 102 54 67 102 54 67 102 54 67 102 54 67 102 54 67 102 54 67 102 54 67 102 54 67 102 54 67 102 54 67 102 54 67 102 54 67 102 54 67 102 54 67 102 54 67 102 54 67 102 54 67 102 54 67 102 54 67 102 54 67 102 54 67 102 54 67 102 54 67 102 54 67 102 54 67 102 54 67 102 54 67 102 54 67 102 54 67 102 54 67 102 54 67 102 54 67 102 54 67 102 54 67 102 54 67 102 54 67 102 54 67 102 54 67 102 54 67 102 54 67 102 54 67 102 54 67 102 54 67 102 54 67 102 54 67 102 54 67 102 54 67 102 54 67 102 54 67 102 54 67 102 54 67 102 54 67 102 54 67 102 54 67 102 54 67 102 54 67 102 54 67 102 54 67 102 54 67 102 54 67 102 54 67 102 54 67 102 54 67 102 54 67 102 54 67 102 54 67 102 54 67 102 54 67 102 54 67 102 54 67 102 54 67 102 54 67 102 54 67 102 54 67 102 54 67 102 54 67 102 54 67 102 54 67 102 54 67 102 54 67 102 54 67 102 54 67 102 54 67 102 54 67 102 54 67 102 54 67 102 54 67 102 54 67 102 54 67 102 54 67 102 54 67 102 54 67 102 54 67 102 54 67 102 54 67 102 54 67 102 54 67 102 54 67 102 54 67 102 54 67 102 54 67 102 54 67 102 54 67 102 54 67 102 54 67 102 54 67 102 54 67 102 54 67 102 54 67 102 54 67 102 54 67 102 54 67 102 54 67 102 54 67 102 54 67 102 54 67 102 54 67 102 54 67 102 54 67 102 54 67 102 54 67 102 54 67 102 54 67 102 54 67 102 54 67 102 54 67 102
54 67 102 54 67 102 54 67 102 54 67 102 54 67 102 54 67 102 54 67 102 54 67 102 54 67 102 54 67 102 54 67 102 54 67 102 54 67 102 54 67 102 54 67 102 54 67 102 54 67 102 54 67 102 54 67 102 54 67 102 54 67 102 54 67 102 54 67 102 54 67 102 54 67 102 54 67 102 54 67 102 54 67 102 54 67 102 54 67 102 54 67 102 54 67 102 54 67 102 54 67 102 54 67 102 54 67 102 54 67 102 54 67 102 54 67 102 54 67 102 54 67 102 54 67 102 54 67 102 54 67 102 54 67 102 54 67 102 54 67 102 54 67 102 54 67 102 54 67 102 54 67 102 54 67 102 54 67 102 54 67 102 54 67 102 54 67 102 54 67 102 54 67 102 54 67 102 54 67 102 54 67 102 54 67 102 54 67 102 54 67 102 54 67 102 54 67 102 54 67 102 54 67 102 54 67 102 54 67 102 54 67 102 54 67 102 54 67 102 54 67 102 54 67 102 54 67 102 54 67 102 54 67 102 54 67 102 54 67 102 54 67 102 54 67 102 54 67 102 54 67 102 54 67 102 54 67 102 54 67 102 54 67 102 54 67 102 54 67 102 54 67 102 54 67 102 54 67 102 54 67 102 54 67 102 54 67 102 54 67 102 54 67 102 54 67 102 54 67 102 54 67 102 54 67 102 54 67 102 54 67 102 54 67 102 54 67 102 54 67 102 54 67 102 54 67 102 54 67 102 54 67 102 54 67 102 54 67 102 54 67 102 54 67 102 54 67 102 54 67 102 54 67 102 54 67 102 54 67 102 54 67 102 54 67 102 54 67 102 54 67 102 54 67 102 54 67 102 54 67 102 54 67 102 54 67 102 54 67 102 54 67 102 54 67 102 54 67 102 54 67 102 54 67 102 54 67 102 54 67 102 54 67 102 54 67 102 54 67 102 54 67 102 54 67 102 54 67 102 54 67 102 54 67 102 54 67 102 54 67 102 54 67 102 54 67 102 54 67 102 54 67 102 54 67 102 54 67 102 54 67 102 54 67 102 54 67 102 54 67 102 54 67 102 54 67 102 54 67 102 54 67 102 54 67 102 54 67 102 54 67 102 54 67 102 54 67 102 54 67 102 54 67 102 54 67 102 54 67 102 54 67 102 54 67 102 54 67 102 54 67 102 54 67 102 54 67 102 54 67 102 54 67 102 54 67 102 54 67 102 54 67 102 54 67 102 54 67 102 54 67 102 54 67 102 54 67 102 54 67 102 54 67 102 54 67 102 54 67 102 54 67 102 54 67 102 54 67 102 54 67 102 54 67 102 54 67 102 54 67 102 54 67 102 54 67 102 54 67 102 54 67 102 54 67 102 54 67 102 54 67 102 54 67 102 54 67 102 54 67 102 54 67 102 54 67 102 54 67 102 54 67 102 54 67 102 54 67 102 54 67 102 54 67 102 54 67 102 54 67 102 54 67 102 54 67 102 54 67 102 54 67 102 54 67 102 54 67 102 54 67 102 54 67 102 54 67 102 54 67 102 54 67 102 54 67 102 54 67 102 54 67 102 54 67 102 54 67 102 54 67 102 54 67 102 54 67 102 54 67 102 54 67 102 54 67 102 54 67 102
54 67 102 54 67 102 54 67 102 54 67 102 54 67 102 54 67 102 54 67 102 54 67 102 54 67 102 54 67 102 54 67 102 54 67 102 54 67 102 54 67 102 54 67 102 54 67 102 54 67 102 54 67 102 54 67 102 54 67 102 54 67 102 54 67 102 54 67 102 54 67 102 54 67 102 54 67 102 54 67 102 54 67 102 54 67 102 54 67 102 54 67 102 54 67 102 54 67 102 54 67 102 54 67 102 54 67 102 54 67 102 54 67 102 54 67 102 54 67 102 54 67 102 54 67 102 54 67 102 54 67 102 54 67 102 54 67 102 54 67 102 54 67 102 54 67 102 54 67 102 54 67 102 54 67 102 54 67 102 54 67 102 54 67 102 54 67 102 54 67 102 54 67 102 54 67 102 54 67 102 54 67 102 54 67 102 54 67 102 54 67 102 54 67 102 54 67 102 54 67 102 54 67 102 54 67 102 54 67 102 54 67 102 54 67 102 54 67 102 54 67 102 54 67 102 54 67 102 54 67 102 54 67 102 54 67 102 54 67 102 54 67 102 54 67 102 54 67 102 54 67 102 54 67 102 54 67 102 54 67 102 54 67 102 54 67 102 54 67 102 54 67 102 54 67 102 54 67 102 54 67 102 54 67 102 54 67 102 54 67 102 54 67 102 54 67 102 54 67 102 54 67 102 54 67 102 54 67 102 54 67 102 54 67 102 54 67 102 54 67 102 54 67 102 54 67 102 54 67 102 54 67 102 54 67 102 54 67 102 54 67 102 54 67 102 54 67 102 54 67 102 54 67 102 54 67 102 54 67 102 54 67 102 54 67 102 54 67 102 54 67 102 54 67 102 54 67 102 54 67 102 54 67 102 54 67 102 54 67 102 54 67 102 54 67 102 54 67 102 54 67 102 54 67 102 54 67 102 54 67 102 54 67 102 54 67 102 54 67 102 54 67 102 54 67 102 54 67 102 54 67 102 54 67 102 54 67 102 54 67 102 54 67 102 54 67 102 54 67 102 54 67 102 54 67 102 54 67 102 54 67 102 54 67 102 54 67 102 54 67 102 54 67 102 54 67 102 54 67 102 54 67 102 54 67 102 54 67 102 54 67 102 54 67 102 54 67 102 54 67 102 54 67 102 54 67 102 54 67 102 54 67 102 54 67 102 54 67 102 54 67 102 54 67 102 54 67 102 54 67 102 54 67 102 54 67 102 54 67 102 54 67 102 54 67 102 54 67 102 54 67 102 54 67 102 54 67 102 54 67 102 54 67 102 54 67 102 54 67 102 54 67 102 54 67 102 54 67 102 54 67 102 54 67 102 54 67 102 54 67 102 54 67 102 54 67 102 54 67 102 54 67 102 54 67 102 54 67 102 54 67 102 54 67 102 54 67 102 54 67 102 54 67 102 54 67 102 54 67 102 54 67 102 54 67 102 54 67 102 54 67 102 54 67 102 54 67 102 54 67 102 54 67 102 54 67 102 54 67 102 54 67 102 54 67 102 54 67 102 54 67 102 54 67 102 54 67 102 54 67 102 54 67 102 54 67 102 54 67 102 54 67 102 54 67 102 54 67 102 54 67 102 54 67 102 54 67 102 54 67 102 54 67 102 54 67 102 54 67 102
54 67 102 54 67 102 54 67 102 54 67 102 54 67 102 54 67 102 54 67 102 54 67 102 54 67 102 54 67 102 54 67 102 54 67 102 54 67 102 54 67 102 54 67 102 54 67 102 54 67 102 54 67 102 54 67 102 54 67 102 54 67 102 54 67 102 54 67 102 54 67 102 54 67 102 54 67 102 54 67 102 54 67 102 54 67 102 54 67 102 54 67 102 54 67 102 54 67 102 54 67 102 54 67 102 54 67 102 54 67 102 54 67 102 54 67 102 54 67 102 54 67 102 54 67 102 54 67 102 54 67 102 54 67 102 54 67 102 54 67 102 54 67 102 54 67 102 54 67 102 54 67 102 54 67 102 54 67 102 54 67 102 54 67 102 54 67 102 54 67 102 54 67 102 54 67 102 54 67 102 54 67 102 54 67 102 54 67 102 54 67 102 54 67 102 54 67 102 54 67 102 54 67 102 54 67 102 54 67 102 54 67 102 54 67 102 54 67 102 54 67 102 54 67 102 54 67 102 54 67 102 54 67 102 54 67 102 54 67 102 54 67 102 54 67 102 54 67 102 54 67 102 54 67 102 54 67 102 54 67 102 54 67 102 54 67 102 54 67 102 54 67 102 54 67 102 54 67 102 54 67 102 54 67 102 54 67 102 54 67 102 54 67 102 54 67 102 54 67 102 54 67 102 54 67 102 54 67 102 54 67 102 54 67 102 54 67 102 54 67 102 54 67 102 54 67 102 54 67 102 54 67 102 54 67 102 54 67 102 54 67 102 54 67 102 54 67 102 54 67 102 54 67 102 54 67 102 54 67 102 54 67 102 54 67 102 54 67 102 54 67 102 54 67 102 54 67 102 54 67 102 54 67 102 54 67 102 54 67 102 54 67 102 54 67 102 54 67 102 54 67 102 54 67 102 54 67 102 54 67 102 54 67 102 54 67 102 54 67 102 54 67 102 54 67 102 54 67 102 54 67 102 54 67 102 54 67 102 54 67 102 54 67 102 54 67 102 54 67 102 54 67 102 54 67 102 54 67 102 54 67 102 54 67 102 54 67 102 54 67 102 54 67 102 54 67 102 54 67 102 54 67 102 54 67 102 54 67 102 54 67 102 54 67 102 54 67 102 54 67 102 54 67 102 54 67 102 54 67 102 54 67 102 54 67 102 54 67 102 54 67 102 54 67 102 54 67 102 54 67 102 54 67 102 54 67 102 54 67 102 54 67 102 54 67 102 54 67 102 54 67 102 54 67 102 54 67 102 54 67 102 54 67 102 54 67 102 54 67 102 54 67 102 54 67 102 54 67 102 54 67 102 54 67 102 54 67 102 54 67 102 54 67 102 54 67 102 54 67 102 54 67 102 54 67 102 54 67 102 54 67 102 54 67 102 54 67 102 54 67 102 54 67 102 54 67 102 54 67 102 54 67 102 54 67 102 54 67 102 54 67 102 54 67 102 54 67 102 54 67 102 54 67 102 54 67 102 54 67 102 54 67 102 54 67 102 54 67 102 54 67 102 54 67 102 54 67 102 54 67 102 54 67 102 54 67 102 54 67 102 54 67 102 54 67 102 54 67 102 54 67 102 54 67 102 54 67 102 54 67 102 54 67 102 54 67 102 54 67 102
54 67 102 54 67 102 54 67 102 54 67 102 54 67 102 54 67 102 54 67 102 54 67 102 54 67 102 54 67 102 54 67 102 54 67 102 54 67 102 54 67 102 54 67 102 54 67 102 54 67 102 54 67 102 54 67 102 54 67 102 54 67 102 54 67 102 54 67 102 54 67 102 54 67 102 54 67 102 54 67 102 54 67 102 54 67 102 54 67 102 54 67 102 54 67 102 54 67 102 54 67 102 54 67 102 54 67 102 54 67 102 54 67 102 54 67 102 54 67 102 54 67 102 54 67 102 54 67 102 54 67 102 54 67 102 54 67 102 54 67 102 54 67 102 54 67 102 54 67 102 54 67 102 54 67 102 54 67 102 54 67 102 54 67 102 54 67 102 54 67 102 54 67 102 54 67 102 54 67 102 54 67 102 54 67 102 54 67 102 54 67 102 54 67 102 54 67 102 54 67 102 54 67 102 54 67 102 54 67 102 54 67 102 54 67 102 54 67 102 54 67 102 54 67 102 54 67 102 54 67 102 54 67 102 54 67 102 54 67 102 54 67 102 54 67 102 54 67 102 54 67 102 54 67 102 54 67 102 54 67 102 54 67 102 54 67 102 54 67 102 54 67 102 54 67 102 54 67 102 54 67 102 54 67 102 54 67 102 54 67 102 54 67 102 54 67 102 54 67 102 54 67 102 54 67 102 54 67 102 54 67 102 54 67 102 54 67 102 54 67 102 54 67 102 54 67 102 54 67 102 54 67 102 54 67 102 54 67 102 54 67 102 54 67 102 54 67 102 54 67 102 54 67 102 54 67 102 54 67 102 54 67 102 54 67 102 54 67 102 54 67 102 54 67 102 54 67 102 54 67 102 54 67 102 54 67 102 54 67 102 54 67 102 54 67 102 54 67 102 54 67 102 54 67 102 54 67 102 54 67 102 54 67 102 54 67 102 54 67 102 54 67 102 54 67 102 54 67 102 54 67 102 54 67 102 54 67 102 54 67 102 54 67 102 54 67 102 54 67 102 54 67 102 54 67 102 54 67 102 54 67 102 54 67 102 54 67 102 54 67 102 54 67 102 54 67 102 54 67 102 54 67 102 54 67 102 54 67 102 54 67 102 54 67 102 54 67 102 54 67 102 54 67 102 54 67 102 54 67 102 54 67 102 54 67 102 54 67 102 54 67 102 54 67 102 54 67 102 54 67 102 54 67 102 54 67 102 54 67 102 54 67 102 54 67 102 54 67 102 54 67 102 54 67 102 54 67 102 54 67 102 54 67 102 54 67 102 54 67 102 54 67 102 54 67 102 54 67 102 54 67 102 54 67 102 54 67 102 54 67 102 54 67 102 54 67 102 54 67 102 54 67 102 54 67 102 54 67 102 54 67 102 54 67 102 54 67 102 54 67 102 54 67 102 54 67 102 54 67 102 54 67 102 54 67 102 54 67 102 54 67 102 54 67 102 54 67 102 54 67 102 54 67 102 54 67 102 54 67 102 54 67 102 54 67 102 54 67 102 54 67 102 54 67 102 54 67 102 54 67 102 54 67 102 54 67 102 54 67 102 54 67 102 54 67 102 54 67 102 54 67 102 54 67 102 54 67 102 54 67 102 54 67 102 54 67 102 54 67 102
54 67 102 54 67 102 54 67 102 54 67 102 54 67 102 54 67 102 54 67 102 54 67 102 54 67 102 54 67 102 54 67 102 54 67 102 54 67 102 54 67 102 54 67 102 54 67 102 54 67 102 54 67 102 54 67 102 54 67 102 54 67 102 54 67 102 54 67 102 54 67 102 54 67 102 54 67 102 54 67 102 54 67 102 54 67 102 54 67 102 54 67 102 54 67 102 54 67 102 54 67 102 54 67 102 54 67 102 54 67 102 54 67 102 54 67 102 54 67 102 54 67 102 54 67 102 54 67 102 54 67 102 54 67 102 54 67 102 54 67 102 54 67 102 54 67 102 54 67 102 54 67 102 54 67 102 54 67 102 54 67 102 54 67 102 54 67 102 54 67 102 54 67 102 54 67 102 54 67 102 54 67 102 54 67 102 54 67 102 54 67 102 54 67 102 54 67 102 54 67 102 54 67 102 54 67 102 54 67 102 54 67 102 54 67 102 54 67 102 54 67 102 54 67 102 54 67 102 54 67 102 54 67 102 54 67 102 54 67 102 54 67 102 54 67 102 54 67 102 54 67 102 54 67 102 54 67 102 54 67 102 54 67 102 54 67 102 54 67 102 54 67 102 54 67 102 54 67 102 54 67 102 54 67 102 54 67 102 54 67 102 54 67 102 54 67 102 54 67 102 54 67 102 54 67 102 54 67 102 54 67 102 54 67 102 54 67 102 54 67 102 54 67 102 54 67 102 54 67 102 54 67 102 54 67 102 54 67 102 54 67 102 54 67 102 54 67 102 54 67 102 54 67 102 54 67 102 54 67 102 54 67 102 54 67 102 54 67 102 54 67 102 54 67 102 54 67 102 54 67 102 54 67 102 54 67 102 54 67 102 54 67 102 54 67 102 54 67 102 54 67 102 54 67 102 54 67 102 54 67 102 54 67 102 54 67 102 54 67 102 54 67 102 54 67 102 54 67 102 54 67 102 54 67 102 54 67 102 54 67 102 54 67 102 54 67 102 54 67 102 54 67 102 54 67 102 54 67 102 54 67 102 54 67 102 54 67 102 54 67 102 54 67 102 54 67 102 54 67 102 54 67 102 54 67 102 54 67 102 54 67 102 54 67 102 54 67 102 54 67 102 54 67 102 54 67 102 54 67 102 54 67 102 54 67 102 54 67 102 54 67 102 54 67 102 54 67 102 54 67 102 54 67 102 54 67 102 54 67 102 54 67 102 54 67 102 54 67 102 54 67 102 54 67 102 54 67 102 54 67 102 54 67 102 54 67 102 54 67 102 54 67 102 54 67 102 54 67 102 54 67 102 54 67 102 54 67 102 54 67 102 54 67 102 54 67 102 54 67 102 54 67 102 54 67 102 54 67 102 54 67 102 54 67 102 54 67 102 54 67 102 54 67 102 54 67 102 54 67 102 54 67 102 54 67 102 54 67 102 54 67 102 54 67 102 54 67 102 54 67 102 54 67 102 54 67 102 54 67 102 54 67 102 54 67 102 54 67 102 54 67 102 54 67 102 54 67 102 54 67 102 54 67 102 54 67 102 54 67 102 54 67 102 54 67 102 54 67 102 54 67 102 54 67 102 54 67 102 54 67 102 54 67 102 54 67 102 54 67 102
54 67 102 54 67 102 54 67 102 54 67 102 54 67 102 54 67 102 54 67 102 54 67 102 54 67 102 54 67 102 54 67 102 54 67 102 54 67 102 54 67 102 54 67 102 54 67 102 54 67 102 54 67 102 54 67 102 54 67 102 54 67 102 54 67 102 54 67 102 54 67 102 54 67 102 54 67 102 54 67 102 54 67 102 54 67 102 54 67 102 54 67 102 54 67 102 54 67 102 54 67 102 54 67 102 54 67 102 54 67 102 54 67 102 54 67 102 54 67 102 54 67 102 54 67 102 54 67 102 54 67 102 54 67 102 54 67 102 54 67 102 54 67 102 54 67 102 54 67 102 54 67 102 54 67 102 54 67 102 54 67 102 54 67 102 54 67 102 54 67 102 54 67 102 54 67 102 54 67 102 54 67 102 54 67 102 54 67 102 54 67 102 54 67 102 54 67 102 54 67 102 54 67 102 54 67 102 54 67 102 54 67 102 54 67 102 54 67 102 54 67 102 54 67 102 54 67 102 54 67 102 54 67 102 54 67 102 54 67 102 54 67 102 54 67 102 54 67 102 54 67 102 54 67 102 54 67 102 54 67 102 54 67 102 54 67 102 54 67 102 54 67 102 54 67 102 54 67 102 54 67 102 54 67 102 54 67 102 54 67 102 54 67 102 54 67 102 54 67 102 54 67 102 54 67 102 54 67 102 54 67 102 54 67 102 54 67 102 54 67 102 54 67 102 54 67 102 54 67 102 54 67 102 54 67 102 54 67 102 54 67 102 54 67 102 54 67 102 54 67 102 54 67 102 54 67 102 54 67 102 54 67 102 54 67 102 54 67 102 54 67 102 54 67 102 54 67 102 54 67 102 54 67 102 54 67 102 54 67 102 54 67 102 54 67 102 54 67 102 54 67 102 54 67 102 54 67 102 54 67 102 54 67 102 54 67 102 54 67 102 54 67 102 54 67 102 54 67 102 54 67 102 54 67 102 54 67 102 54 67 102 54 67 102 54 67 102 54 67 102 54 67 102 54 67 102 54 67 102 54 67 102 54 67 102 54 67 102 54 67 102 54 67 102 54 67 102 54 67 102 54 67 102 54 67 102 54 67 102 54 67 102 54 67 102 54 67 102 54 67 102 54 67 102 54 67 102 54 67 102 54 67 102 54 67 102 54 67 102 54 67 102 54 67 102 54 67 102 54 67 102 54 67 102 54 67 102 54 67 102 54 67 102 54 67 102 54 67 102 54 67 102 54 67 102 54 67 102 54 67 102 54 67 102 54 67 102 54 67 102 54 67 102 54 67 102 54 67 102 54 67 102 54 67 102 54 67 102 54 67 102 54 67 102 54 67 102 54 67 102 54 67 102 54 67 102 54 67 102 54 67 102 54 67 102 54 67 102 54 67 102 54 67 102 54 67 102 54 67 102 54 67 102 54 67 102 54 67 102 54 67 102 54 67 102 54 67 102 54 67 102 54 67 102 54 67 102 54 67 102 54 67 102 54 67 102 54 67 102 54 67 102 54 67 102 54 67 102 54 67 102 54 67 102 54 67 102 54 67 102 54 67 102 54 67 102 54 67 102 54 67 102 54 67 102 54 67 102 54 67 102 54 67 102 54 67 102 54 67 102
54 67 102 54 67 102 54 67 102 54 67 102 54 67 102 54 67 102 54 67 102 54 67 102 54 67 102 54 67 102 54 67 102 54 67 102 54 67 102 54 67 102 54 67 102 54 67 102 54 67 102 54 67 102 54 67 102 54 67 102 54 67 102 54 67 102 54 67 102 54 67 102 54 67 102 54 67 102 54 67 102 54 67 102 54 67 102 54 67 102 54 67 102 54 67 102 54 67 102 54 67 102 54 67 102 54 67 102 54 67 102 54 67 102 54 67 102 54 67 102 54 67 102 54 67 102 54 67 102 54 67 102 54 67 102 54 67 102 54 67 102 54 67 102 54 67 102 54 67 102 54 67 102 54 67 102 54 67 102 54 67 102 54 67 102 54 67 102 54 67 102 54 67 102 54 67 102 54 67 102 54 67 102 54 67 102 54 67 102 54 67 102 54 67 102 54 67 102 54 67 102 54 67 102 54 67 102 54 67 102 54 67 102 54 67 102 54 67 102 54 67 102 54 67 102 54 67 102 54 67 102 54 67 102 54 67 102 54 67 102 54 67 102 54 67 102 54 67 102 54 67 102 54 67 102 54 67 102 54 67 102 54 67 102 54 67 102 54 67 102 54 67 102 54 67 102 54 67 102 54 67 102 54 67 102 54 67 102 54 67 102 54 67 102 54 67 102 54 67 102 54 67 102 54 67 102 54 67 102 54 67 102 54 67 102 54 67 102 54 67 102 54 67 102 54 67 102 54 67 102 54 67 102 54 67 102 54 67 102 54 67 102 54 67 102 54 67 102 54 67 102 54 67 102 54 67 102 54 67 102 54 67 102 54 67 102 54 67 102 54 67 102 54 67 102 54 67 102 54 67 102 54 67 102 54 67 102 54 67 102 54 67 102 54 67 102 54 67 102 54 67 102 54 67 102 54 67 102 54 67 102 54 67 102 54 67 102 54 67 102 54 67 102 54 67 102 54 67 102 54 67 102 54 67 102 54 67 102 54 67 102 54 67 102 54 67 102 54 67 102 54 67 102 54 67 102 54 67 102 54 67 102 54 67 102 54 67 102 54 67 102 54 67 102 54 67 102 54 67 102 54 67 102 54 67 102 54 67 102 54 67 102 54 67 102 54 67 102 54 67 102 54 67 102 54 67 102 54 67 102 54 67 102 54 67 102 54 67 102 54 67 102 54 67 102 54 67 102 54 67 102 54 67 102 54 67 102 54 67 102 54 67 102 54 67 102 54 67 102 54 67 102 54 67 102 54 67 102 54 67 102 54 67 102 54 67 102 54 67 102 54 67 102 54 67 102 54 67 102 54 67 102 54 67 102 54 67 102 54 67 102 54 67 102 54 67 102 54 67 102 54 67 102 54 67 102 54 67 102 54 67 102 54 67 102 54 67 102 54 67 102 54 67 102 54 67 102 54 67 102 54 67 102 54 67 102 54 67 102 54 67 102 54 67 102 54 67 102 54 67 102 54 67 102 54 67 102 54 67 102 54 67 102 54 67 102 54 67 102 54 67 102 54 67 102 54 67 102 54 67 102 54 67 102 54 67 102 54 67 102 54 67 102 54 67 102 54 67 102 54 67 102 54 67 102 54 67 102 54 67 102 54 67 102 54 67 102 54 67 102
54 67 102 54 67 102 54 67 102 54 67 102 54 67 102 54 67 102 54 67 102 54 67 102 54 67 102 54 67 102 54 67 102 54 67 102 54 67 102 54 67 102 54 67 102 54 67 102 54 67 102 54 67 102 54 67 102 54 67 102 54 67 102 54 67 102 54 67 102 54 67 102 54 67 102 54 67 102 54 67 102 54 67 102 54 67 102 54 67 102 54 67 102 54 67 102 54 67 102 54 67 102 54 67 102 54 67 102 54 67 102 54 67 102 54 67 102 54 67 102 54 67 102 54 67 102 54 67 102 54 67 102 54 67 102 54 67 102 54 67 102 54 67 102 54 67 102 54 67 102 54 67 102 54 67 102 54 67 102 54 67 102 54 67 102 54 67 102 54 67 102 54 67 102 54 67 102 54 67 102 54 67 102 54 67 102 54 67 102 54 67 102 54 67 102 54 67 102 54 67 102 54 67 102 54 67 102 54 67 102 54 67 102 54 67 102 54 67 102 54 67 102 54 67 102 54 67 102 54 67 102 54 67 102 54 67 102 54 67 102 54 67 102 54 67 102 54 67 102 54 67 102 54 67 102 54 67 102 54 67 102 54 67 102 54 67 102 54 67 102 54 67 102 54 67 102 54 67 102 54 67 102 54 67 102 54 67 102 54 67 102 54 67 102 54 67 102 54 67 102 54 67 102 54 67 102 54 67 102 54 67 102 54 67 102 54 67 102 54 67 102 54 67 102 54 67 102 54 67 102 54 67 102 54 67 102 54 67 102 54 67 102 54 67 102 54 67 102 54 67 102 54 67 102 54 67 102 54 67 102 54 67 102 54 67 102 54 67 102 54 67 102 54 67 102 54 67 102 54 67 102 54 67 102 54 67 102 54 67 102 54 67 102 54 67 102 54 67 102 54 67 102 54 67 102 54 67 102 54 67 102 54 67 102 54 67 102 54 67 102 54 67 102 54 67 102 54 67 102 54 67 102 54 67 102 54 67 102 54 67 102 54 67 102 54 67 102 54 67 102 54 67 102 54 67 102 54 67 102 54 67 102 54 67 102 54 67 102 54 67 102 54 67 102 54 67 102 54 67 102 54 67 102 54 67 102 54 67 102 54 67 102 54 67 102 54 67 102 54 67 102 54 67 102 54 67 102 54 67 102 54 67 102 54 67 102 54 67 102 54 67 102 54 67 102 54 67 102 54 67 102 54 67 102 54 67 102 54 67 102 54 67 102 54 67 102 54 67 102 54 67 102 54 67 102 54 67 102 54 67 102 54 67 102 54 67 102 54 67 102 54 67 102 54 67 102 54 67 102 54 67 102 54 67 102 54 67 102 54 67 102 54 67 102 54 67 102 54 67 102 54 67 102 54 67 102 54 67 102 54 67 102 54 67 102 54 67 102 54 67 102 54 67 102 54 67 102 54 67 102 54 67 102 54 67 102 54 67 102 54 67 102 54 67 102 54 67 102 54 67 102 54 67 102 54 67 102 54 67 102 54 67 102 54 67 102 54 67 102 54 67 102 54 67 102 54 67 102 54 67 102 54 67 102 54 67 102 54 67 102 54 67 102 54 67 102 54 67 102 54 67 102 54 67 102 54 67 102 54 67 102 54 67 102 54 67 102 54 67 102
54 67 102 54 67 102 54 67 102 54 67 102 54 67 102 54 67 102 54 67 102 54 67 102 54 67 102 54 67 102 54 67 102 54 67 102 54 67 102 54 67 102 54 67 102 54 67 102 54 67 102 54 67 102 54 67 102 54 67 102 54 67 102 54 67 102 54 67 102 54 67 102 54 67 102 54 67 102 54 67 102 54 67 102 54 67 102 54 67 102 54 67 102 54 67 102 54 67 102 54 67 102 54 67 102 54 67 102 54 67 102 54 67 102 54 67 102 54 67 102 54 67 102 54 67 102 54 67 102 54 67 102 54 67 102 54 67 102 54 67 102 54 67 102 54 67 102 54 67 102 54 67 102 54 67 102 54 67 102 54 67 102 54 67 102 54 67 102 54 67 102 54 67 102 54 67 102 54 67 102 54 67 102 54 67 102 54 67 102 54 67 102 54 67 102 54 67 102 54 67 102 54 67 102 54 67 102 54 67 102 54 67 102 54 67 102 54 67 102 54 67 102 54 67 102 54 67 102 54 67 102 54 67 102 54 67 102 54 67 102 54 67 102 54 67 102 54 67 102 54 67 102 54 67 102 54 67 102 54 67 102 54 67 102 54 67 102 54 67 102 54 67 102 54 67 102 54 67 102 54 67 102 54 67 102 54 67 102 54 67 102 54 67 102 54 67 102 54 67 102 54 67 102 54 67 102 54 67 102 54 67 102 54 67 102 54 67 102 54 67 102 54 67 102 54 67 102 54 67 102 54 67 102 54 67 102 54 67 102 54 67 102 54 67 102 54 67 102 54 67 102 54 67 102 54 67 102 54 67 102 54 67 102 54 67 102 54 67 102 54 67 102 54 67 102 54 67 102 54 67 102 54 67 102 54 67 102 54 67 102 54 67 102 54 67 102 54 67 102 54 67 102 54 67 102 54 67 102 54 67 102 54 67 102 54 67 102 54 67 102 54 67 102 54 67 102 54 67 102 54 67 102 54 67 102 54 67 102 54 67 102 54 67 102 54 67 102 54 67 102 54 67 102 54 67 102 54 67 102 54 67 102 54 67 102 54 67 102 54 67 102 54 67 102 54 67 102 54 67 102 54 67 102 54 67 102 54 67 102 54 67 102 54 67 102 54 67 102 54 67 102 54 67 102 54 67 102 54 67 102 54 67 102 54 67 102 54 67 102 54 67 102 54 67 102 54 67 102 54 67 102 54 67 102 54 67 102 54 67 102 54 67 102 54 67 102 54 67 102 54 67 102 54 67 102 54 67 102 54 67 102 54 67 102 54 67 102 54 67 102 54 67 102 54 67 102 54 67 102 54 67 102 54 67 102 54 67 102 54 67 102 54 67 102 54 67 102 54 67 102 54 67 102 54 67 102 54 67 102 54 67 102 54 67 102 54 67 102 54 67 102 54 67 102 54 67 102 54 67 102 54 67 102 54 67 102 54 67 102 54 67 102 54 67 102 54 67 102 54 67 102 54 67 102 54 67 102 54 67 102 54 67 102 54 67 102 54 67 102 54 67 102 54 67 102 54 67 102 54 67 102 54 67 102 54 67 102 54 67 102 54 67 102 54 67 102 54 67 102 54 67 102 54 67 102 54 67 102 54 67 102 54 67 102 54 67 102 54 67 102
54 67 102 54 67 102 54 67 102 54 67 102 54 67 102 54 67 102 54 67 102 54 67 102 54 67 102 54 67 102 54 67 102 54 67 102 54 67 102 54 67 102 54 67 102 54 67 102 54 67 102 54 67 102 54 67 102 54 67 102 54 67 102 54 67 102 54 67 102 54 67 102 54 67 102 54 67 102 54 67 102 54 67 102 54 67 102 54 67 102 54 67 102 54 67 102 54 67 102 54 67 102 54 67 102 54 67 102 54 67 102 54 67 102 54 67 102 54 67 102 54 67 102 54 67 102 54 67 102 54 67 102 54 67 102 54 67 102 54 67 102 54 67 102 54 67 102 54 67 102 54 67 102 54 67 102 54 67 102 54 67 102 54 67 102 54 67 102 54 67 102 54 67 102 54 67 102 54 67 102 54 67 102 54 67 102 54 67 102 54 67 102 54 67 102 54 67 102 54 67 102 54 67 102 54 67 102 54 67 102 54 67 102 54 67 102 54 67 102 54 67 102 54 67 102 54 67 102 54 67 102 54 67 102 54 67 102 54 67 102 54 67 102 54 67 102 54 67 102 54 67 102 54 67 102 54 67 102 54 67 102 54 67 102 54 67 102 54 67 102 54 67 102 54 67 102 54 67 102 54 67 102 54 67 102 54 67 102 54 67 102 54 67 102 54 67 102 54 67 102 54 67 102 54 67 102 54 67 102 54 67 102 54 67 102 54 67 102 54 67 102 54 67 102 54 67 102 54 67 102 54 67 102 54 67 102 54 67 102 54 67 102 54 67 102 54 67 102 54 67 102 54 67 102 54 67 102 54 67 102 54 67 102 54 67 102 54 67 102 54 67 102 54 67 102 54 67 102 54 67 102 54 67 102 54 67 102 54 67 102 54 67 102 54 67 102 54 67 102 54 67 102 54 67 102 54 67 102 54 67 102 54 67 102 54 67 102 54 67 102 54 67 102 54 67 102 54 67 102 54 67 102 54 67 102 54 67 102 54 67 102 54 67 102 54 67 102 54 67 102 54 67 102 54 67 102 54 67 102 54 67 102 54 67 102 54 67 102 54 67 102 54 67 102 54 67 102 54 67 102 54 67 102 54 67 102 54 67 102 54 67 102 54 67 102 54 67 102 54 67 102 54 67 102 54 67 102 54 67 102 54 67 102 54 67 102 54 67 102 54 67 102 54 67 102 54 67 102 54 67 102 54 67 102 54 67 102 54 67 102 54 67 102 54 67 102 54 67 102 54 67 102 54 67 102 54 67 102 54 67 102 54 67 102 54 67 102 54 67 102 54 67 102 54 67 102 54 67 102 54 67 102 54 67 102 54 67 102 54 67 102 54 67 102 54 67 102 54 67 102 54 67 102 54 67 102 54 67 102 54 67 102 54 67 102 54 67 102 54 67 102 54 67 102 54 67 102 54 67 102 54 67 102 54 67 102 54 67 102 54 67 102 54 67 102 54 67 102 54 67 102 54 67 102 54 67 102 54 67 102 54 67 102 54 67 102 54 67 102 54 67 102 54 67 102 54 67 102 54 67 102 54 67 102 54 67 102 54 67 102 54 67 102 54 67 102 54 67 102 54 67 102 54 67 102 54 67 102 54 67 102 54 67 102 54 67 102 54 67 102
54 67 102 54 67 102 54 67 102 54 67 102 54 67 102 54 67 102 54 67 102 54 67 102 54 67 102 54 67 102 54 67 102 54 67 102 54 67 102 54 67 102 54 67 102 54 67 102 54 67 102 54 67 102 54 67 102 54 67 102 54 67 102 54 67 102 54 67 102 54 67 102 54 67 102 54 67 102 54 67 102 54 67 102 54 67 102 54 67 102 54 67 102 54 67 102 54 67 102 54 67 102 54 67 102 54 67 102 54 67 102 54 67 102 54 67 102 54 67 102 54 67 102 54 67 102 54 67 102 54 67 102 54 67 102 54 67 102 54 67 102 54 67 102 54 67 102 54 67 102 54 67 102 54 67 102 54 67 102 54 67 102 54 67 102 54 67 102 54 67 102 54 67 102 54 67 102 54 67 102 54 67 102 54 67 102 54 67 102 54 67 102 54 67 102 54 67 102 54 67 102 54 67 102 54 67 102 54 67 102 54 67 102 54 67 102 54 67 102 54 67 102 54 67 102 54 67 102 54 67 102 54 67 102 54 67 102 54 67 102 54 67 102 54 67 102 54 67 102 54 67 102 54 67 102 54 67 102 54 67 102 54 67 102 54 67 102 54 67 102 54 67 102 54 67 102 54 67 102 54 67 102 54 67 102 54 67 102 54 67 102 54 67 102 54 67 102 54 67 102 54 67 102 54 67 102 54 67 102 54 67 102 54 67 102 54 67 102 54 67 102 54 67 102 54 67 102 54 67 102 54 67 102 54 67 102 54 67 102 54 67 102 54 67 102 54 67 102 54 67 102 54 67 102 54 67 102 54 67 102 54 67 102 54 67 102 54 67 102 54 67 102 54 67 102 54 67 102 54 67 102 54 67 102 54 67 102 54 67 102 54 67 102 54 67 102 54 67 102 54 67 102 54 67 102 54 67 102 54 67 102 54 67 102 54 67 102 54 67 102 54 67 102 54 67 102 54 67 102 54 67 102 54 67 102 54 67 102 54 67 102 54 67 102 54 67 102 54 67 102 54 67 102 54 67 102 54 67 102 54 67 102 54 67 102 54 67 102 54 67 102 54 67 102 54 67 102 54 67 102 54 67 102 54 67 102 54 67 102 54 67 102 54 67 102 54 67 102 54 67 102 54 67 102 54 67 102 54 67 102 54 67 102 54 67 102 54 67 102 54 67 102 54 67 102 54 67 102 54 67 102 54 67 102 54 67 102 54 67 102 54 67 102 54 67 102 54 67 102 54 67 102 54 67 102 54 67 102 54 67 102 54 67 102 54 67 102 54 67 102 54 67 102 54 67 102 54 67 102 54 67 102 54 67 102 54 67 102 54 67 102 54 67 102 54 67 102 54 67 102 54 67 102 54 67 102 54 67 102 54 67 102 54 67 102 54 67 102 54 67 102 54 67 102 54 67 102 54 67 102 54 67 102 54 67 102 54 67 102 54 67 102 54 67 102 54 67 102 54 67 102 54 67 102 54 67 102 54 67 102 54 67 102 54 67 102 54 67 102 54 67 102 54 67 102 54 67 102 54 67 102 54 67 102 54 67 102 54 67 102 54 67 102 54 67 102 54 67 102 54 67 102 54 67 102 54 67 102 54 67 102 54 67 102 54 67 102 54 67 102
54 67 102 54 67 102 54 67 102 54 67 102 54 67 102 54 67 102 54 67 102 54 67 102 54 67 102 54 67 102 54 67 102 54 67 102 54 67 102 54 67 102 54 67 102 54 67 102 54 67 102 54 67 102 54 67 102 54 67 102 54 67 102 54 67 102 54 67 102 54 67 102 54 67 102 54 67 102 54 67 102 54 67 102 54 67 102 54 67 102 54 67 102 54 67 102 54 67 102 54 67 102 54 67 102 54 67 102 54 67 102 54 67 102 54 67 102 54 67 102 54 67 102 54 67 102 54 67 102 54 67 102 54 67 102 54 67 102 54 67 102 54 67 102 54 67 102 54 67 102 54 67 102 54 67 102 54 67 102 54 67 102 54 67 102 54 67 102 54 67 102 54 67 102 54 67 102 54 67 102 54 67 102 54 67 102 54 67 102 54 67 102 54 67 102 54 67 102 54 67 102 54 67 102 54 67 102 54 67 102 54 67 102 54 67 102 54 67 102 54 67 102 54 67 102 54 67 102 54 67 102 54 67 102 54 67 102 54 67 102 54 67 102 54 67 102 54 67 102 54 67 102 54 67 102 54 67 102 54 67 102 54 67 102 54 67 102 54 67 102 54 67 102 54 67 102 54 67 102 54 67 102 54 67 102 54 67 102 54 67 102 54 67 102 54 67 102 54 67 102 54 67 102 54 67 102 54 67 102 54 67 102 54 67 102 54 67 102 54 67 102 54 67 102 54 67 102 54 67 102 54 67 102 54 67 102 54 67 102 54 67 102 54 67 102 54 67 102 54 67 102 54 67 102 54 67 102 54 67 102 54 67 102 54 67 102 54 67 102 54 67 102 54 67 102 54 67 102 54 67 102 54 67 102 54 67 102 54 67 102 54 67 102 54 67 102 54 67 102 54 67 102 54 67 102 54 67 102 54 67 102 54 67 102 54 67 102 54 67 102 54 67 102 54 67 102 54 67 102 54 67 102 54 67 102 54 67 102 54 67 102 54 67 102 54 67 102 54 67 102 54 67 102 54 67 102 54 67 102 54 67 102 54 67 102 54 67 102 54 67 102 54 67 102 54 67 102 54 67 102 54 67 102 54 67 102 54 67 102 54 67 102 54 67 102 54 67 102 54 67 102 54 67 102 54 67 102 54 67 102 54 67 102 54 67 102 54 67 102 54 67 102 54 67 102 54 67 102 54 67 102 54 67 102 54 67 102 54 67 102 54 67 102 54 67 102 54 67 102 54 67 102 54 67 102 54 67 102 54 67 102 54 67 102 54 67 102 54 67 102 54 67 102 54 67 102 54 67 102 54 67 102 54 67 102 54 67 102 54 67 102 54 67 102 54 67 102 54 67 102 54 67 102 54 67 102 54 67 102 54 67 102 54 67 102 54 67 102 54 67 102 54 67 102 54 67 102 54 67 102 54 67 102 54 67 102 54 67 102 54 67 102 54 67 102 54 67 102 54 67 102 54 67 102 54 67 102 54 67 102 54 67 102 54 67 102 54 67 102 54 67 102 54 67 102 54 67 102 54 67 102 54 67 102 54 67 102 54 67 102 54 67 102 54 67 102 54 67 102 54 67 102 54 67 102 54 67 102 54 67 102 54 67 102 54 67 102 54 67 102
54 67 102 54 67 102 54 67 102 54 67 102 54 67 102 54 67 102 54 67 102 54 67 102 54 67 102 54 67 102 54 67 102 54 67 102 54 67 102 54 67 102 54 67 102 54 67 102 54 67 102 54 67 102 54 67 102 54 67 102 54 67 102 54 67 102 54 67 102 54 67 102 54 67 102 54 67 102 54 67 102 54 67 102 54 67 102 54 67 102 54 67 102 54 67 102 54 67 102 54 67 102 54 67 102 54 67 102 54 67 102 54 67 102 54 67 102 54 67 102 54 67 102 54 67 102 54 67 102 54 67 102 54 67 102 54 67 102 54 67 102 54 67 102 54 67 102 54 67 102 54 67 102 54 67 102 54 67 102 54 67 102 54 67 102 54 67 102 54 67 102 54 67 102 54 67 102 54 67 102 54 67 102 54 67 102 54 67 102 54 67 102 54 67 102 54 67 102 54 67 102 54 67 102 54 67 102 54 67 102 54 67 102 54 67 102 54 67 102 54 67 102 54 67 102 54 67 102 54 67 102 54 67 102 54 67 102 54 67 102 54 67 102 54 67 102 54 67 102 54 67 102 54 67 102 54 67 102 54 67 102 54 67 102 54 67 102 54 67 102 54 67 102 54 67 102 54 67 102 54 67 102 54 67 102 54 67 102 54 67 102 54 67 102 54 67 102 54 67 102 54 67 102 54 67 102 54 67 102 54 67 102 54 67 102 54 67 102 54 67 102 54 67 102 54 67 102 54 67 102 54 67 102 54 67 102 54 67 102 54 67 102 54 67 102 54 67 102 54 67 102 54 67 102 54 67 102 54 67 102 54 67 102 54 67 102 54 67 102 54 67 102 54 67 102 54 67 102 54 67 102 54 67 102 54 67 102 54 67 102 54 67 102 54 67 102 54 67 102 54 67 102 54 67 102 54 67 102 54 67 102 54 67 102 54 67 102 54 67 102 54 67 102 54 67 102 54 67 102 54 67 102 54 67 102 54 67 102 54 67 102 54 67 102 54 67 102 54 67 102 54 67 102 54 67 102 54 67 102 54 67 102 54 67 102 54 67 102 54 67 102 54 67 102 54 67 102 54 67 102 54 67 102 54 67 102 54 67 102 54 67 102 54 67 102 54 67 102 54 67 102 54 67 102 54 67 102 54 67 102 54 67 102 54 67 102 54 67 102 54 67 102 54 67 102 54 67 102 54 67 102 54 67 102 54 67 102 54 67 102 54 67 102 54 67 102 54 67 102 54 67 102 54 67 102 54 67 102 54 67 102 54 67 102 54 67 102 54 67 102 54 67 102 54 67 102 54 67 102 54 67 102 54 67 102 54 67 102 54 67 102 54 67 102 54 67 102 54 67 102 54 67 102 54 67 102 54 67 102 54 67 102 54 67 102 54 67 102 54 67 102 54 67 102 54 67 102 54 67 102 54 67 102 54 67 102 54 67 102 54 67 102 54 67 102 54 67 102 54 67 102 54 67 102 54 67 102 54 67 102 54 67 102 54 67 102 54 67 102 54 67 102 54 67 102 54 67 102 54 67 102 54 67 102 54 67 102 54 67 102 54 67 102 54 67 102 54 67 102 54 67 102 54 67 102 54 67 102 54 67 102 54 67 102 54 67 102 54 67 102
54 67 102 54 67 102 54 67 102 54 67 102 54 67 102 54 67 102 54 67 102 54 67 102 54 67 102 54 67 102 54 67 102 54 67 102 54 67 102 54 67 102 54 67 102 54 67 102 54 67 102 54 67 102 54 67 102 54 67 102 54 67 102 54 67 102 54 67 102 54 67 102 54 67 102 54 67 102 54 67 102 54 67 102 54 67 102 54 67 102 54 67 102 54 67 102 54 67 102 54 67 102 54 67 102 54 67 102 54 67 102 54 67 102 54 67 102 54 67 102 54 67 102 54 67 102 54 67 102 54 67 102 54 67 102 54 67 102 54 67 102 54 67 102 54 67 102 54 67 102 54 67 102 54 67 102 54 67 102 54 67 102 54 67 102 54 67 102 54 67 102 54 67 102 54 67 102 54 67 102 54 67 102 54 67 102 54 67 102 54 67 102 54 67 102 54 67 102 54 67 102 54 67 102 54 67 102 54 67 102 54 67 102 54 67 102 54 67 102 54 67 102 54 67 102 54 67 102 54 67 102 54 67 102 54 67 102 54 67 102 54 67 102 54 67 102 54 67 102 54 67 102 54 67 102 54 67 102 54 67 102 54 67 102 54 67 102 54 67 102 54 67 102 54 67 102 54 67 102 54 67 102 54 67 102 54 67 102 54 67 102 54 67 102 54 67 102 54 67 102 54 67 102 54 67 102 54 67 102 54 67 102 54 67 102 54 67 102 54 67 102 54 67 102 54 67 102 54 67 102 54 67 102 54 67 102 54 67 102 54 67 102 54 67 102 54 67 102 54 67 102 54 67 102 54 67 102 54 67 102 54 67 102 54 67 102 54 67 102 54 67 102 54 67 102 54 67 102 54 67 102 54 67 102 54 67 102 54 67 102 54 67 102 54 67 102 54 67 102 54 67 102 54 67 102 54 67 102 54 67 102 54 67 102 54 67 102 54 67 102 54 67 102 54 67 102 54 67 102 54 67 102 54 67 102 54 67 102 54 67 102 54 67 102 54 67 102 54 67 102 54 67 102 54 67 102 54 67 102 54 67 102 54 67 102 54 67 102 54 67 102 54 67 102 54 67 102 54 67 102 54 67 102 54 67 102 54 67 102 54 67 102 54 67 102 54 67 102 54 67 102 54 67 102 54 67 102 54 67 102 54 67 102 54 67 102 54 67 102 54 67 102 54 67 102 54 67 102 54 67 102 54 67 102 54 67 102 54 67 102 54 67 102 54 67 102 54 67 102 54 67 102 54 67 102 54 67 102 54 67 102 54 67 102 54 67 102 54 67 102 54 67 102 54 67 102 54 67 102 54 67 102 54 67 102 54 67 102 54 67 102 54 67 102 54 67 102 54 67 102 54 67 102 54 67 102 54 67 102 54 67 102 54 67 102 54 67 102 54 67 102 54 67 102 54 67 102 54 67 102 54 67 102 54 67 102 54 67 102 54 67 102 54 67 102 54 67 102 54 67 102 54 67 102 54 67 102 54 67 102 54 67 102 54 67 102 54 67 102 54 67 102 54 67 102 54 67 102 54 67 102 54 67 102 54 67 102 54 67 102 54 67 102 54 67 102 54 67 102 54 67 102 54 67 102 54 67 102 54 67 102 54 67 102 54 67 102 54 67 102
54 67 102 54 67 102 54 67 102 54 67 102 54 67 102 54 67 102 54 67 102 54 67 102 54 67 102 54 67 102 54 67 102 54 67 102 54 67 102 54 67 102 54 67 102 54 67 102 54 67 102 54 67 102 54 67 102 54 67 102 54 67 102 54 67 102 54 67 102 54 67 102 54 67 102 54 67 102 54 67 102 54 67 102 54 67 102 54 67 102 54 67 102 54 67 102 54 67 102 54 67 102 54 67 102 54 67 102 54 67 102 54 67 102 54 67 102 54 67 102 54 67 102 54 67 102 54 67 102 54 67 102 54 67 102 54 67 102 54 67 102 54 67 102 54 67 102 54 67 102 54 67 102 54 67 102 54 67 102 54 67 102 54 67 102 54 67 102 54 67 102 54 67 102 54 67 102 54 67 102 54 67 102 54 67 102 54 67 102 54 67 102 54 67 102 54 67 102 54 67 102 54 67 102 54 67 102 54 67 102 54 67 102 54 67 102 54 67 102 54 67 102 54 67 102 54 67 102 54 67 102 54 67 102 54 67 102 54 67 102 54 67 102 54 67 102 54 67 102 54 67 102 54 67 102 54 67 102 54 67 102 54 67 102 54 67 102 54 67 102 54 67 102 54 67 102 54 67 102 54 67 102 54 67 102 54 67 102 54 67 102 54 67 102 54 67 102 54 67 102 54 67 102 54 67 102 54 67 102 54 67 102 54 67 102 54 67 102 54 67 102 54 67 102 54 67 102 54 67 102 54 67 102 54 67 102 54 67 102 54 67 102 54 67 102 54 67 102 54 67 102 54 67 102 54 67 102 54 67 102 54 67 102 54 67 102 54 67 102 54 67 102 54 67 102 54 67 102 54 67 102 54 67 102 54 67 102 54 67 102 54 67 102 54 67 102 54 67 102 54 67 102 54 67 102 54 67 102 54 67 102 54 67 102 54 67 102 54 67 102 54 67 102 54 67 102 54 67 102 54 67 102 54 67 102 54 67 102 54 67 102 54 67 102 54 67 102 54 67 102 54 67 102 54 67 102 54 67 102 54 67 102 54 67 102 54 67 102 54 67 102 54 67 102 54 67 102 54 67 102 54 67 102 54 67 102 54 67 102 54 67 102 54 67 102 54 67 102 54 67 102 54 67 102 54 67 102 54 67 102 54 67 102 54 67 102 54 67 102 54 67 102 54 67 102 54 67 102 54 67 102 54 67 102 54 67 102 54 67 102 54 67 102 54 67 102 54 67 102 54 67 102 54 67 102 54 67 102 54 67 102 54 67 102 54 67 102 54 67 102 54 67 102 54 67 102 54 67 102 54 67 102 54 67 102 54 67 102 54 67 102 54 67 102 54 67 102 54 67 102 54 67 102 54 67 102 54 67 102 54 67 102 54 67 102 54 67 102 54 67 102 54 67 102 54 67 102 54 67 102 54 67 102 54 67 102 54 67 102 54 67 102 54 67 102 54 67 102 54 67 102 54 67 102 54 67 102 54 67 102 54 67 102 54 67 102 54 67 102 54 67 102 54 67 102 54 67 102 54 67 102 54 67 102 54 67 102 54 67 102 54 67 102 54 67 102 54 67 102 54 67 102 54 67 102 54 67 102 54 67 102 54 67 102 54 67 102 54 67 102
54 67 102 54 67 102 54 67 102 54 67 102 54 67 102 54 67 102 54 67 102 54 67 102 54 67 102 54 67 102 54 67 102 54 67 102 54 67 102 54 67 102 54 67 102 54 67 102 54 67 102 54 67 102 54 67 102 54 67 102 54 67 102 54 67 102 54 67 102 54 67 102 54 67 102 54 67 102 54 67 102 54 67 102 54 67 102 54 67 102 54 67 102 54 67 102 54 67 102 54 67 102 54 67 102 54 67 102 54 67 102 54 67 102 54 67 102 54 67 102 54 67 102 54 67 102 54 67 102 54 67 102 54 67 102 54 67 102 54 67 102 54 67 102 54 67 102 54 67 102 54 67 102 54 67 102 54 67 102 54 67 102 54 67 102 54 67 102 54 67 102 54 67 102 54 67 102 54 67 102 54 67 102 54 67 102 54 67 102 54 67 102 54 67 102 54 67 102 54 67 102 54 67 102 54 67 102 54 67 102 54 67 102 54 67 102 54 67 102 54 67 102 54 67 102 54 67 102 54 67 102 54 67 102 54 67 102 54 67 102 54 67 102 54 67 102 54 67 102 54 67 102 54 67 102 54 67 102 54 67 102 54 67 102 54 67 102 54 67 102 54 67 102 54 67 102 54 67 102 54 67 102 54 67 102 54 67 102 54 67 102 54 67 102 54 67 102 54 67 102 54 67 102 54 67 102 54 67 102 54 67 102 54 67 102 54 67 102 54 67 102 54 67 102 54 67 102 54 67 102 54 67 102 54 67 102 54 67 102 54 67 102 54 67 102 54 67 102 54 67 102 54 67 102 54 67 102 54 67 102 54 67 102 54 67 102 54 67 102 54 67 102 54 67 102 54 67 102 54 67 102 54 67 102 54 67 102 54 67 102 54 67 102 54 67 102 54 67 102 54 67 102 54 67 102 54 67 102 54 67 102 54 67 102 54 67 102 54 67 102 54 67 102 54 67 102 54 67 102 54 67 102 54 67 102 54 67 102 54 67 102 54 67 102 54 67 102 54 67 102 54 67 102 54 67 102 54 67 102 54 67 102 54 67 102 54 67 102 54 67 102 54 67 102 54 67 102 54 67 102 54 67 102 54 67 102 54 67 102 54 67 102 54 67 102 54 67 102 54 67 102 54 67 102 54 67 102 54 67 102 54 67 102 54 67 102 54 67 102 54 67 102 54 67 102 54 67 102 54 67 102 54 67 102 54 67 102 54 67 102 54 67 102 54 67 102 54 67 102 54 67 102 54 67 102 54 67 102 54 67 102 54 67 102 54 67 102 54 67 102 54 67 102 54 67 102 54 67 102 54 67 102 54 67 102 54 67 102 54 67 102 54 67 102 54 67 102 54 67 102 54 67 102 54 67 102 54 67 102 54 67 102 54 67 102 54 67 102 54 67 102 54 67 102 54 67 102 54 67 102 54 67 102 54 67 102 54 67 102 54 67 102 54 67 102 54 67 102 54 67 102 54 67 102 54 67 102 54 67 102 54 67 102 54 67 102 54 67 102 54 67 102 54 67 102 54 67 102 54 67 102 54 67 102 54 67 102 54 67 102 54 67 102 54 67 102 54 67 102 54 67 102 54 67 102 54 67 102 54 67 102 54 67 102 54 67 102 54 67 102
54 67 102 54 67 102 54 67 102 54 67 102 54 67 102 54 67 102 54 67 102 54 67 102 54 67 102 54 67 102 54 67 102 54 67 102 54 67 102 54 67 102 54 67 102 54 67 102 54 67 102 54 67 102 54 67 102 54 67 102 54 67 102 54 67 102 54 67 102 54 67 102 54 67 102 54 67 102 54 67 102 54 67 102 54 67 102 54 67 102 54 67 102 54 67 102 54 67 102 54 67 102 54 67 102 54 67 102 54 67 102 54 67 102 54 67 102 54 67 102 54 67 102 54 67 102 54 67 102 54 67 102 54 67 102 54 67 102 54 67 102 54 67 102 54 67 102 54 67 102 54 67 102 54 67 102 54 67 102 54 67 102 54 67 102 54 67 102 54 67 102 54 67 102 54 67 102 54 67 102 54 67 102 54 67 102 54 67 102 54 67 102 54 67 102 54 67 102 54 67 102 54 67 102 54 67 102 54 67 102 54 67 102 54 67 102 54 67 102 54 67 102 54 67 102 54 67 102 54 67 102 54 67 102 54 67 102 54 67 102 54 67 102 54 67 102 54 67 102 54 67 102 54 67 102 54 67 102 54 67 102 54 67 102 54 67 102 54 67 102 54 67 102 54 67 102 54 67 102 54 67 102 54 67 102 54 67 102 54 67 102 54 67 102 54 67 102 54 67 102 54 67 102 54 67 102 54 67 102 54 67 102 54 67 102 54 67 102 54 67 102 54 67 102 54 67 102 54 67 102 54 67 102 54 67 102 54 67 102 54 67 102 54 67 102 54 67 102 54 67 102 54 67 102 54 67 102 54 67 102 54 67 102 54 67 102 54 67 102 54 67 102 54 67 102 54 67 102 54 67 102 54 67 102 54 67 102 54 67 102 54 67 102 54 67 102 54 67 102 54 67 102 54 67 102 54 67 102 54 67 102 54 67 102 54 67 102 54 67 102 54 67 102 54 67 102 54 67 102 54 67 102 54 67 102 54 67 102 54 67 102 54 67 102 54 67 102 54 67 102 54 67 102 54 67 102 54 67 102 54 67 102 54 67 102 54 67 102 54 67 102 54 67 102 54 67 102 54 67 102 54 67 102 54 67 102 54 67 102 54 67 102 54 67 102 54 67 102 54 67 102 54 67 102 54 67 102 54 67 102 54 67 102 54 67 102 54 67 102 54 67 102 54 67 102 54 67 102 54 67 102 54 67 102 54 67 102 54 67 102 54 67 102 54 67 102 54 67 102 54 67 102 54 67 102 54 67 102 54 67 102 54 67 102 54 67 102 54 67 102 54 67 102 54 67 102 54 67 102 54 67 102 54 67 102 54 67 102 54 67 102 54 67 102 54 67 102 54 67 102 54 67 102 54 67 102 54 67 102 54 67 102 54 67 102 54 67 102 54 67 102 54 67 102 54 67 102 54 67 102 54 67 102 54 67 102 54 67 102 54 67 102 54 67 102 54 67 102 54 67 102 54 67 102 54 67 102 54 67 102 54 67 102 54 67 102 54 67 102 54 67 102 54 67 102 54 67 102 54 67 102 54 67 102 54 67 102 54 67 102 54 67 102 54 67 102 54 67 102 54 67 102 54 67 102 54 67 102 54 67 102 54 67 102 54 67 102 54 67 102
54 67 102 54 67 102 54 67 102 54 67 102 54 67 102 54 67 102 54 67 102 54 67 102 54 67 102 54 67 102 54 67 102 54 67 102 54 67 102 54 67 102 54 67 102 54 67 102 54 67 102 54 67 102 54 67 102 54 67 102 54 67 102 54 67 102 54 67 102 54 67 102 54 67 102 54 67 102 54 67 102 54 67 102 54 67 102 54 67 102 54 67 102 54 67 102 54 67 102 54 67 102 54 67 102 54 67 102 54 67 102 54 67 102 54 67 102 54 67 102 54 67 102 54 67 102 54 67 102 54 67 102 54 67 102 54 67 102 54 67 102 54 67 102 54 67 102 54 67 102 54 67 102 54 67 102 54 67 102 54 67 102 54 67 102 54 67 102 54 67 102 54 67 102 54 67 102 54 67 102 54 67 102 54 67 102 54 67 102 54 67 102 54 67 102 54 67 102 54 67 102 54 67 102 54 67 102 54 67 102 54 67 102 54 67 102 54 67 102 54 67 102 54 67 102 54 67 102 54 67 102 54 67 102 54 67 102 54 67 102 54 67 102 54 67 102 54 67 102 54 67 102 54 67 102 54 67 102 54 67 102 54 67 102 54 67 102 54 67 102 54 67 102 54 67 102 54 67 102 54 67 102 54 67 102 54 67 102 54 67 102 54 67 102 54 67 102 54 67 102 54 67 102 54 67 102 54 67 102 54 67 102 54 67 102 54 67 102 54 67 102 54 67 102 54 67 102 54 67 102 54 67 102 54 67 102 54 67 102 54 67 102 54 67 102 54 67 102 54 67 102 54 67 102 54 67 102 54 67 102 54 67 102 54 67 102 54 67 102 54 67 102 54 67 102 54 67 102 54 67 102 54 67 102 54 67 102 54 67 102 54 67 102 54 67 102 54 67 102 54 67 102 54 67 102 54 67 102 54 67 102 54 67 102 54 67 102 54 67 102 54 67 102 54 67 102 54 67 102 54 67 102 54 67 102 54 67 102 54 67 102 54 67 102 54 67 102 54 67 102 54 67 102 54 67 102 54 67 102 54 67 102 54 67 102 54 67 102 54 67 102 54 67 102 54 67 102 54 67 102 54 67 102 54 67 102 54 67 102 54 67 102 54 67 102 54 67 102 54 67 102 54 67 102 54 67 102 54 67 102 54 67 102 54 67 102 54 67 102 54 67 102 54 67 102 54 67 102 54 67 102 54 67 102 54 67 102 54 67 102 54 67 102 54 67 102 54 67 102 54 67 102 54 67 102 54 67 102 54 67 102 54 67 102 54 67 102 54 67 102 54 67 102 54 67 102 54 67 102 54 67 102 54 67 102 54 67 102 54 67 102 54 67 102 54 67 102 54 67 102 54 67 102 54 67 102 54 67 102 54 67 102 54 67 102 54 67 102 54 67 102 54 67 102 54 67 102 54 67 102 54 67 102 54 67 102 54 67 102 54 67 102 54 67 102 54 67 102 54 67 102 54 67 102 54 67 102 54 67 102 54 67 102 54 67 102 54 67 102 54 67 102 54 67 102 54 67 102 54 67 102 54 67 102 54 67 102 54 67 102 54 67 102 54 67 102 54 67 102 54 67 102 54 67 102 54 67 102 54 67 102 54 67 102 54 67 102 54 67 102
54 67 102 54 67 102 54 67 102 54 67 102 54 67 102 54 67 102 54 67 102 54 67 102 54 67 102 54 67 102 54 67 102 54 67 102 54 67 102 54 67 102 54 67 102 54 67 102 54 67 102 54 67 102 54 67 102 54 67 102 54 67 102 54 67 102 54 67 102 54 67 102 54 67 102 54 67 102 54 67 102 54 67 102 54 67 102 54 67 102 54 67 102 54 67 102 54 67 102 54 67 102 54 67 102 54 67 102 54 67 102 54 67 102 54 67 102 54 67 102 54 67 102 54 67 102 54 67 102 54 67 102 54 67 102 54 67 102 54 67 102 54 67 102 54 67 102 54 67 102 54 67 102 54 67 102 54 67 102 54 67 102 54 67 102 54 67 102 54 67 102 54 67 102 54 67 102 54 67 102 54 67 102 54 67 102 54 67 102 54 67 102 54 67 102 54 67 102 54 67 102 54 67 102 54 67 102 54 67 102 54 67 102 54 67 102 54 67 102 54 67 102 54 67 102 54 67 102 54 67 102 54 67 102 54 67 102 54 67 102 54 67 102 54 67 102 54 67 102 54 67 102 54 67 102 54 67 102 54 67 102 54 67 102 54 67 102 54 67 102 54 67 102 54 67 102 54 67 102 54 67 102 54 67 102 54 67 102 54 67 102 54 67 102 54 67 102 54 67 102 54 67 102 54 67 102 54 67 102 54 67 102 54 67 102 54 67 102 54 67 102 54 67 102 54 67 102 54 67 102 54 67 102 54 67 102 54 67 102 54 67 102 54 67 102 54 67 102 54 67 102 54 67 102 54 67 102 54 67 102 54 67 102 54 67 102 54 67 102 54 67 102 54 67 102 54 67 102 54 67 102 54 67 102 54 67 102 54 67 102 54 67 102 54 67 102 54 67 102 54 67 102 54 67 102 54 67 102 54 67 102 54 67 102 54 67 102 54 67 102 54 67 102 54 67 102 54 67 102 54 67 102 54 67 102 54 67 102 54 67 102 54 67 102 54 67 102 54 67 102 54 67 102 54 67 102 54 67 102 54 67 102 54 67 102 54 67 102 54 67 102 54 67 102 54 67 102 54 67 102 54 67 102 54 67 102 54 67 102 54 67 102 54 67 102 54 67 102 54 67 102 54 67 102 54 67 102 54 67 102 54 67 102 54 67 102 54 67 102 54 67 102 54 67 102 54 67 102 54 67 102 54 67 102 54 67 102 54 67 102 54 67 102 54 67 102 54 67 102 54 67 102 54 67 102 54 67 102 54 67 102 54 67 102 54 67 102 54 67 102 54 67 102 54 67 102 54 67 102 54 67 102 54 67 102 54 67 102 54 67 102 54 67 102 54 67 102 54 67 102 54 67 102 54 67 102 54 67 102 54 67 102 54 67 102 54 67 102 54 67 102 54 67 102 54 67 102 54 67 102 54 67 102 54 67 102 54 67 102 54 67 102 54 67 102 54 67 102 54 67 102 54 67 102 54 67 102 54 67 102 54 67 102 54 67 102 54 67 102 54 67 102 54 67 102 54 67 102 54 67 102 54 67 102 54 67 102 54 67 102 54 67 102 54 67 102 54 67 102 54 67 102 54 67 102 54 67 102 54 67 102 54 67 102 54 67 102 54 67 102
54 67 102 54 67 102 54 67 102 54 67 102 54 67 102 54 67 102 54 67 102 54 67 102 54 67 102 54 67 102 54 67 102 54 67 102 54 67 102 54 67 102 54 67 102 54 67 102 54 67 102 54 67 102 54 67 102 54 67 102 54 67 102 54 67 102 54 67 102 54 67 102 54 67 102 54 67 102 54 67 102 54 67 102 54 67 102 54 67 102 54 67 102 54 67 102 54 67 102 54 67 102 54 67 102 54 67 102 54 67 102 54 67 102 54 67 102 54 67 102 54 67 102 54 67 102 54 67 102 54 67 102 54 67 102 54 67 102 54 67 102 54 67 102 54 67 102 54 67 102 54 67 102 54 67 102 54 67 102 54 67 102 54 67 102 54 67 102 54 67 102 54 67 102 54 67 102 54 67 102 54 67 102 54 67 102 54 67 102 54 67 102 54 67 102 54 67 102 54 67 102 54 67 102 54 67 102 54 67 102 54 67 102 54 67 102 54 67 102 54 67 102 54 67 102 54 67 102 54 67 102 54 67 102 54 67 102 54 67 102 54 67 102 54 67 102 54 67 102 54 67 102 54 67 102 54 67 102 54 67 102 54 67 102 54 67 102 54 67 102 54 67 102 54 67 102 54 67 102 54 67 102 54 67 102 54 67 102 54 67 102 54 67 102 54 67 102 54 67 102 54 67 102 54 67 102 54 67 102 54 67 102 54 67 102 54 67 102 54 67 102 54 67 102 54 67 102 54 67 102 54 67 102 54 67 102 54 67 102 54 67 102 54 67 102 54 67 102 54 67 102 54 67 102 54 67 102 54 67 102 54 67 102 54 67 102 54 67 102 54 67 102 54 67 102 54 67 102 54 67 102 54 67 102 54 67 102 54 67 102 54 67 102 54 67 102 54 67 102 54 67 102 54 67 102 54 67 102 54 67 102 54 67 102 54 67 102 54 67 102 54 67 102 54 67 102 54 67 102 54 67 102 54 67 102 54 67 102 54 67 102 54 67 102 54 67 102 54 67 102 54 67 102 54 67 102 54 67 102 54 67 102 54 67 102 54 67 102 54 67 102 54 67 102 54 67 102 54 67 102 54 67 102 54 67 102 54 67 102 54 67 102 54 67 102 54 67 102 54 67 102 54 67 102 54 67 102 54 67 102 54 67 102 54 67 102 54 67 102 54 67 102 54 67 102 54 67 102 54 67 102 54 67 102 54 67 102 54 67 102 54 67 102 54 67 102 54 67 102 54 67 102 54 67 102 54 67 102 54 67 102 54 67 102 54 67 102 54 67 102 54 67 102 54 67 102 54 67 102 54 67 102 54 67 102 54 67 102 54 67 102 54 67 102 54 67 102 54 67 102 54 67 102 54 67 102 54 67 102 54 67 102 54 67 102 54 67 102 54 67 102 54 67 102 54 67 102 54 67 102 54 67 102 54 67 102 54 67 102 54 67 102 54 67 102 54 67 102 54 67 102 54 67 102 54 67 102 54 67 102 54 67 102 54 67 102 54 67 102 54 67 102 54 67 102 54 67 102 54 67 102 54 67 102 54 67 102 54 67 102 54 67 102 54 67 102 54 67 102 54 67 102 54 67 102 54 67 102 54 67 102 54 67 102 54 67 102 54 67 102
54 67 102 54 67 102 54 67 102 54 67 102 54 67 102 54 67 102 54 67 102 54 67 102 54 67 102 54 67 102 54 67 102 54 67 102 54 67 102 54 67 102 54 67 102 54 67 102 54 67 102 54 67 102 54 67 102 54 67 102 54 67 102 54 67 102 54 67 102 54 67 102 54 67 102 54 67 102 54 67 102 54 67 102 54 67 102 54 67 102 54 67 102 54 67 102 54 67 102 54 67 102 54 67 102 54 67 102 54 67 102 54 67 102 54 67 102 54 67 102 54 67 102 54 67 102 54 67 102 54 67 102 54 67 102 54 67 102 54 67 102 54 67 102 54 67 102 54 67 102 54 67 102 54 67 102 54 67 102 54 67 102 54 67 102 54 67 102 54 67 102 54 67 102 54 67 102 54 67 102 54 67 102 54 67 102 54 67 102 54 67 102 54 67 102 54 67 102 54 67 102 54 67 102 54 67 102 54 67 102 54 67 102 54 67 102 54 67 102 54 67 102 54 67 102 54 67 102 54 67 102 54 67 102 54 67 102 54 67 102 54 67 102 54 67 102 54 67 102 54 67 102 54 67 102 54 67 102 54 67 102 54 67 102 54 67 102 54 67 102 54 67 102 54 67 102 54 67 102 54 67 102 54 67 102 54 67 102 54 67 102 54 67 102 54 67 102 54 67 102 54 67 102 54 67 102 54 67 102 54 67 102 54 67 102 54 67 102 54 67 102 54 67 102 54 67 102 54 67 102 54 67 102 54 67 102 54 67 102 54 67 102 54 67 102 54 67 102 54 67 102 54 67 102 54 67 102 54 67 102 54 67 102 54 67 102 54 67 102 54 67 102 54 67 102 54 67 102 54 67 102 54 67 102 54 67 102 54 67 102 54 67 102 54 67 102 54 67 102 54 67 102 54 67 102 54 67 102 54 67 102 54 67 102 54 67 102 54 67 102 54 67 102 54 67 102 54 67 102 54 67 102 54 67 102 54 67 102 54 67 102 54 67 102 54 67 102 54 67 102 54 67 102 54 67 102 54 67 102 54 67 102 54 67 102 54 67 102 54 67 102 54 67 102 54 67 102 54 67 102 54 67 102 54 67 102 54 67 102 54 67 102 54 67 102 54 67 102 54 67 102 54 67 102 54 67 102 54 67 102 54 67 102 54 67 102 54 67 102 54 67 102 54 67 102 54 67 102 54 67 102 54 67 102 54 67 102 54 67 102 54 67 102 54 67 102 54 67 102 54 67 102 54 67 102 54 67 102 54 67 102 54 67 102 54 67 102 54 67 102 54 67 102 54 67 102 54 67 102 54 67 102 54 67 102 54 67 102 54 67 102 54 67 102 54 67 102 54 67 102 54 67 102 54 67 102 54 67 102 54 67 102 54 67 102 54 67 102 54 67 102 54 67 102 54 67 102 54 67 102 54 67 102 54 67 102 54 67 102 54 67 102 54 67 102 54 67 102 54 67 102 54 67 102 54 67 102 54 67 102 54 67 102 54 67 102 54 67 102 54 67 102 54 67 102 54 67 102 54 67 102 54 67 102 54 67 102 54 67 102 54 67 102 54 67 102 54 67 102 54 67 102 54 67 102 54 67 102 54 67 102 54 67 102 54 67 102 54 67 102
54 67 102 54 67 102 54 67 102 54 67 102 54 67 102 54 67 102 54 67 102 54 67 102 54 67 102 54 67 102 54 67 102 54 67 102 54 67 102 54 67 102 54 67 102 54 67 102 54 67 102 54 67 102 54 67 102 54 67 102 54 67 102 54 67 102 54 67 102 54 67 102 54 67 102 54 67 102 54 67 102 54 67 102 54 67 102 54 67 102 54 67 102 54 67 102 54 67 102 54 67 102 54 67 102 54 67 102 54 67 102 54 67 102 54 67 102 54 67 102 54 67 102 54 67 102 54 67 102 54 67 102 54 67 102 54 67 102 54 67 102 54 67 102 54 67 102 54 67 102 54 67 102 54 67 102 54 67 102 54 67 102 54 67 102 54 67 102 54 67 102 54 67 102 54 67 102 54 67 102 54 67 102 54 67 102 54 67 102 54 67 102 54 67 102 54 67 102 54 67 102 54 67 102 54 67 102 54 67 102 54 67 102 54 67 102 54 67 102 54 67 102 54 67 102 54 67 102 54 67 102 54 67 102 54 67 102 54 67 102 54 67 102 54 67 102 54 67 102 54 67 102 54 67 102 54 67 102 54 67 102 54 67 102 54 67 102 54 67 102 54 67 102 54 67 102 54 67 102 54 67 102 54 67 102 54 67 102 54 67 102 54 67 102 54 67 102 54 67 102 54 67 102 54 67 102 54 67 102 54 67 102 54 67 102 54 67 102 54 67 102 54 67 102 54 67 102 54 67 102 54 67 102 54 67 102 54 67 102 54 67 102 54 67 102 54 67 102 54 67 102 54 67 102 54 67 102 54 67 102 54 67 102 54 67 102 54 67 102 54 67 102 54 67 102 54 67 102 54 67 102 54 67 102 54 67 102 54 67 102 54 67 102 54 67 102 54 67 102 54 67 102 54 67 102 54 67 102 54 67 102 54 67 102 54 67 102 54 67 102 54 67 102 54 67 102 54 67 102 54 67 102 54 67 102 54 67 102 54 67 102 54 67 102 54 67 102 54 67 102 54 67 102 54 67 102 54 67 102 54 67 102 54 67 102 54 67 102 54 67 102 54 67 102 54 67 102 54 67 102 54 67 102 54 67 102 54 67 102 54 67 102 54 67 102 54 67 102 54 67 102 54 67 102 54 67 102 54 67 102 54 67 102 54 67 102 54 67 102 54 67 102 54 67 102 54 67 102 54 67 102 54 67 102 54 67 102 54 67 102 54 67 102 54 67 102 54 67 102 54 67 102 54 67 102 54 67 102 54 67 102 54 67 102 54 67 102 54 67 102 54 67 102 54 67 102 54 67 102 54 67 102 54 67 102 54 67 102 54 67 102 54 67 102 54 67 102 54 67 102 54 67 102 54 67 102 54 67 102 54 67 102 54 67 102 54 67 102 54 67 102 54 67 102 54 67 102 54 67 102 54 67 102 54 67 102 54 67 102 54 67 102 54 67 102 54 67 102 54 67 102 54 67 102 54 67 102 54 67 102 54 67 102 54 67 102 54 67 102 54 67 102 54 67 102 54 67 102 54 67 102 54 67 102 54 67 102 54 67 102 54 67 102 54 67 102 54 67 102 54 67 102 54 67 102 54 67 102 54 67 102 54 67 102 54 67 102 54 67 102
113 139 166 113 139 166 113 139 166 113 139 166 113 139 166 113 139 166 113 139 166 113 139 166 113 139 166 113 139 166 113 139 166 113 139 166 113 139 166 113 139 166 113 139 166 113 139 166 113 139 166 113 139 166 113 139 166 113 139 166 113 139 166 113 139 166 113 139 166 113 139 166 113 139 166 113 139 166 113 139 166 113 139 166 113 139 166 113 139 166 113 139 166 113 139 166 113 139 166 113 139 166 113 139 166 113 139 166 113 139 166 113 139 166 113 139 166 113 139 166 113 139 166 113 139 166 113 139 166 113 139 166 113 139 166 113 139 166 113 139 166 113 139 166 113 139 166 113 139 166 113 139 166 113 139 166 113 139 166 113 139 166 113 139 166 113 139 166 113 139 166 113 139 166 113 139 166 113 139 166 113 139 166 113 139 166 113 139 166 113 139 166 113 139 166 113 139 166 113 139 166 113 139 166 113 139 166 113 139 166 113 139 166 113 139 166 113 139 166 113 139 166 113 139 166 113 139 166 113 139 166 113 139 166 113 139 166 113 139 166 113 139 166 113 139 166 113 139 166 113 139 166 113 139 166 113 139 166 113 139 166 113 139 166 113 139 166 113 139 166 113 139 166 113 139 166 113 139 166 113 139 166 113 139 166 113 139 166 113 139 166 113 139 166 113 139 166 113 139 166 113 139 166 113 139 166 113 139 166 113 139 166 113 139 166 113 139 166 113 139 166 113 139 166 113 139 166 113 139 166 113 139 166 113 139 166 113 139 166 113 139 166 113 139 166 113 139 166 113 139 166 113 139 166 113 139 166 113 139 166 113 139 166 113 139 166 113 139 166 113 139 166 113 139 166 113 139 166 113 139 166 113 139 166 113 139 166 113 139 166 113 139 166 113 139 166 113 139 166 113 139 166 113 139 166 113 139 166 113 139 166 113 139 166 113 139 166 113 139 166 113 139 166 113 139 166 113 139 166 113 139 166 113 139 166 113 139 166 113 139 166 113 139 166 113 139 166 113 139 166 113 139 166 113 139 166 113 139 166 113 139 166 113 139 166 113 139 166 113 139 166 113 139 166 113 139 166 113 139 166 113 139 166 113 139 166 113 139 166 113 139 166 113 139 166 113 139 166 113 139 166 113 139 166 113 139 166 113 139 166 113 139 166 113 139 166 113 139 166 113 139 166 113 139 166 113 139 166 113 139 166 113 139 166 113 139 166 113 139 166 113 139 166 113 139 166 113 139 166 113 139 166 113 139 166 113 139 166 113 139 166 113 139 166 113 139 166 113 139 166 113 139 166 113 139 166 113 139 166 113 139 166 113 139 166 113 139 166 113 139 166 113 139 166 113 139 166 113 139 166 113 139 166 113 139 166 113 139 166 113 139 166 113 139 166 113 139 166 113 139 166 113 139 166 113 139 166 113 139 166 113 139 166 113 139 166 113 139 166 113 139 166 113 139 166 113 139 166 113 139 166 113 139 166 113 139 166 113 139 166 113 139 166 113 139 166 113 139 166 113 139 166 113 139 166 113 139 166 113 139 166 113 139 166 113 139 166 113 139 166 113 139 166 113 139 166 113 139 166 113 139 166 113 139 166 113 139 166 113 139 166 113 139 166 113 139 166 113 139 166
113 139 166 113 139 166 113 139 166 113 139 166 113 139 166 113 139 166 113 139 166 113 139 166 113 139 166 113 139 166 113 139 166 113 139 166 113 139 166 113 139 166 113 139 166 113 139 166 113 139 166 113 139 166 113 139 166 113 139 166 113 139 166 113 139 166 113 139 166 113 139 166 113 139 166 113 139 166 113 139 166 113 139 166 113 139 166 113 139 166 113 139 166 113 139 166 113 139 166 113 139 166 113 139 166 113 139 166 113 139 166 113 139 166 113 139 166 113 139 166 113 139 166 113 139 166 113 139 166 113 139 166 113 139 166 113 139 166 113 139 166 113 139 166 113 139 166 113 139 166 113 139 166 113 139 166 113 139 166 113 139 166 113 139 166 113 139 166 113 139 166 113 139 166 113 139 166 113 139 166 113 139 166 113 139 166 113 139 166 113 139 166 113 139 166 113 139 166 113 139 166 113 139 166 113 139 166 113 139 166 113 139 166 113 139 166 113 139 166 113 139 166 113 139 166 113 139 166 113 139 166 113 139 166 113 139 166 113 139 166 113 139 166 113 139 166 113 139 166 113 139 166 113 139 166 113 139 166 113 139 166 113 139 166 113 139 166 113 139 166 113 139 166 113 139 166 113 139 166 113 139 166 113 139 166 113 139 166 113 139 166 113 139 166 113 139 166 113 139 166 113 139 166 113 139 166 113 139 166 113 139 166 113 139 166 113 139 166 113 139 166 113 139 166 113 139 166 113 139 166 113 139 166 113 139 166 113 139 166 113 139 166 113 139 166 113 139 166 113 139 166 113 139 166 113 139 166 113 139 166 113 139 166 113 139 166 113 139 166 113 139 166 113 139 166 113 139 166 113 139 166 113 139 166 113 139 166 113 139 166 113 139 166 113 139 166 113 139 166 113 139 166 113 139 166 113 139 166 113 139 166 113 139 166 113 139 166 113 139 166 113 139 166 113 139 166 113 139 166 113 139 166 113 139 166 113 139 166 113 139 166 113 139 166 113 139 166 113 139 166 113 139 166 113 139 166 113 139 166 113 139 166 113 139 166 113 139 166 113 139 166 113 139 166 113 139 166 113 139 166 113 139 166 113 139 166 113 139 166 113 139 166 113 139 166 113 139 166 113 139 166 113 139 166 113 139 166 113 139 166 113 139 166 113 139 166 113 139 166 113 139 166 113 139 166 113 139 166 113 139 166 113 139 166 113 139 166 113 139 166 113 139 166 113 139 166 113 139 166 113 139 166 113 139 166 113 139 166 113 139 166 113 139 166 113 139 166 113 139 166 113 139 166 113 139 166 113 139 166 113 139 166 113 139 166 113 139 166 113 139 166 113 139 166 113 139 166 113 139 166 113 139 166 113 139 166 113 139 166 113 139 166 113 139 166 113 139 166 113 139 166 113 139 166 113 139 166 113 139 166 113 139 166 113 139 166 113 139 166 113 139 166 113 139 166 113 139 166 113 139 166 113 139 166 113 139 166 113 139 166 113 139 166 113 139 166 113 139 166 113 139 166 113 139 166 113 139 166 113 139 166 113 139 166 113 139 166 113 139 166 113 139 166 113 139 166 113 139 166 113 139 166 113 139 166 113 139 166 113 139 166 113 139 166 113 139 166 113 139 166
113 139 166 113 139 166 113 139 166 113 139 166 113 139 166 113 139 166 113 139 166 113 139 166 113 139 166 113 139 166 113 139 166 113 139 166 113 139 166 113 139 166 113 139 166 113 139 166 113 139 166 113 139 166 113 139 166 113 139 166 113 139 166 113 139 166 113 139 166 113 139 166 113 139 166 113 139 166 113 139 166 113 139 166 113 139 166 113 139 166 113 139 166 113 139 166 113 139 166 113 139 166 113 139 166 113 139 166 113 139 166 113 139 166 113 139 166 113 139 166 113 139 166 113 139 166 113 139 166 113 139 166 113 139 166 113 139 166 113 139 166 113 139 166 113 139 166 113 139 166 113 139 166 113 139 166 113 139 166 113 139 166 113 139 166 113 139 166 113 139 166 113 139 166 113 139 166 113 139 166 113 139 166 113 139 166 113 139 166 113 139 166 113 139 166 113 139 166 113 139 166 113 139 166 113 139 166 113 139 166 113 139 166 113 139 166 113 139 166 113 139 166 113 139 166 113 139 166 113 139 166 113 139 166 113 139 166 113 139 166 113 139 166 113 139 166 113 139 166 113 139 166 113 139 166 113 139 166 113 139 166 113 139 166 113 139 166 113 139 166 113 139 166 113 139 166 113 139 166 113 139 166 113 139 166 113 139 166 113 139 166 113 139 166 113 139 166 113 139 166 113 139 166 113 139 166 113 139 166 113 139 166 113 139 166 113 139 166 113 139 166 113 139 166 113 139 166 113 139 166 113 139 166 113 139 166 113 139 166 113 139 166 113 139 166 113 139 166 113 139 166 113 139 166 113 139 166 113 139 166 113 139 166 113 139 166 113 139 166 113 139 166 113 139 166 113 139 166 113 139 166 113 139 166 113 139 166 113 139 166 113 139 166 113 139 166 113 139 166 113 139 166 113 139 166 113 139 166 113 139 166 113 139 166 113 139 166 113 139 166 113 139 166 113 139 166 113 139 166 113 139 166 113 139 166 113 139 166 113 139 166 113 139 166 113 139 166 113 139 166 113 139 166 113 139 166 113 139 166 113 139 166 113 139 166 113 139 166 113 139 166 113 139 166 113 139 166 113 139 166 113 139 166 113 139 166 113 139 166 113 139 166 113 139 166 113 139 166 113 139 166 113 139 166 113 139 166 113 139 166 113 139 166 113 139 166 113 139 166 113 139 166 113 139 166 113 139 166 113 139 166 113 139 166 113 139 166 113 139 166 113 139 166 113 139 166 113 139 166 113 139 166 113 139 166 113 139 166 113 139 166 113 139 166 113 139 166 113 139 166 113 139 166 113 139 166 113 139 166 113 139 166 113 139 166 113 139 166 113 139 166 113 139 166 113 139 166 113 139 166 113 139 166 113 139 166 113 139 166 113 139 166 113 139 166 113 139 166 113 139 166 113 139 166 113 139 166 113 139 166 113 139 166 113 139 166 113 139 166 113 139 166 113 139 166 113 139 166 113 139 166 113 139 166 113 139 166 113 139 166 113 139 166 113 139 166 113 139 166 113 139 166 113 139 166 113 139 166 113 139 166 113 139 166 113 139 166 113 139 166 113 139 166 113 139 166 113 139 166 113 139 166 113 139 166 113 139 166 113 139 166 113 139 166 113 139 166 113 139 166
113 139 166 113 139 166 113 139 166 113 139 166 113 139 166 113 139 166 113 139 166 113 139 166 113 139 166 113 139 166 113 139 166 113 139 166 113 139 166 113 139 166 113 139 166 113 139 166 113 139 166 113 139 166 113 139 166 113 139 166 113 139 166 113 139 166 113 139 166 113 139 166 113 139 166 113 139 166 113 139 166 113 139 166 113 139 166 113 139 166 113 139 166 113 139 166 113 139 166 113 139 166 113 139 166 113 139 166 113 139 166 113 139 166 113 139 166 113 139 166 113 139 166 113 139 166 113 139 166 113 139 166 113 139 166 113 139 166 113 139 166 113 139 166 113 139 166 113 139 166 113 139 166 113 139 166 113 139 166 113 139 166 113 139 166 113 139 166 113 139 166 113 139 166 113 139 166 113 139 166 113 139 166 113 139 166 113 139 166 113 139 166 113 139 166 113 139 166 113 139 166 113 139 166 113 139 166 113 139 166 113 139 166 113 139 166 113 139 166 113 139 166 113 139 166 113 139 166 113 139 166 113 139 166 113 139 166 113 139 166 113 139 166 113 139 166 113 139 166 113 139 166 113 139 166 113 139 166 113 139 166 113 139 166 113 139 166 113 139 166 113 139 166 113 139 166 113 139 166 113 139 166 113 139 166 113 139 166 113 139 166 113 139 166 113 139 166 113 139 166 113 139 166 113 139 166 113 139 166 113 139 166 113 139 166 113 139 166 113 139 166 113 139 166 113 139 166 113 139 166 113 139 166 113 139 166 113 139 166 113 139 166 113 139 166 113 139 166 113 139 166 113 139 166 113 139 166 113 139 166 113 139 166 113 139 166 113 139 166 113 139 166 113 139 166 113 139 166 113 139 166 113 139 166 113 139 166 113 139 166 113 139 166 113 139 166 113 139 166 113 139 166 113 139 166 113 139 166 113 139 166 113 139 166 113 139 166 113 139 166 113 139 166 113 139 166 113 139 166 113 139 166 113 139 166 113 139 166 113 139 166 113 139 166 113 139 166 113 139 166 113 139 166 113 139 166 113 139 166 113 139 166 113 139 166 113 139 166 113 139 166 113 139 166 113 139 166 113 139 166 113 139 166 113 139 166 113 139 166 113 139 166 113 139 166 113 139 166 113 139 166 113 139 166 113 139 166 113 139 166 113 139 166 113 139 166 113 139 166 113 139 166 113 139 166 113 139 166 113 139 166 113 139 166 113 139 166 113 139 166 113 139 166 113 139 166 113 139 166 113 139 166 113 139 166 113 139 166 113 139 166 113 139 166 113 139 166 113 139 166 113 139 166 113 139 166 113 139 166 113 139 166 113 139 166 113 139 166 113 139 166 113 139 166 113 139 166 113 139 166 113 139 166 113 139 166 113 139 166 113 139 166 113 139 166 113 139 166 113 139 166 113 139 166 113 139 166 113 139 166 113 139 166 113 139 166 113 139 166 113 139 166 113 139 166 113 139 166 113 139 166 113 139 166 113 139 166 113 139 166 113 139 166 113 139 166 113 139 166 113 139 166 113 139 166 113 139 166 113 139 166 113 139 166 113 139 166 113 139 166 113 139 166 113 139 166 113 139 166 113 139 166 113 139 166 113 139 166 113 139 166 113 139 166 113 139 166 113 139 166
113 139 166 113 139 166 113 139 166 113 139 166 113 139 166 113 139 166 113 139 166 113 139 166 113 139 166 113 139 166 113 139 166 113 139 166 113 139 166 113 139 166 113 139 166 113 139 166 113 139 166 113 139 166 113 139 166 113 139 166 113 139 166 113 139 166 113 139 166 113 139 166 113 139 166 113 139 166 113 139 166 113 139 166 113 139 166 113 139 166 113 139 166 113 139 166 113 139 166 113 139 166 113 139 166 113 139 166 113 139 166 113 139 166 113 139 166 113 139 166 113 139 166 113 139 166 113 139 166 113 139 166 113 139 166 113 139 166 113 139 166 113 139 166 113 139 166 113 139 166 113 139 166 113 139 166 113 139 166 113 139 166 113 139 166 113 139 166 113 139 166 113 139 166 113 139 166 113 139 166 113 139 166 113 139 166 113 139 166 113 139 166 113 139 166 113 139 166 113 139 166 113 139 166 113 139 166 113 139 166 113 139 166 113 139 166 113 139 166 113 139 166 113 139 166 113 139 166 113 139 166 113 139 166 113 139 166 113 139 166 113 139 166 113 139 166 113 139 166 113 139 166 113 139 166 113 139 166 113 139 166 113 139 166 113 139 166 113 139 166 113 139 166 113 139 166 113 139 166 113 139 166 113 139 166 113 139 166 113 139 166 113 139 166 113 139 166 113 139 166 113 139 166 113 139 166 113 139 166 113 139 166 113 139 166 113 139 166 113 139 166 113 139 166 113 139 166 113 139 166 113 139 166 113 139 166 113 139 166 113 139 166 113 139 166 113 139 166 113 139 166 113 139 166 113 139 166 113 139 166 113 139 166 113 139 166 113 139 166 113 139 166 113 139 166 113 139 166 113 139 166 113 139 166 113 139 166 113 139 166 113 139 166 113 139 166 113 139 166 113 139 166 113 139 166 113 139 166 113 139 166 113 139 166 113 139 166 113 139 166 113 139 166 113 139 166 113 139 166 113 139 166 113 139 166 113 139 166 113 139 166 113 139 166 113 139 166 113 139 166 113 139 166 113 139 166 113 139 166 113 139 166 113 139 166 113 139 166 113 139 166 113 139 166 113 139 166 113 139 166 113 139 166 113 139 166 113 139 166 113 139 166 113 139 166 113 139 166 113 139 166 113 139 166 113 139 166 113 139 166 113 139 166 113 139 166 113 139 166 113 139 166 113 139 166 113 139 166 113 139 166 113 139 166 113 139 166 113 139 166 113 139 166 113 139 166 113 139 166 113 139 166 113 139 166 113 139 166 113 139 166 113 139 166 113 139 166 113 139 166 113 139 166 113 139 166 113 139 166 113 139 166 113 139 166 113 139 166 113 139 166 113 139 166 113 139 166 113 139 166 113 139 166 113 139 166 113 139 166 113 139 166 113 139 166 113 139 166 113 139 166 113 139 166 113 139 166 113 139 166 113 139 166 113 139 166 113 139 166 113 139 166 113 139 166 113 139 166 113 139 166 113 139 166 113 139 166 113 139 166 113 139 166 113 139 166 113 139 166 113 139 166 113 139 166 113 139 166 113 139 166 113 139 166 113 139 166 113 139 166 113 139 166 113 139 166 113 139 166 113 139 166 113 139 166 113 139 166 113 139 166 113 139 166 113 139 166 113 139 166
113 139 166 113 139 166 113 139 166 113 139 166 113 139 166 113 139 166 113 139 166 113 139 166 113 139 166 113 139 166 113 139 166 113 139 166 113 139 166 113 139 166 113 139 166 113 139 166 113 139 166 113 139 166 113 139 166 113 139 166 113 139 166 113 139 166 113 139 166 113 139 166 113 139 166 113 139 166 113 139 166 113 139 166 113 139 166 113 139 166 113 139 166 113 139 166 113 139 166 113 139 166 113 139 166 113 139 166 113 139 166 113 139 166 113 139 166 113 139 166 113 139 166 113 139 166 113 139 166 113 139 166 113 139 166 113 139 166 113 139 166 113 139 166 113 139 166 113 139 166 113 139 166 113 139 166 113 139 166 113 139 166 113 139 166 113 139 166 113 139 166 113 139 166 113 139 166 113 139 166 113 139 166 113 139 166 113 139 166 113 139 166 113 139 166 113 139 166 113 139 166 113 139 166 113 139 166 113 139 166 113 139 166 113 139 166 113 139 166 113 139 166 113 139 166 113 139 166 113 139 166 113 139 166 113 139 166 113 139 166 113 139 166 113 139 166 113 139 166 113 139 166 113 139 166 113 139 166 113 139 166 113 139 166 113 139 166 113 139 166 113 139 166 113 139 166 113 139 166 113 139 166 113 139 166 113 139 166 113 139 166 113 139 166 113 139 166 113 139 166 113 139 166 113 139 166 113 139 166 113 139 166 113 139 166 113 139 166 113 139 166 113 139 166 113 139 166 113 139 166 113 139 166 113 139 166 113 139 166 113 139 166 113 139 166 113 139 166 113 139 166 113 139 166 113 139 166 113 139 166 113 139 166 113 139 166 113 139 166 113 139 166 113 139 166 113 139 166 113 139 166 113 139 166 113 139 166 113 139 166 113 139 166 113 139 166 113 139 166 113 139 166 113 139 166 113 139 166 113 139 166 113 139 166 113 139 166 113 139 166 113 139 166 113 139 166 113 139 166 113 139 166 113 139 166 113 139 166 113 139 166 113 139 166 113 139 166 113 139 166 113 139 166 113 139 166 113 139 166 113 139 166 113 139 166 113 139 166 113 139 166 113 139 166 113 139 166 113 139 166 113 139 166 113 139 166 113 139 166 113 139 166 113 139 166 113 139 166 113 139 166 113 139 166 113 139 166 113 139 166 113 139 166 113 139 166 113 139 166 113 139 166 113 139 166 113 139 166 113 139 166 113 139 166 113 139 166 113 139 166 113 139 166 113 139 166 113 139 166 113 139 166 113 139 166 113 139 166 113 139 166 113 139 166 113 139 166 113 139 166 113 139 166 113 139 166 113 139 166 113 139 166 113 139 166 113 139 166 113 139 166 113 139 166 113 139 166 113 139 166 113 139 166 113 139 166 113 139 166 113 139 166 113 139 166 113 139 166 113 139 166 113 139 166 113 139 166 113 139 166 113 139 166 113 139 166 113 139 166 113 139 166 113 139 166 113 139 166 113 139 166 113 139 166 113 139 166 113 139 166 113 139 166 113 139 166 113 139 166 113 139 166 113 139 166 113 139 166 113 139 166 113 139 166 113 139 166 113 139 166 113 139 166 113 139 166 113 139 166 113 139 166 113 139 166 113 139 166 113 139 166 113 139 166 113 139 166 113 139 166
113 139 166 113 139 166 113 139 166 113 139 166 113 139 166 113 139 166 113 139 166 113 139 166 113 139 166 113 139 166 113 139 166 113 139 166 113 139 166 113 139 166 113 139 166 113 139 166 113 139 166 113 139 166 113 139 166 113 139 166 113 139 166 113 139 166 113 139 166 113 139 166 113 139 166 113 139 166 113 139 166 113 139 166 113 139 166 113 139 166 113 139 166 113 139 166 113 139 166 113 139 166 113 139 166 113 139 166 113 139 166 113 139 166 113 139 166 113 139 166 113 139 166 113 139 166 113 139 166 113 139 166 113 139 166 113 139 166 113 139 166 113 139 166 113 139 166 113 139 166 113 139 166 113 139 166 113 139 166 113 139 166 113 139 166 113 139 166 113 139 166 113 139 166 113 139 166 113 139 166 113 139 166 113 139 166 113 139 166 113 139 166 113 139 166 113 139 166 113 139 166 113 139 166 113 139 166 113 139 166 113 139 166 113 139 166 113 139 166 113 139 166 113 139 166 113 139 166 113 139 166 113 139 166 113 139 166 113 139 166 113 139 166 113 139 166 113 139 166 113 139 166 113 139 166 113 139 166 113 139 166 113 139 166 113 139 166 113 139 166 113 139 166 113 139 166 113 139 166 113 139 166 113 139 166 113 139 166 113 139 166 113 139 166 113 139 166 113 139 166 113 139 166 113 139 166 113 139 166 113 139 166 113 139 166 113 139 166 113 139 166 113 139 166 113 139 166 113 139 166 113 139 166 113 139 166 113 139 166 113 139 166 113 139 166 113 139 166 113 139 166 113 139 166 113 139 166 113 139 166 113 139 166 113 139 166 113 139 166 113 139 166 113 139 166 113 139 166 113 139 166 113 139 166 113 139 166 113 139 166 113 139 166 113 139 166 113 139 166 113 139 166 113 139 166 113 139 166 113 139 166 113 139 166 113 139 166 113 139 166 113 139 166 113 139 166 113 139 166 113 139 166 113 139 166 113 139 166 113 139 166 113 139 166 113 139 166 113 139 166 113 139 166 113 139 166 113 139 166 113 139 166 113 139 166 113 139 166 113 139 166 113 139 166 113 139 166 113 139 166 113 139 166 113 139 166 113 139 166 113 139 166 113 139 166 113 139 166 113 139 166 113 139 166 113 139 166 113 139 166 113 139 166 113 139 166 113 139 166 113 139 166 113 139 166 113 139 166 113 139 166 113 139 166 113 139 166 113 139 166 113 139 166 113 139 166 113 139 166 113 139 166 113 139 166 113 139 166 113 139 166 113 139 166 113 139 166 113 139 166 113 139 166 113 139 166 113 139 166 113 139 166 113 139 166 113 139 166 113 139 166 113 139 166 113 139 166 113 139 166 113 139 166 113 139 166 113 139 166 113 139 166 113 139 166 113 139 166 113 139 166 113 139 166 113 139 166 113 139 166 113 139 166 113 139 166 113 139 166 113 139 166 113 139 166 113 139 166 113 139 166 113 139 166 113 139 166 113 139 166 113 139 166 113 139 166 113 139 166 113 139 166 113 139 166 113 139 166 113 139 166 113 139 166 113 139 166 113 139 166 113 139 166 113 139 166 113 139 166 113 139 166 113 139 166 113 139 166 113 139 166 113 139 166 113 139 166 113 139 166
113 139 166 113 139 166 113 139 166 113 139 166 113 139 166 113 139 166 113 139 166 113 139 166 113 139 166 113 139 166 113 139 166 113 139 166 113 139 166 113 139 166 113 139 166 113 139 166 113 139 166 113 139 166 113 139 166 113 139 166 113 139 166 113 139 166 113 139 166 113 139 166 113 139 166 113 139 166 113 139 166 113 139 166 113 139 166 113 139 166 113 139 166 113 139 166 113 139 166 113 139 166 113 139 166 113 139 166 113 139 166 113 139 166 113 139 166 113 139 166 113 139 166 113 139 166 113 139 166 113 139 166 113 139 166 113 139 166 113 139 166 113 139 166 113 139 166 113 139 166 113 139 166 113 139 166 113 139 166 113 139 166 113 139 166 113 139 166 113 139 166 113 139 166 113 139 166 113 139 166 113 139 166 113 139 166 113 139 166 113 139 166 113 139 166 113 139 166 113 139 166 113 139 166 113 139 166 113 139 166 113 139 166 113 139 166 113 139 166 113 139 166 113 139 166 113 139 166 113 139 166 113 139 166 113 139 166 113 139 166 113 139 166 113 139 166 113 139 166 113 139 166 113 139 166 113 139 166 113 139 166 113 139 166 113 139 166 113 139 166 113 139 166 113 139 166 113 139 166 113 139 166 113 139 166 113 139 166 113 139 166 113 139 166 113 139 166 113 139 166 113 139 166 113 139 166 113 139 166 113 139 166 113 139 166 113 139 166 113 139 166 113 139 166 113 139 166 113 139 166 113 139 166 113 139 166 113 139 166 113 139 166 113 139 166 113 139 166 113 139 166 113 139 166 113 139 166 113 139 166 113 139 166 113 139 166 113 139 166 113 139 166 113 139 166 113 139 166 113 139 166 113 139 166 113 139 166 113 139 166 113 139 166 113 139 166 113 139 166 113 139 166 113 139 166 113 139 166 113 139 166 113 139 166 113 139 166 113 139 166 113 139 166 113 139 166 113 139 166 113 139 166 113 139 166 113 139 166 113 139 166 113 139 166 113 139 166 113 139 166 113 139 166 113 139 166 113 139 166 113 139 166 113 139 166 113 139 166 113 139 166 113 139 166 113 139 166 113 139 166 113 139 166 113 139 166 113 139 166 113 139 166 113 139 166 113 139 166 113 139 166 113 139 166 113 139 166 113 139 166 113 139 166 113 139 166 113 139 166 113 139 166 113 139 166 113 139 166 113 139 166 113 139 166 113 139 166 113 139 166 113 139 166 113 139 166 113 139 166 113 139 166 113 139 166 113 139 166 113 139 166 113 139 166 113 139 166 113 139 166 113 139 166 113 139 166 113 139 166 113 139 166 113 139 166 113 139 166 113 139 166 113 139 166 113 139 166 113 139 166 113 139 166 113 139 166 113 139 166 113 139 166 113 139 166 113 139 166 113 139 166 113 139 166 113 139 166 113 139 166 113 139 166 113 139 166 113 139 166 113 139 166 113 139 166 113 139 166 113 139 166 113 139 166 113 139 166 113 139 166 113 139 166 113 139 166 113 139 166 113 139 166 113 139 166 113 139 166 113 139 166 113 139 166 113 139 166 113 139 166 113 139 166 113 139 166 113 139 166 113 139 166 113 139 166 113 139 166 113 139 166 113 139 166 113 139 166 113 139 166
113 139 166 113 139 166 113 139 166 113 139 166 113 139 166 113 139 166 113 139 166 113 139 166 113 139 166 113 139 166 113 139 166 113 139 166 113 139 166 113 139 166 113 139 166 113 139 166 113 139 166 113 139 166 113 139 166 113 139 166 113 139 166 113 139 166 113 139 166 113 139 166 113 139 166 113 139 166 113 139 166 113 139 166 113 139 166 113 139 166 113 139 166 113 139 166 113 139 166 113 139 166 113 139 166 113 139 166 113 139 166 113 139 166 113 139 166 113 139 166 113 139 166 113 139 166 113 139 166 113 139 166 113 139 166 113 139 166 113 139 166 113 139 166 113 139 166 113 139 166 113 139 166 113 139 166 113 139 166 113 139 166 113 139 166 113 139 166 113 139 166 113 139 166 113 139 166 113 139 166 113 139 166 113 139 166 113 139 166 113 139 166 113 139 166 113 139 166 113 139 166 113 139 166 113 139 166 113 139 166 113 139 166 113 139 166 113 139 166 113 139 166 113 139 166 113 139 166 113 139 166 113 139 166 113 139 166 113 139 166 113 139 166 113 139 166 113 139 166 113 139 166 113 139 166 113 139 166 113 139 166 113 139 166 113 139 166 113 139 166 113 139 166 113 139 166 113 139 166 113 139 166 113 139 166 113 139 166 113 139 166 113 139 166 113 139 166 113 139 166 113 139 166 113 139 166 113 139 166 113 139 166 113 139 166 113 139 166 113 139 166 113 139 166 113 139 166 113 139 166 113 139 166 113 139 166 113 139 166 113 139 166 113 139 166 113 139 166 113 139 166 113 139 166 113 139 166 113 139 166 113 139 166 113 139 166 113 139 166 113 139 166 113 139 166 113 139 166 113 139 166 113 139 166 113 139 166 113 139 166 113 139 166 113 139 166 113 139 166 113 139 166 113 139 166 113 139 166 113 139 166 113 139 166 113 139 166 113 139 166 113 139 166 113 139 166 113 139 166 113 139 166 113 139 166 113 139 166 113 139 166 113 139 166 113 139 166 113 139 166 113 139 166 113 139 166 113 139 166 113 139 166 113 139 166 113 139 166 113 139 166 113 139 166 113 139 166 113 139 166 113 139 166 113 139 166 113 139 166 113 139 166 113 139 166 113 139 166 113 139 166 113 139 166 113 139 166 113 139 166 113 139 166 113 139 166 113 139 166 113 139 166 113 139 166 113 139 166 113 139 166 113 139 166 113 139 166 113 139 166 113 139 166 113 139 166 113 139 166 113 139 166 113 139 166 113 139 166 113 139 166 113 139 166 113 139 166 113 139 166 113 139 166 113 139 166 113 139 166 113 139 166 113 139 166 113 139 166 113 139 166 113 139 166 113 139 166 113 139 166 113 139 166 113 139 166 113 139 166 113 139 166 113 139 166 113 139 166 113 139 166 113 139 166 113 139 166 113 139 166 113 139 166 113 139 166 113 139 166 113 139 166 113 139 166 113 139 166 113 139 166 113 139 166 113 139 166 113 139 166 113 139 166 113 139 166 113 139 166 113 139 166 113 139 166 113 139 166 113 139 166 113 139 166 113 139 166 113 139 166 113 139 166 113 139 166 113 139 166 113 139 166 113 139 166 113 139 166 113 139 166 113 139 166 113 139 166 113 139 166
113 139 166 113 139 166 113 139 166 113 139 166 113 139 166 113 139 166 113 139 166 113 139 166 113 139 166 113 139 166 113 139 166 113 139 166 113 139 166 113 139 166 113 139 166 113 139 166 113 139 166 113 139 166 113 139 166 113 139 166 113 139 166 113 139 166 113 139 166 113 139 166 113 139 166 113 139 166 113 139 166 113 139 166 113 139 166 113 139 166 113 139 166 113 139 166 113 139 166 113 139 166 113 139 166 113 139 166 113 139 166 113 139 166 113 139 166 113 139 166 113 139 166 113 139 166 113 139 166 113 139 166 113 139 166 113 139 166 113 139 166 113 139 166 113 139 166 113 139 166 113 139 166 113 139 166 113 139 166 113 139 166 113 139 166 113 139 166 113 139 166 113 139 166 113 139 166 113 139 166 113 139 166 113 139 166 113 139 166 113 139 166 113 139 166 113 139 166 113 139 166 113 139 166 113 139 166 113 139 166 113 139 166 113 139 166 113 139 166 113 139 166 113 139 166 113 139 166 113 139 166 113 139 166 113 139 166 113 139 166 113 139 166 113 139 166 113 139 166 113 139 166 113 139 166 113 139 166 113 139 166 113 139 166 113 139 166 113 139 166 113 139 166 113 139 166 113 139 166 113 139 166 113 139 166 113 139 166 113 139 166 113 139 166 113 139 166 113 139 166 113 139 166 113 139 166 113 139 166 113 139 166 113 139 166 113 139 166 113 139 166 113 139 166 113 139 166 113 139 166 113 139 166 113 139 166 113 139 166 113 139 166 113 139 166 113 139 166 113 139 166 113 139 166 113 139 166 113 139 166 113 139 166 113 139 166 113 139 166 113 139 166 113 139 166 113 139 166 113 139 166 113 139 166 113 139 166 113 139 166 113 139 166 113 139 166 113 139 166 113 139 166 113 139 166 113 139 166 113 139 166 113 139 166 113 139 166 113 139 166 113 139 166 113 139 166 113 139 166 113 139 166 113 139 166 113 139 166 113 139 166 113 139 166 113 139 166 113 139 166 113 139 166 113 139 166 113 139 166 113 139 166 113 139 166 113 139 166 113 139 166 113 139 166 113 139 166 113 139 166 113 139 166 113 139 166 113 139 166 113 139 166 113 139 166 113 139 166 113 139 166 113 139 166 113 139 166 113 139 166 113 139 166 113 139 166 113 139 166 113 139 166 113 139 166 113 139 166 113 139 166 113 139 166 113 139 166 113 139 166 113 139 166 113 139 166 113 139 166 113 139 166 113 139 166 113 139 166 113 139 166 113 139 166 113 139 166 113 139 166 113 139 166 113 139 166 113 139 166 113 139 166 113 139 166 113 139 166 113 139 166 113 139 166 113 139 166 113 139 166 113 139 166 113 139 166 113 139 166 113 139 166 113 139 166 113 139 166 113 139 166 113 139 166 113 139 166 113 139 166 113 139 166 113 139 166 113 139 166 113 139 166 113 139 166 113 139 166 113 139 166 113 139 166 113 139 166 113 139 166 113 139 166 113 139 166 113 139 166 113 139 166 113 139 166 113 139 166 113 139 166 113 139 166 113 139 166 113 139 166 113 139 166 113 139 166 113 139 166 113 139 166 113 139 166 113 139 166 113 139 166 113 139 166 113 139 166 113 139 166
113 139 166 113 139 166 113 139 166 113 139 166 113 139 166 113 139 166 113 139 166 113 139 166 113 139 166 113 139 166 113 139 166 113 139 166 113 139 166 113 139 166 113 139 166 113 139 166 113 139 166 113 139 166 113 139 166 113 139 166 113 139 166 113 139 166 113 139 166 113 139 166 113 139 166 113 139 166 113 139 166 113 139 166 113 139 166 113 139 166 113 139 166 113 139 166 113 139 166 113 139 166 113 139 166 113 139 166 113 139 166 113 139 166 113 139 166 113 139 166 113 139 166 113 139 166 113 139 166 113 139 166 113 139 166 113 139 166 113 139 166 113 139 166 113 139 166 113 139 166 113 139 166 113 139 166 113 139 166 113 139 166 113 139 166 113 139 166 113 139 166 113 139 166 113 139 166 113 139 166 113 139 166 113 139 166 113 139 166 113 139 166 113 139 166 113 139 166 113 139 166 113 139 166 113 139 166 113 139 166 113 139 166 113 139 166 113 139 166 113 139 166 113 139 166 113 139 166 113 139 166 113 139 166 113 139 166 113 139 166 113 139 166 113 139 166 113 139 166 113 139 166 113 139 166 113 139 166 113 139 166 113 139 166 113 139 166 113 139 166 113 139 166 113 139 166 113 139 166 113 139 166 113 139 166 113 139 166 113 139 166 113 139 166 113 139 166 113 139 166 113 139 166 113 139 166 113 139 166 113 139 166 113 139 166 113 139 166 113 139 166 113 139 166 113 139 166 113 139 166 113 139 166 113 139 166 113 139 166 113 139 166 113 139 166 113 139 166 113 139 166 113 139 166 113 139 166 113 139 166 113 139 166 113 139 166 113 139 166 113 139 166 113 139 166 113 139 166 113 139 166 113 139 166 113 139 166 113 139 166 113 139 166 113 139 166 113 139 166 113 139 166 113 139 166 113 139 166 113 139 166 113 139 166 113 139 166 113 139 166 113 139 166 113 139 166 113 139 166 113 139 166 113 139 166 113 139 166 113 139 166 113 139 166 113 139 166 113 139 166 113 139 166 113 139 166 113 139 166 113 139 166 113 139 166 113 139 166 113 139 166 113 139 166 113 139 166 113 139 166 113 139 166 113 139 166 113 139 166 113 139 166 113 139 166 113 139 166 113 139 166 113 139 166 113 139 166 113 139 166 113 139 166 113 139 166 113 139 166 113 139 166 113 139 166 113 139 166 113 139 166 113 139 166 113 139 166 113 139 166 113 139 166 113 139 166 113 139 166 113 139 166 113 139 166 113 139 166 113 139 166 113 139 166 113 139 166 113 139 166 113 139 166 113 139 166 113 139 166 113 139 166 113 139 166 113 139 166 113 139 166 113 139 166 113 139 166 113 139 166 113 139 166 113 139 166 113 139 166 113 139 166 113 139 166 113 139 166 113 139 166 113 139 166 113 139 166 113 139 166 113 139 166 113 139 166 113 139 166 113 139 166 113 139 166 113 139 166 113 139 166 113 139 166 113 139 166 113 139 166 113 139 166 113 139 166 113 139 166 113 139 166 113 139 166 113 139 166 113 139 166 113 139 166 113 139 166 113 139 166 113 139 166 113 139 166 113 139 166 113 139 166 113 139 166 113 139 166 113 139 166 113 139 166 113 139 166 113 139 166
113 139 166 113 139 166 113 139 166 113 139 166 113 139 166 113 139 166 113 139 166 113 139 166 113 139 166 113 139 166 113 139 166 113 139 166 113 139 166 113 139 166 113 139 166 113 139 166 113 139 166 113 139 166 113 139 166 113 139 166 113 139 166 113 139 166 113 139 166 113 139 166 113 139 166 113 139 166 113 139 166 113 139 166 113 139 166 113 139 166 113 139 166 113 139 166 113 139 166 113 139 166 113 139 166 113 139 166 113 139 166 113 139 166 113 139 166 113 139 166 113 139 166 113 139 166 113 139 166 113 139 166 113 139 166 113 139 166 113 139 166 113 139 166 113 139 166 113 139 166 113 139 166 113 139 166 113 139 166 113 139 166 113 139 166 113 139 166 113 139 166 113 139 166 113 139 166 113 139 166 113 139 166 113 139 166 113 139 166 113 139 166 113 139 166 113 139 166 113 139 166 113 139 166 113 139 166 113 139 166 113 139 166 113 139 166 113 139 166 113 139 166 113 139 166 113 139 166 113 139 166 113 139 166 113 139 166 113 139 166 113 139 166 113 139 166 113 139 166 113 139 166 113 139 166 113 139 166 113 139 166 113 139 166 113 139 166 113 139 166 113 139 166 113 139 166 113 139 166 113 139 166 113 139 166 113 139 166 113 139 166 113 139 166 113 139 166 113 139 166 113 139 166 113 139 166 113 139 166 113 139 166 113 139 166 113 139 166 113 139 166 113 139 166 113 139 166 113 139 166 113 139 166 113 139 166 113 139 166 113 139 166 113 139 166 113 139 166 113 139 166 113 139 166 113 139 166 113 139 166 113 139 166 113 139 166 113 139 166 113 139 166 113 139 166 113 139 166 113 139 166 113 139 166 113 139 166 113 139 166 113 139 166 113 139 166 113 139 166 113 139 166 113 139 166 113 139 166 113 139 166 113 139 166 113 139 166 113 139 166 113 139 166 113 139 166 113 139 166 113 139 166 113 139 166 113 139 166 113 139 166 113 139 166 113 139 166 113 139 166 113 139 166 113 139 166 113 139 166 113 139 166 113 139 166 113 139 166 113 139 166 113 139 166 113 139 166 113 139 166 113 139 166 113 139 166 113 139 166 113 139 166 113 139 166 113 139 166 113 139 166 113 139 166 113 139 166 113 139 166 113 139 166 113 139 166 113 139 166 113 139 166 113 139 166 113 139 166 113 139 166 113 139 166 113 139 166 113 139 166 113 139 166 113 139 166 113 139 166 113 139 166 113 139 166 113 139 166 113 139 166 113 139 166 113 139 166 113 139 166 113 139 166 113 139 166 113 139 166 113 139 166 113 139 166 113 139 166 113 139 166 113 139 166 113 139 166 113 139 166 113 139 166 113 139 166 113 139 166 113 139 166 113 139 166 113 139 166 113 139 166 113 139 166 113 139 166 113 139 166 113 139 166 113 139 166 113 139 166 113 139 166 113 139 166 113 139 166 113 139 166 113 139 166 113 139 166 113 139 166 113 139 166 113 139 166 113 139 166 113 139 166 113 139 166 113 139 166 113 139 166 113 139 166 113 139 166 113 139 166 113 139 166 113 139 166 113 139 166 113 139 166 113 139 166 113 139 166 113 139 166 113 139 166 113 139 166 113 139 166
113 139 166 113 139 166 113 139 166 113 139 166 113 139 166 113 139 166 113 139 166 113 139 166 113 139 166 113 139 166 113 139 166 113 139 166 113 139 166 113 139 166 113 139 166 113 139 166 113 139 166 113 139 166 113 139 166 113 139 166 113 139 166 113 139 166 113 139 166 113 139 166 113 139 166 113 139 166 113 139 166 113 139 166 113 139 166 113 139 166 113 139 166 113 139 166 113 139 166 113 139 166 113 139 166 113 139 166 113 139 166 113 139 166 113 139 166 113 139 166 113 139 166 113 139 166 113 139 166 113 139 166 113 139 166 113 139 166 113 139 166 113 139 166 113 139 166 113 139 166 113 139 166 113 139 166 113 139 166 113 139 166 113 139 166 113 139 166 113 139 166 113 139 166 113 139 166 113 139 166 113 139 166 113 139 166 113 139 166 113 139 166 113 139 166 113 139 166 113 139 166 113 139 166 113 139 166 113 139 166 113 139 166 113 139 166 113 139 166 113 139 166 113 139 166 113 139 166 113 139 166 113 139 166 113 139 166 113 139 166 113 139 166 113 139 166 113 139 166 113 139 166 113 139 166 113 139 166 113 139 166 113 139 166 113 139 166 113 139 166 113 139 166 113 139 166 113 139 166 113 139 166 113 139 166 113 139 166 113 139 166 113 139 166 113 139 166 113 139 166 113 139 166 113 139 166 113 139 166 113 139 166 113 139 166 113 139 166 113 139 166 113 139 166 113 139 166 113 139 166 113 139 166 113 139 166 113 139 166 113 139 166 113 139 166 113 139 166 113 139 166 113 139 166 113 139 166 113 139 166 113 139 166 113 139 166 113 139 166 113 139 166 113 139 166 113 139 166 113 139 166 113 139 166 113 139 166 113 139 166 113 139 166 113 139 166 113 139 166 113 139 166 113 139 166 113 139 166 113 139 166 113 139 166 113 139 166 113 139 166 113 139 166 113 139 166 113 139 166 113 139 166 113 139 166 113 139 166 113 139 166 113 139 166 113 139 166 113 139 166 113 139 166 113 139 166 113 139 166 113 139 166 113 139 166 113 139 166 113 139 166 113 139 166 113 139 166 113 139 166 113 139 166 113 139 166 113 139 166 113 139 166 113 139 166 113 139 166 113 139 166 113 139 166 113 139 166 113 139 166 113 139 166 113 139 166 113 139 166 113 139 166 113 139 166 113 139 166 113 139 166 113 139 166 113 139 166 113 139 166 113 139 166 113 139 166 113 139 166 113 139 166 113 139 166 113 139 166 113 139 166 113 139 166 113 139 166 113 139 166 113 139 166 113 139 166 113 139 166 113 139 166 113 139 166 113 139 166 113 139 166 113 139 166 113 139 166 113 139 166 113 139 166 113 139 166 113 139 166 113 139 166 113 139 166 113 139 166 113 139 166 113 139 166 113 139 166 113 139 166 113 139 166 113 139 166 113 139 166 113 139 166 113 139 166 113 139 166 113 139 166 113 139 166 113 139 166 113 139 166 113 139 166 113 139 166 113 139 166 113 139 166 113 139 166 113 139 166 113 139 166 113 139 166 113 139 166 113 139 166 113 139 166 113 139 166 113 139 166 113 139 166 113 139 166 113 139 166 113 139 166 113 139 166 113 139 166 113 139 166
113 139 166 113 139 166 113 139 166 113 139 166 113 139 166 113 139 166 113 139 166 113 139 166 113 139 166 113 139 166 113 139 166 113 139 166 113 139 166 113 139 166 113 139 166 113 139 166 113 139 166 113 139 166 113 139 166 113 139 166 113 139 166 113 139 166 113 139 166 113 139 166 113 139 166 113 139 166 113 139 166 113 139 166 113 139 166 113 139 166 113 139 166 113 139 166 113 139 166 113 139 166 113 139 166 113 139 166 113 139 166 113 139 166 113 139 166 113 139 166 113 139 166 113 139 166 113 139 166 113 139 166 113 139 166 113 139 166 113 139 166 113 139 166 113 139 166 113 139 166 113 139 166 113 139 166 113 139 166 113 139 166 113 139 166 113 139 166 113 139 166 113 139 166 113 139 166 113 139 166 113 139 166 113 139 166 113 139 166 113 139 166 113 139 166 113 139 166 113 139 166 113 139 166 113 139 166 113 139 166 113 139 166 113 139 166 113 139 166 113 139 166 113 139 166 113 139 166 113 139 166 113 139 166 113 139 166 113 139 166 113 139 166 113 139 166 113 139 166 113 139 166 113 139 166 113 139 166 113 139 166 113 139 166 113 139 166 113 139 166 113 139 166 113 139 166 113 139 166 113 139 166 113 139 166 113 139 166 113 139 166 113 139 166 113 139 166 113 139 166 113 139 166 113 139 166 113 139 166 113 139 166 113 139 166 113 139 166 113 139 166 113 139 166 113 139 166 113 139 166 113 139 166 113 139 166 113 139 166 113 139 166 113 139 166 113 139 166 113 139 166 113 139 166 113 139 166 113 139 166 113 139 166 113 139 166 113 139 166 113 139 166 113 139 166 113 139 166 113 139 166 113 139 166 113 139 166 113 139 166 113 139 166 113 139 166 113 139 166 113 139 166 113 139 166 113 139 166 113 139 166 113 139 166 113 139 166 113 139 166 113 139 166 113 139 166 113 139 166 113 139 166 113 139 166 113 139 166 113 139 166 113 139 166 113 139 166 113 139 166 113 139 166 113 139 166 113 139 166 113 139 166 113 139 166 113 139 166 113 139 166 113 139 166 113 139 166 113 139 166 113 139 166 113 139 166 113 139 166 113 139 166 113 139 166 113 139 166 113 139 166 113 139 166 113 139 166 113 139 166 113 139 166 113 139 166 113 139 166 113 139 166 113 139 166 113 139 166 113 139 166 113 139 166 113 139 166 113 139 166 113 139 166 113 139 166 113 139 166 113 139 166 113 139 166 113 139 166 113 139 166 113 139 166 113 139 166 113 139 166 113 139 166 113 139 166 113 139 166 113 139 166 113 139 166 113 139 166 113 139 166 113 139 166 113 139 166 113 139 166 113 139 166 113 139 166 113 139 166 113 139 166 113 139 166 113 139 166 113 139 166 113 139 166 113 139 166 113 139 166 113 139 166 113 139 166 113 139 166 113 139 166 113 139 166 113 139 166 113 139 166 113 139 166 113 139 166 113 139 166 113 139 166 113 139 166 113 139 166 113 139 166 113 139 166 113 139 166 113 139 166 113 139 166 113 139 166 113 139 166 113 139 166 113 139 166 113 139 166 113 139 166 113 139 166 113 139 166 113 139 166 113 139 166 113 139 166 113 139 166
113 139 166 113 139 166 113 139 166 113 139 166 113 139 166 113 139 166 113 139 166 113 139 166 113 139 166 113 139 166 113 139 166 113 139 166 113 139 166 113 139 166 113 139 166 113 139 166 113 139 166 113 139 166 113 139 166 113 139 166 113 139 166 113 139 166 113 139 166 113 139 166 113 139 166 113 139 166 113 139 166 113 139 166 113 139 166 113 139 166 113 139 166 113 139 166 113 139 166 113 139 166 113 139 166 113 139 166 113 139 166 113 139 166 113 139 166 113 139 166 113 139 166 113 139 166 113 139 166 113 139 166 113 139 166 113 139 166 113 139 166 113 139 166 113 139 166 113 139 166 113 139 166 113 139 166 113 139 166 113 139 166 113 139 166 113 139 166 113 139 166 113 139 166 113 139 166 113 139 166 113 139 166 113 139 166 113 139 166 113 139 166 113 139 166 113 139 166 113 139 166 113 139 166 113 139 166 113 139 166 113 139 166 113 139 166 113 139 166 113 139 166 113 139 166 113 139 166 113 139 166 113 139 166 113 139 166 113 139 166 113 139 166 113 139 166 113 139 166 113 139 166 113 139 166 113 139 166 113 139 166 113 139 166 113 139 166 113 139 166 113 139 166 113 139 166 113 139 166 113 139 166 113 139 166 113 139 166 113 139 166 113 139 166 113 139 166 113 139 166 113 139 166 113 139 166 113 139 166 113 139 166 113 139 166 113 139 166 113 139 166 113 139 166 113 139 166 113 139 166 113 139 166 113 139 166 113 139 166 113 139 166 113 139 166 113 139 166 113 139 166 113 139 166 113 139 166 113 139 166 113 139 166 113 139 166 113 139 166 113 139 166 113 139 166 113 139 166 113 139 166 113 139 166 113 139 166 113 139 166 113 139 166 113 139 166 113 139 166 113 139 166 113 139 166 113 139 166 113 139 166 113 139 166 113 139 166 113 139 166 113 139 166 113 139 166 113 139 166 113 139 166 113 139 166 113 139 166 113 139 166 113 139 166 113 139 166 113 139 166 113 139 166 113 139 166 113 139 166 113 139 166 113 139 166 113 139 166 113 139 166 113 139 166 113 139 166 113 139 166 113 139 166 113 139 166 113 139 166 113 139 166 113 139 166 113 139 166 113 139 166 113 139 166 113 139 166 113 139 166 113 139 166 113 139 166 113 139 166 113 139 166 113 139 166 113 139 166 113 139 166 113 139 166 113 139 166 113 139 166 113 139 166 113 139 166 113 139 166 113 139 166 113 139 166 113 139 166 113 139 166 113 139 166 113 139 166 113 139 166 113 139 166 113 139 166 113 139 166 113 139 166 113 139 166 113 139 166 113 139 166 113 139 166 113 139 166 113 139 166 113 139 166 113 139 166 113 139 166 113 139 166 113 139 166 113 139 166 113 139 166 113 139 166 113 139 166 113 139 166 113 139 166 113 139 166 113 139 166 113 139 166 113 139 166 113 139 166 113 139 166 113 139 166 113 139 166 113 139 166 113 139 166 113 139 166 113 139 166 113 139 166 113 139 166 113 139 166 113 139 166 113 139 166 113 139 166 113 139 166 113 139 166 113 139 166 113 139 166 113 139 166 113 139 166 113 139 166 113 139 166 113 139 166 113 139 166 113 139 166
113 139 166 113 139 166 113 139 166 113 139 166 113 139 166 113 139 166 113 139 166 113 139 166 113 139 166 113 139 166 113 139 166 113 139 166 113 139 166 113 139 166 113 139 166 113 139 166 113 139 166 113 139 166 113 139 166 113 139 166 113 139 166 113 139 166 113 139 166 113 139 166 113 139 166 113 139 166 113 139 166 113 139 166 113 139 166 113 139 166 113 139 166 113 139 166 113 139 166 113 139 166 113 139 166 113 139 166 113 139 166 113 139 166 113 139 166 113 139 166 113 139 166 113 139 166 113 139 166 113 139 166 113 139 166 113 139 166 113 139 166 113 139 166 113 139 166 113 139 166 113 139 166 113 139 166 113 139 166 113 139 166 113 139 166 113 139 166 113 139 166 113 139 166 113 139 166 113 139 166 113 139 166 113 139 166 113 139 166 113 139 166 113 139 166 113 139 166 113 139 166 113 139 166 113 139 166 113 139 166 113 139 166 113 139 166 113 139 166 113 139 166 113 139 166 113 139 166 113 139 166 113 139 166 113 139 166 113 139 166 113 139 166 113 139 166 113 139 166 113 139 166 113 139 166 113 139 166 113 139 166 113 139 166 113 139 166 113 139 166 113 139 166 113 139 166 113 139 166 113 139 166 113 139 166 113 139 166 113 139 166 113 139 166 113 139 166 113 139 166 113 139 166 113 139 166 113 139 166 113 139 166 113 139 166 113 139 166 113 139 166 113 139 166 113 139 166 113 139 166 113 139 166 113 139 166 113 139 166 113 139 166 113 139 166 113 139 166 113 139 166 113 139 166 113 139 166 113 139 166 113 139 166 113 139 166 113 139 166 113 139 166 113 139 166 113 139 166 113 139 166 113 139 166 113 139 166 113 139 166 113 139 166 113 139 166 113 139 166 113 139 166 113 139 166 113 139 166 113 139 166 113 139 166 113 139 166 113 139 166 113 139 166 113 139 166 113 139 166 113 139 166 113 139 166 113 139 166 113 139 166 113 139 166 113 139 166 113 139 166 113 139 166 113 139 166 113 139 166 113 139 166 113 139 166 113 139 166 113 139 166 113 139 166 113 139 166 113 139 166 113 139 166 113 139 166 113 139 166 113 139 166 113 139 166 113 139 166 113 139 166 113 139 166 113 139 166 113 139 166 113 139 166 113 139 166 113 139 166 113 139 166 113 139 166 113 139 166 113 139 166 113 139 166 113 139 166 113 139 166 113 139 166 113 139 166 113 139 166 113 139 166 113 139 166 113 139 166 113 139 166 113 139 166 113 139 166 113 139 166 113 139 166 113 139 166 113 139 166 113 139 166 113 139 166 113 139 166 113 139 166 113 139 166 113 139 166 113 139 166 113 139 166 113 139 166 113 139 166 113 139 166 113 139 166 113 139 166 113 139 166 113 139 166 113 139 166 113 139 166 113 139 166 113 139 166 113 139 166 113 139 166 113 139 166 113 139 166 113 139 166 113 139 166 113 139 166 113 139 166 113 139 166 113 139 166 113 139 166 113 139 166 113 139 166 113 139 166 113 139 166 113 139 166 113 139 166 113 139 166 113 139 166 113 139 166 113 139 166 113 139 166 113 139 166 113 139 166 113 139 166 113 139 166 113 139 166 113 139 166
113 139 166 113 139 166 113 139 166 113 139 166 113 139 166 113 139 166 113 139 166 113 139 166 113 139 166 113 139 166 113 139 166 113 139 166 113 139 166 113 139 166 113 139 166 113 139 166 113 139 166 113 139 166 113 139 166 113 139 166 113 139 166 113 139 166 113 139 166 113 139 166 113 139 166 113 139 166 113 139 166 113 139 166 113 139 166 113 139 166 113 139 166 113 139 166 113 139 166 113 139 166 113 139 166 113 139 166 113 139 166 113 139 166 113 139 166 113 139 166 113 139 166 113 139 166 113 139 166 113 139 166 113 139 166 113 139 166 113 139 166 113 139 166 113 139 166 113 139 166 113 139 166 113 139 166 113 139 166 113 139 166 113 139 166 113 139 166 113 139 166 113 139 166 113 139 166 113 139 166 113 139 166 113 139 166 113 139 166 113 139 166 113 139 166 113 139 166 113 139 166 113 139 166 113 139 166 113 139 166 113 139 166 113 139 166 113 139 166 113 139 166 113 139 166 113 139 166 113 139 166 113 139 166 113 139 166 113 139 166 113 139 166 113 139 166 113 139 166 113 139 166 113 139 166 113 139 166 113 139 166 113 139 166 113 139 166 113 139 166 113 139 166 113 139 166 113 139 166 113 139 166 113 139 166 113 139 166 113 139 166 113 139 166 113 139 166 113 139 166 113 139 166 113 139 166 113 139 166 113 139 166 113 139 166 113 139 166 113 139 166 113 139 166 113 139 166 113 139 166 113 139 166 113 139 166 113 139 166 113 139 166 113 139 166 113 139 166 113 139 166 113 139 166 113 139 166 113 139 166 113 139 166 113 139 166 113 139 166 113 139 166 113 139 166 113 139 166 113 139 166 113 139 166 113 139 166 113 139 166 113 139 166 113 139 166 113 139 166 113 139 166 113 139 166 113 139 166 113 139 166 113 139 166 113 139 166 113 139 166 113 139 166 113 139 166 113 139 166 113 139 166 113 139 166 113 139 166 113 139 166 113 139 166 113 139 166 113 139 166 113 139 166 113 139 166 113 139 166 113 139 166 113 139 166 113 139 166 113 139 166 113 139 166 113 139 166 113 139 166 113 139 166 113 139 166 113 139 166 113 139 166 113 139 166 113 139 166 113 139 166 113 139 166 113 139 166 113 139 166 113 139 166 113 139 166 113 139 166 113 139 166 113 139 166 113 139 166 113 139 166 113 139 166 113 139 166 113 139 166 113 139 166 113 139 166 113 139 166 113 139 166 113 139 166 113 139 166 113 139 166 113 139 166 113 139 166 113 139 166 113 139 166 113 139 166 113 139 166 113 139 166 113 139 166 113 139 166 113 139 166 113 139 166 113 139 166 113 139 166 113 139 166 113 139 166 113 139 166 113 139 166 113 139 166 113 139 166 113 139 166 113 139 166 113 139 166 113 139 166 113 139 166 113 139 166 113 139 166 113 139 166 113 139 166 113 139 166 113 139 166 113 139 166 113 139 166 113 139 166 113 139 166 113 139 166 113 139 166 113 139 166 113 139 166 113 139 166 113 139 166 113 139 166 113 139 166 113 139 166 113 139 166 113 139 166 113 139 166 113 139 166 113 139 166 113 139 166 113 139 166 113 139 166 113 139 166 113 139 166
113 139 166 113 139 166 113 139 166 113 139 166 113 139 166 113 139 166 113 139 166 113 139 166 113 139 166 113 139 166 113 139 166 113 139 166 113 139 166 113 139 166 113 139 166 113 139 166 113 139 166 113 139 166 113 139 166 113 139 166 113 139 166 113 139 166 113 139 166 113 139 166 113 139 166 113 139 166 113 139 166 113 139 166 113 139 166 113 139 166 113 139 166 113 139 166 113 139 166 113 139 166 113 139 166 113 139 166 113 139 166 113 139 166 113 139 166 113 139 166 113 139 166 113 139 166 113 139 166 113 139 166 113 139 166 113 139 166 113 139 166 113 139 166 113 139 166 113 139 166 113 139 166 113 139 166 113 139 166 113 139 166 113 139 166 113 139 166 113 139 166 113 139 166 113 139 166 113 139 166 113 139 166 113 139 166 113 139 166 113 139 166 113 139 166 113 139 166 113 139 166 113 139 166 113 139 166 113 139 166 113 139 166 113 139 166 113 139 166 113 139 166 113 139 166 113 139 166 113 139 166 113 139 166 113 139 166 113 139 166 113 139 166 113 139 166 113 139 166 113 139 166 113 139 166 113 139 166 113 139 166 113 139 166 113 139 166 113 139 166 113 139 166 113 139 166 113 139 166 113 139 166 113 139 166 113 139 166 113 139 166 113 139 166 113 139 166 113 139 166 113 139 166 113 139 166 113 139 166 113 139 166 113 139 166 113 139 166 113 139 166 113 139 166 113 139 166 113 139 166 113 139 166 113 139 166 113 139 166 113 139 166 113 139 166 113 139 166 113 139 166 113 139 166 113 139 166 113 139 166 113 139 166 113 139 166 113 139 166 113 139 166 113 139 166 113 139 166 113 139 166 113 139 166 113 139 166 113 139 166 113 139 166 113 139 166 113 139 166 113 139 166 113 139 166 113 139 166 113 139 166 113 139 166 113 139 166 113 139 166 113 139 166 113 139 166 113 139 166 113 139 166 113 139 166 113 139 166 113 139 166 113 139 166 113 139 166 113 139 166 113 139 166 113 139 166 113 139 166 113 139 166 113 139 166 113 139 166 113 139 166 113 139 166 113 139 166 113 139 166 113 139 166 113 139 166 113 139 166 113 139 166 113 139 166 113 139 166 113 139 166 113 139 166 113 139 166 113 139 166 113 139 166 113 139 166 113 139 166 113 139 166 113 139 166 113 139 166 113 139 166 113 139 166 113 139 166 113 139 166 113 139 166 113 139 166 113 139 166 113 139 166 113 139 166 113 139 166 113 139 166 113 139 166 113 139 166 113 139 166 113 139 166 113 139 166 113 139 166 113 139 166 113 139 166 113 139 166 113 139 166 113 139 166 113 139 166 113 139 166 113 139 166 113 139 166 113 139 166 113 139 166 113 139 166 113 139 166 113 139 166 113 139 166 113 139 166 113 139 166 113 139 166 113 139 166 113 139 166 113 139 166 113 139 166 113 139 166 113 139 166 113 139 166 113 139 166 113 139 166 113 139 166 113 139 166 113 139 166 113 139 166 113 139 166 113 139 166 113 139 166 113 139 166 113 139 166 113 139 166 113 139 166 113 139 166 113 139 166 113 139 166 113 139 166 113 139 166 113 139 166 113 139 166 113 139 166 113 139 166
113 139 166 113 139 166 113 139 166 113 139 166 113 139 166 113 139 166 113 139 166 113 139 166 113 139 166 113 139 166 113 139 166 113 139 166 113 139 166 113 139 166 113 139 166 113 139 166 113 139 166 113 139 166 113 139 166 113 139 166 113 139 166 113 139 166 113 139 166 113 139 166 113 139 166 113 139 166 113 139 166 113 139 166 113 139 166 113 139 166 113 139 166 113 139 166 113 139 166 113 139 166 113 139 166 113 139 166 113 139 166 113 139 166 113 139 166 113 139 166 113 139 166 113 139 166 113 139 166 113 139 166 113 139 166 113 139 166 113 139 166 113 139 166 113 139 166 113 139 166 113 139 166 113 139 166 113 139 166 113 139 166 113 139 166 113 139 166 113 139 166 113 139 166 113 139 166 113 139 166 113 139 166 113 139 166 113 139 166 113 139 166 113 139 166 113 139 166 113 139 166 113 139 166 113 139 166 113 139 166 113 139 166 113 139 166 113 139 166 113 139 166 113 139 166 113 139 166 113 139 166 113 139 166 113 139 166 113 139 166 113 139 166 113 139 166 113 139 166 113 139 166 113 139 166 113 139 166 113 139 166 113 139 166 113 139 166 113 139 166 113 139 166 113 139 166 113 139 166 113 139 166 113 139 166 113 139 166 113 139 166 113 139 166 113 139 166 113 139 166 113 139 166 113 139 166 113 139 166 113 139 166 113 139 166 113 139 166 113 139 166 113 139 166 113 139 166 113 139 166 113 139 166 113 139 166 113 139 166 113 139 166 113 139 166 113 139 166 113 139 166 113 139 166 113 139 166 113 139 166 113 139 166 113 139 166 113 139 166 113 139 166 113 139 166 113 139 166 113 139 166 113 139 166 113 139 166 113 139 166 113 139 166 113 139 166 113 139 166 113 139 166 113 139 166 113 139 166 113 139 166 113 139 166 113 139 166 113 139 166 113 139 166 113 139 166 113 139 166 113 139 166 113 139 166 113 139 166 113 139 166 113 139 166 113 139 166 113 139 166 113 139 166 113 139 166 113 139 166 113 139 166 113 139 166 113 139 166 113 139 166 113 139 166 113 139 166 113 139 166 113 139 166 113 139 166 113 139 166 113 139 166 113 139 166 113 139 166 113 139 166 113 139 166 113 139 166 113 139 166 113 139 166 113 139 166 113 139 166 113 139 166 113 139 166 113 139 166 113 139 166 113 139 166 113 139 166 113 139 166 113 139 166 113 139 166 113 139 166 113 139 166 113 139 166 113 139 166 113 139 166 113 139 166 113 139 166 113 139 166 113 139 166 113 139 166 113 139 166 113 139 166 113 139 166 113 139 166 113 139 166 113 139 166 113 139 166 113 139 166 113 139 166 113 139 166 113 139 166 113 139 166 113 139 166 113 139 166 113 139 166 113 139 166 113 139 166 113 139 166 113 139 166 113 139 166 113 139 166 113 139 166 113 139 166 113 139 166 113 139 166 113 139 166 113 139 166 113 139 166 113 139 166 113 139 166 113 139 166 113 139 166 113 139 166 113 139 166 113 139 166 113 139 166 113 139 166 113 139 166 113 139 166 113 139 166 113 139 166 113 139 166 113 139 166 113 139 166 113 139 166 113 139 166 113 139 166 113 139 166
113 139 166 113 139 166 113 139 166 113 139 166 113 139 166 113 139 166 113 139 166 113 139 166 113 139 166 113 139 166 113 139 166 113 139 166 113 139 166 113 139 166 113 139 166 113 139 166 113 139 166 113 139 166 113 139 166 113 139 166 113 139 166 113 139 166 113 139 166 113 139 166 113 139 166 113 139 166 113 139 166 113 139 166 113 139 166 113 139 166 113 139 166 113 139 166 113 139 166 113 139 166 113 139 166 113 139 166 113 139 166 113 139 166 113 139 166 113 139 166 113 139 166 113 139 166 113 139 166 113 139 166 113 139 166 113 139 166 113 139 166 113 139 166 113 139 166 113 139 166 113 139 166 113 139 166 113 139 166 113 139 166 113 139 166 113 139 166 113 139 166 113 139 166 113 139 166 113 139 166 113 139 166 113 139 166 113 139 166 113 139 166 113 139 166 113 139 166 113 139 166 113 139 166 113 139 166 113 139 166 113 139 166 113 139 166 113 139 166 113 139 166 113 139 166 113 139 166 113 139 166 113 139 166 113 139 166 113 139 166 113 139 166 113 139 166 113 139 166 113 139 166 113 139 166 113 139 166 113 139 166 113 139 166 113 139 166 113 139 166 113 139 166 113 139 166 113 139 166 113 139 166 113 139 166 113 139 166 113 139 166 113 139 166 113 139 166 113 139 166 113 139 166 113 139 166 113 139 166 113 139 166 113 139 166 113 139 166 113 139 166 113 139 166 113 139 166 113 139 166 113 139 166 113 139 166 113 139 166 113 139 166 113 139 166 113 139 166 113 139 166 113 139 166 113 139 166 113 139 166 113 139 166 113 139 166 113 139 166 113 139 166 113 139 166 113 139 166 113 139 166 113 139 166 113 139 166 113 139 166 113 139 166 113 139 166 113 139 166 113 139 166 113 139 166 113 139 166 113 139 166 113 139 166 113 139 166 113 139 166 113 139 166 113 139 166 113 139 166 113 139 166 113 139 166 113 139 166 113 139 166 113 139 166 113 139 166 113 139 166 113 139 166 113 139 166 113 139 166 113 139 166 113 139 166 113 139 166 113 139 166 113 139 166 113 139 166 113 139 166 113 139 166 113 139 166 113 139 166 113 139 166 113 139 166 113 139 166 113 139 166 113 139 166 113 139 166 113 139 166 113 139 166 113 139 166 113 139 166 113 139 166 113 139 166 113 139 166 113 139 166 113 139 166 113 139 166 113 139 166 113 139 166 113 139 166 113 139 166 113 139 166 113 139 166 113 139 166 113 139 166 113 139 166 113 139 166 113 139 166 113 139 166 113 139 166 113 139 166 113 139 166 113 139 166 113 139 166 113 139 166 113 139 166 113 139 166 113 139 166 113 139 166 113 139 166 113 139 166 113 139 166 113 139 166 113 139 166 113 139 166 113 139 166 113 139 166 113 139 166 113 139 166 113 139 166 113 139 166 113 139 166 113 139 166 113 139 166 113 139 166 113 139 166 113 139 166 113 139 166 113 139 166 113 139 166 113 139 166 113 139 166 113 139 166 113 139 166 113 139 166 113 139 166 113 139 166 113 139 166 113 139 166 113 139 166 113 139 166 113 139 166 113 139 166 113 139 166 113 139 166 113 139 166 113 139 166 113 139 166
113 139 166 113 139 166 113 139 166 113 139 166 113 139 166 113 139 166 113 139 166 113 139 166 113 139 166 113 139 166 113 139 166 113 139 166 113 139 166 113 139 166 113 139 166 113 139 166 113 139 166 113 139 166 113 139 166 113 139 166 113 139 166 113 139 166 113 139 166 113 139 166 113 139 166 113 139 166 113 139 166 113 139 166 113 139 166 113 139 166 113 139 166 113 139 166 113 139 166 113 139 166 113 139 166 113 139 166 113 139 166 113 139 166 113 139 166 113 139 166 113 139 166 113 139 166 113 139 166 113 139 166 113 139 166 113 139 166 113 139 166 113 139 166 113 139 166 113 139 166 113 139 166 113 139 166 113 139 166 113 139 166 113 139 166 113 139 166 113 139 166 113 139 166 113 139 166 113 139 166 113 139 166 113 139 166 113 139 166 113 139 166 113 139 166 113 139 166 113 139 166 113 139 166 113 139 166 113 139 166 113 139 166 113 139 166 113 139 166 113 139 166 113 139 166 113 139 166 113 139 166 113 139 166 113 139 166 113 139 166 113 139 166 113 139 166 113 139 166 113 139 166 113 139 166 113 139 166 113 139 166 113 139 166 113 139 166 113 139 166 113 139 166 113 139 166 113 139 166 113 139 166 113 139 166 113 139 166 113 139 166 113 139 166 113 139 166 113 139 166 113 139 166 113 139 166 113 139 166 113 139 166 113 139 166 113 139 166 113 139 166 113 139 166 113 139 166 113 139 166 113 139 166 113 139 166 113 139 166 113 139 166 113 139 166 113 139 166 113 139 166 113 139 166 113 139 166 113 139 166 113 139 166 113 139 166 113 139 166 113 139 166 113 139 166 113 139 166 113 139 166 113 139 166 113 139 166 113 139 166 113 139 166 113 139 166 113 139 166 113 139 166 113 139 166 113 139 166 113 139 166 113 139 166 113 139 166 113 139 166 113 139 166 113 139 166 113 139 166 113 139 166 113 139 166 113 139 166 113 139 166 113 139 166 113 139 166 113 139 166 113 139 166 113 139 166 113 139 166 113 139 166 113 139 166 113 139 166 113 139 166 113 139 166 113 139 166 113 139 166 113 139 166 113 139 166 113 139 166 113 139 166 113 139 166 113 139 166 113 139 166 113 139 166 113 139 166 113 139 166 113 139 166 113 139 166 113 139 166 113 139 166 113 139 166 113 139 166 113 139 166 113 139 166 113 139 166 113 139 166 113 139 166 113 139 166 113 139 166 113 139 166 113 139 166 113 139 166 113 139 166 113 139 166 113 139 166 113 139 166 113 139 166 113 139 166 113 139 166 113 139 166 113 139 166 113 139 166 113 139 166 113 139 166 113 139 166 113 139 166 113 139 166 113 139 166 113 139 166 113 139 166 113 139 166 113 139 166 113 139 166 113 139 166 113 139 166 113 139 166 113 139 166 113 139 166 113 139 166 113 139 166 113 139 166 113 139 166 113 139 166 113 139 166 113 139 166 113 139 166 113 139 166 113 139 166 113 139 166 113 139 166 113 139 166 113 139 166 113 139 166 113 139 166 113 139 166 113 139 166 113 139 166 113 139 166 113 139 166 113 139 166 113 139 166 113 139 166 113 139 166 113 139 166 113 139 166 113 139 166
113 139 166 113 139 166 113 139 166 113 139 166 113 139 166 113 139 166 113 139 166 113 139 166 113 139 166 113 139 166 113 139 166 113 139 166 113 139 166 113 139 166 113 139 166 113 139 166 113 139 166 113 139 166 113 139 166 113 139 166 113 139 166 113 139 166 113 139 166 113 139 166 113 139 166 113 139 166 113 139 166 113 139 166 113 139 166 113 139 166 113 139 166 113 139 166 113 139 166 113 139 166 113 139 166 113 139 166 113 139 166 113 139 166 113 139 166 113 139 166 113 139 166 113 139 166 113 139 166 113 139 166 113 139 166 113 139 166 113 139 166 113 139 166 113 139 166 113 139 166 113 139 166 113 139 166 113 139 166 113 139 166 113 139 166 113 139 166 113 139 166 113 139 166 113 139 166 113 139 166 113 139 166 113 139 166 113 139 166 113 139 166 113 139 166 113 139 166 113 139 166 113 139 166 113 139 166 113 139 166 113 139 166 113 139 166 113 139 166 113 139 166 113 139 166 113 139 166 113 139 166 113 139 166 113 139 166 113 139 166 113 139 166 113 139 166 113 139 166 113 139 166 113 139 166 113 139 166 113 139 166 113 139 166 113 139 166 113 139 166 113 139 166 113 139 166 113 139 166 113 139 166 113 139 166 113 139 166 113 139 166 113 139 166 113 139 166 113 139 166 113 139 166 113 139 166 113 139 166 113 139 166 113 139 166 113 139 166 113 139 166 113 139 166 113 139 166 113 139 166 113 139 166 113 139 166 113 139 166 113 139 166 113 139 166 113 139 166 113 139 166 113 139 166 113 139 166 113 139 166 113 139 166 113 139 166 113 139 166 113 139 166 113 139 166 113 139 166 113 139 166 113 139 166 113 139 166 113 139 166 113 139 166 113 139 166 113 139 166 113 139 166 113 139 166 113 139 166 113 139 166 113 139 166 113 139 166 113 139 166 113 139 166 113 139 166 113 139 166 113 139 166 113 139 166 113 139 166 113 139 166 113 139 166 113 139 166 113 139 166 113 139 166 113 139 166 113 139 166 113 139 166 113 139 166 113 139 166 113 139 166 113 139 166 113 139 166 113 139 166 113 139 166 113 139 166 113 139 166 113 139 166 113 139 166 113 139 166 113 139 166 113 139 166 113 139 166 113 139 166 113 139 166 113 139 166 113 139 166 113 139 166 113 139 166 113 139 166 113 139 166 113 139 166 113 139 166 113 139 166 113 139 166 113 139 166 113 139 166 113 139 166 113 139 166 113 139 166 113 139 166 113 139 166 113 139 166 113 139 166 113 139 166 113 139 166 113 139 166 113 139 166 113 139 166 113 139 166 113 139 166 113 139 166 113 139 166 113 139 166 113 139 166 113 139 166 113 139 166 113 139 166 113 139 166 113 139 166 113 139 166 113 139 166 113 139 166 113 139 166 113 139 166 113 139 166 113 139 166 113 139 166 113 139 166 113 139 166 113 139 166 113 139 166 113 139 166 113 139 166 113 139 166 113 139 166 113 139 166 113 139 166 113 139 166 113 139 166 113 139 166 113 139 166 113 139 166 113 139 166 113 139 166 113 139 166 113 139 166 113 139 166 113 139 166 113 139 166 113 139 166 113 139 166 113 139 166 113 139 166
113 139 166 113 139 166 113 139 166 113 139 166 113 139 166 113 139 166 113 139 166 113 139 166 113 139 166 113 139 166 113 139 166 113 139 166 113 139 166 113 139 166 113 139 166 113 139 166 113 139 166 113 139 166 113 139 166 113 139 166 113 139 166 113 139 166 113 139 166 113 139 166 113 139 166 113 139 166 113 139 166 113 139 166 113 139 166 113 139 166 113 139 166 113 139 166 113 139 166 113 139 166 113 139 166 113 139 166 113 139 166 113 139 166 113 139 166 113 139 166 113 139 166 113 139 166 113 139 166 113 139 166 113 139 166 113 139 166 113 139 166 113 139 166 113 139 166 113 139 166 113 139 166 113 139 166 113 139 166 113 139 166 113 139 166 113 139 166 113 139 166 113 139 166 113 139 166 113 139 166 113 139 166 113 139 166 113 139 166 113 139 166 113 139 166 113 139 166 113 139 166 113 139 166 113 139 166 113 139 166 113 139 166 113 139 166 113 139 166 113 139 166 113 139 166 113 139 166 113 139 166 113 139 166 113 139 166 113 139 166 113 139 166 113 139 166 113 139 166 113 139 166 113 139 166 113 139 166 113 139 166 113 139 166 113 139 166 113 139 166 113 139 166 113 139 166 113 139 166 113 139 166 113 139 166 113 139 166 113 139 166 113 139 166 113 139 166 113 139 166 113 139 166 113 139 166 113 139 166 113 139 166 113 139 166 113 139 166 113 139 166 113 139 166 113 139 166 113 139 166 113 139 166 113 139 166 113 139 166 113 139 166 113 139 166 113 139 166 113 139 166 113 139 166 113 139 166 113 139 166 113 139 166 113 139 166 113 139 166 113 139 166 113 139 166 113 139 166 113 139 166 113 139 166 113 139 166 113 139 166 113 139 166 113 139 166 113 139 166 113 139 166 113 139 166 113 139 166 113 139 166 113 139 166 113 139 166 113 139 166 113 139 166 113 139 166 113 139 166 113 139 166 113 139 166 113 139 166 113 139 166 113 139 166 113 139 166 113 139 166 113 139 166 113 139 166 113 139 166 113 139 166 113 139 166 113 139 166 113 139 166 113 139 166 113 139 166 113 139 166 113 139 166 113 139 166 113 139 166 113 139 166 113 139 166 113 139 166 113 139 166 113 139 166 113 139 166 113 139 166 113 139 166 113 139 166 113 139 166 113 139 166 113 139 166 113 139 166 113 139 166 113 139 166 113 139 166 113 139 166 113 139 166 113 139 166 113 139 166 113 139 166 113 139 166 113 139 166 113 139 166 113 139 166 113 139 166 113 139 166 113 139 166 113 139 166 113 139 166 113 139 166 113 139 166 113 139 166 113 139 166 113 139 166 113 139 166 113 139 166 113 139 166 113 139 166 113 139 166 113 139 166 113 139 166 113 139 166 113 139 166 113 139 166 113 139 166 113 139 166 113 139 166 113 139 166 113 139 166 113 139 166 113 139 166 113 139 166 113 139 166 113 139 166 113 139 166 113 139 166 113 139 166 113 139 166 113 139 166 113 139 166 113 139 166 113 139 166 113 139 166 113 139 166 113 139 166 113 139 166 113 139 166 113 139 166 113 139 166 113 139 166 113 139 166 113 139 166 113 139 166 113 139 166 113 139 166 113 139 166
113 139 166 113 139 166 113 139 166 113 139 166 113 139 166 113 139 166 113 139 166 113 139 166 113 139 166 113 139 166 113 139 166 113 139 166 113 139 166 113 139 166 113 139 166 113 139 166 113 139 166 113 139 166 113 139 166 113 139 166 113 139 166 113 139 166 113 139 166 113 139 166 113 139 166 113 139 166 113 139 166 113 139 166 113 139 166 113 139 166 113 139 166 113 139 166 113 139 166 113 139 166 113 139 166 113 139 166 113 139 166 113 139 166 113 139 166 113 139 166 113 139 166 113 139 166 113 139 166 113 139 166 113 139 166 113 139 166 113 139 166 113 139 166 113 139 166 113 139 166 113 139 166 113 139 166 113 139 166 113 139 166 113 139 166 113 139 166 113 139 166 113 139 166 113 139 166 113 139 166 113 139 166 113 139 166 113 139 166 113 139 166 113 139 166 113 139 166 113 139 166 113 139 166 113 139 166 113 139 166 113 139 166 113 139 166 113 139 166 113 139 166 113 139 166 113 139 166 113 139 166 113 139 166 113 139 166 113 139 166 113 139 166 113 139 166 113 139 166 113 139 166 113 139 166 113 139 166 113 139 166 113 139 166 113 139 166 113 139 166 113 139 166 113 139 166 113 139 166 113 139 166 113 139 166 113 139 166 113 139 166 113 139 166 113 139 166 113 139 166 113 139 166 113 139 166 113 139 166 113 139 166 113 139 166 113 139 166 113 139 166 113 139 166 113 139 166 113 139 166 113 139 166 113 139 166 113 139 166 113 139 166 113 139 166 113 139 166 113 139 166 113 139 166 113 139 166 113 139 166 113 139 166 113 139 166 113 139 166 113 139 166 113 139 166 113 139 166 113 139 166 113 139 166 113 139 166 113 139 166 113 139 166 113 139 166 113 139 166 113 139 166 113 139 166 113 139 166 113 139 166 113 139 166 113 139 166 113 139 166 113 139 166 113 139 166 113 139 166 113 139 166 113 139 166 113 139 166 113 139 166 113 139 166 113 139 166 113 139 166 113 139 166 113 139 166 113 139 166 113 139 166 113 139 166 113 139 166 113 139 166 113 139 166 113 139 166 113 139 166 113 139 166 113 139 166 113 139 166 113 139 166 113 139 166 113 139 166 113 139 166 113 139 166 113 139 166 113 139 166 113 139 166 113 139 166 113 139 166 113 139 166 113 139 166 113 139 166 113 139 166 113 139 166 113 139 166 113 139 166 113 139 166 113 139 166 113 139 166 113 139 166 113 139 166 113 139 166 113 139 166 113 139 166 113 139 166 113 139 166 113 139 166 113 139 166 113 139 166 113 139 166 113 139 166 113 139 166 113 139 166 113 139 166 113 139 166 113 139 166 113 139 166 113 139 166 113 139 166 113 139 166 113 139 166 113 139 166 113 139 166 113 139 166 113 139 166 113 139 166 113 139 166 113 139 166 113 139 166 113 139 166 113 139 166 113 139 166 113 139 166 113 139 166 113 139 166 113 139 166 113 139 166 113 139 166 113 139 166 113 139 166 113 139 166 113 139 166 113 139 166 113 139 166 113 139 166 113 139 166 113 139 166 113 139 166 113 139 166 113 139 166 113 139 166 113 139 166 113 139 166 113 139 166 113 139 166 113 139 166
113 139 166 113 139 166 113 139 166 113 139 166 113 139 166 113 139 166 113 139 166 113 139 166 113 139 166 113 139 166 113 139 166 113 139 166 113 139 166 113 139 166 113 139 166 113 139 166 113 139 166 113 139 166 113 139 166 113 139 166 113 139 166 113 139 166 113 139 166 113 139 166 113 139 166 113 139 166 113 139 166 113 139 166 113 139 166 113 139 166 113 139 166 113 139 166 113 139 166 113 139 166 113 139 166 113 139 166 113 139 166 113 139 166 113 139 166 113 139 166 113 139 166 113 139 166 113 139 166 113 139 166 113 139 166 113 139 166 113 139 166 113 139 166 113 139 166 113 139 166 113 139 166 113 139 166 113 139 166 113 139 166 113 139 166 113 139 166 113 139 166 113 139 166 113 139 166 113 139 166 113 139 166 113 139 166 113 139 166 113 139 166 113 139 166 113 139 166 113 139 166 113 139 166 113 139 166 113 139 166 113 139 166 113 139 166 113 139 166 113 139 166 113 139 166 113 139 166 113 139 166 113 139 166 113 139 166 113 139 166 113 139 166 113 139 166 113 139 166 113 139 166 113 139 166 113 139 166 113 139 166 113 139 166 113 139 166 113 139 166 113 139 166 113 139 166 113 139 166 113 139 166 113 139 166 113 139 166 113 139 166 113 139 166 113 139 166 113 139 166 113 139 166 113 139 166 113 139 166 113 139 166 113 139 166 113 139 166 113 139 166 113 139 166 113 139 166 113 139 166 113 139 166 113 139 166 113 139 166 113 139 166 113 139 166 113 139 166 113 139 166 113 139 166 113 139 166 113 139 166 113 139 166 113 139 166 113 139 166 113 139 166 113 139 166 113 139 166 113 139 166 113 139 166 113 139 166 113 139 166 113 139 166 113 139 166 113 139 166 113 139 166 113 139 166 113 139 166 113 139 166 113 139 166 113 139 166 113 139 166 113 139 166 113 139 166 113 139 166 113 139 166 113 139 166 113 139 166 113 139 166 113 139 166 113 139 166 113 139 166 113 139 166 113 139 166 113 139 166 113 139 166 113 139 166 113 139 166 113 139 166 113 139 166 113 139 166 113 139 166 113 139 166 113 139 166 113 139 166 113 139 166 113 139 166 113 139 166 113 139 166 113 139 166 113 139 166 113 139 166 113 139 166 113 139 166 113 139 166 113 139 166 113 139 166 113 139 166 113 139 166 113 139 166 113 139 166 113 139 166 113 139 166 113 139 166 113 139 166 113 139 166 113 139 166 113 139 166 113 139 166 113 139 166 113 139 166 113 139 166 113 139 166 113 139 166 113 139 166 113 139 166 113 139 166 113 139 166 113 139 166 113 139 166 113 139 166 113 139 166 113 139 166 113 139 166 113 139 166 113 139 166 113 139 166 113 139 166 113 139 166 113 139 166 113 139 166 113 139 166 113 139 166 113 139 166 113 139 166 113 139 166 113 139 166 113 139 166 113 139 166 113 139 166 113 139 166 113 139 166 113 139 166 113 139 166 113 139 166 113 139 166 113 139 166 113 139 166 113 139 166 113 139 166 113 139 166 113 139 166 113 139 166 113 139 166 113 139 166 113 139 166 113 139 166 113 139 166 113 139 166 113 139 166 113 139 166 113 139 166
113 139 166 113 139 166 113 139 166 113 139 166 113 139 166 113 139 166 113 139 166 113 139 166 113 139 166 113 139 166 113 139 166 113 139 166 113 139 166 113 139 166 113 139 166 113 139 166 113 139 166 113 139 166 113 139 166 113 139 166 113 139 166 113 139 166 113 139 166 113 139 166 113 139 166 113 139 166 113 139 166 113 139 166 113 139 166 113 139 166 113 139 166 113 139 166 113 139 166 113 139 166 113 139 166 113 139 166 113 139 166 113 139 166 113 139 166 113 139 166 113 139 166 113 139 166 113 139 166 113 139 166 113 139 166 113 139 166 113 139 166 113 139 166 113 139 166 113 139 166 113 139 166 113 139 166 113 139 166 113 139 166 113 139 166 113 139 166 113 139 166 113 139 166 113 139 166 113 139 166 113 139 166 113 139 166 113 139 166 113 139 166 113 139 166 113 139 166 113 139 166 113 139 166 113 139 166 113 139 166 113 139 166 113 139 166 113 139 166 113 139 166 113 139 166 113 139 166 113 139 166 113 139 166 113 139 166 113 139 166 113 139 166 113 139 166 113 139 166 113 139 166 113 139 166 113 139 166 113 139 166 113 139 166 113 139 166 113 139 166 113 139 166 113 139 166 113 139 166 113 139 166 113 139 166 113 139 166 113 139 166 113 139 166 113 139 166 113 139 166 113 139 166 113 139 166 113 139 166 113 139 166 113 139 166 113 139 166 113 139 166 113 139 166 113 139 166 113 139 166 113 139 166 113 139 166 113 139 166 113 139 166 113 139 166 113 139 166 113 139 166 113 139 166 113 139 166 113 139 166 113 139 166 113 139 166 113 139 166 113 139 166 113 139 166 113 139 166 113 139 166 113 139 166 113 139 166 113 139 166 113 139 166 113 139 166 113 139 166 113 139 166 113 139 166 113 139 166 113 139 166 113 139 166 113 139 166 113 139 166 113 139 166 113 139 166 113 139 166 113 139 166 113 139 166 113 139 166 113 139 166 113 139 166 113 139 166 113 139 166 113 139 166 113 139 166 113 139 166 113 139 166 113 139 166 113 139 166 113 139 166 113 139 166 113 139 166 113 139 166 113 139 166 113 139 166 113 139 166 113 139 166 113 139 166 113 139 166 113 139 166 113 139 166 113 139 166 113 139 166 113 139 166 113 139 166 113 139 166 113 139 166 113 139 166 113 139 166 113 139 166 113 139 166 113 139 166 113 139 166 113 139 166 113 139 166 113 139 166 113 139 166 113 139 166 113 139 166 113 139 166 113 139 166 113 139 166 113 139 166 113 139 166 113 139 166 113 139 166 113 139 166 113 139 166 113 139 166 113 139 166 113 139 166 113 139 166 113 139 166 113 139 166 113 139 166 113 139 166 113 139 166 113 139 166 113 139 166 113 139 166 113 139 166 113 139 166 113 139 166 113 139 166 113 139 166 113 139 166 113 139 166 113 139 166 113 139 166 113 139 166 113 139 166 113 139 166 113 139 166 113 139 166 113 139 166 113 139 166 113 139 166 113 139 166 113 139 166 113 139 166 113 139 166 113 139 166 113 139 166 113 139 166 113 139 166 113 139 166 113 139 166 113 139 166 113 139 166 113 139 166 113 139 166 113 139 166 113 139 166
113 139 166 113 139 166 113 139 166 113 139 166 113 139 166 113 139 166 113 139 166 113 139 166 113 139 166 113 139 166 113 139 166 113 139 166 113 139 166 113 139 166 113 139 166 113 139 166 113 139 166 113 139 166 113 139 166 113 139 166 113 139 166 113 139 166 113 139 166 113 139 166 113 139 166 113 139 166 113 139 166 113 139 166 113 139 166 113 139 166 113 139 166 113 139 166 113 139 166 113 139 166 113 139 166 113 139 166 113 139 166 113 139 166 113 139 166 113 139 166 113 139 166 113 139 166 113 139 166 113 139 166 113 139 166 113 139 166 113 139 166 113 139 166 113 139 166 113 139 166 113 139 166 113 139 166 113 139 166 113 139 166 113 139 166 113 139 166 113 139 166 113 139 166 113 139 166 113 139 166 113 139 166 113 139 166 113 139 166 113 139 166 113 139 166 113 139 166 113 139 166 113 139 166 113 139 166 113 139 166 113 139 166 113 139 166 113 139 166 113 139 166 113 139 166 113 139 166 113 139 166 113 139 166 113 139 166 113 139 166 113 139 166 113 139 166 113 139 166 113 139 166 113 139 166 113 139 166 113 139 166 113 139 166 113 139 166 113 139 166 113 139 166 113 139 166 113 139 166 113 139 166 113 139 166 113 139 166 113 139 166 113 139 166 113 139 166 113 139 166 113 139 166 113 139 166 113 139 166 113 139 166 113 139 166 113 139 166 113 139 166 113 139 166 113 139 166 113 139 166 113 139 166 113 139 166 113 139 166 113 139 166 113 139 166 113 139 166 113 139 166 113 139 166 113 139 166 113 139 166 113 139 166 113 139 166 113 139 166 113 139 166 113 139 166 113 139 166 113 139 166 113 139 166 113 139 166 113 139 166 113 139 166 113 139 166 113 139 166 113 139 166 113 139 166 113 139 166 113 139 166 113 139 166 113 139 166 113 139 166 113 139 166 113 139 166 113 139 166 113 139 166 113 139 166 113 139 166 113 139 166 113 139 166 113 139 166 113 139 166 113 139 166 113 139 166 113 139 166 113 139 166 113 139 166 113 139 166 113 139 166 113 139 166 113 139 166 113 139 166 113 139 166 113 139 166 113 139 166 113 139 166 113 139 166 113 139 166 113 139 166 113 139 166 113 139 166 113 139 166 113 139 166 113 139 166 113 139 166 113 139 166 113 139 166 113 139 166 113 139 166 113 139 166 113 139 166 113 139 166 113 139 166 113 139 166 113 139 166 113 139 166 113 139 166 113 139 166 113 139 166 113 139 166 113 139 166 113 139 166 113 139 166 113 139 166 113 139 166 113 139 166 113 139 166 113 139 166 113 139 166 113 139 166 113 139 166 113 139 166 113 139 166 113 139 166 113 139 166 113 139 166 113 139 166 113 139 166 113 139 166 113 139 166 113 139 166 113 139 166 113 139 166 113 139 166 113 139 166 113 139 166 113 139 166 113 139 166 113 139 166 113 139 166 113 139 166 113 139 166 113 139 166 113 139 166 113 139 166 113 139 166 113 139 166 113 139 166 113 139 166 113 139 166 113 139 166 113 139 166 113 139 166 113 139 166 113 139 166 113 139 166 113 139 166 113 139 166 113 139 166 113 139 166 113 139 166 113 139 166
113 139 166 113 139 166 113 139 166 113 139 166 113 139 166 113 139 166 113 139 166 113 139 166 113 139 166 113 139 166 113 139 166 113 139 166 113 139 166 113 139 166 113 139 166 113 139 166 113 139 166 113 139 166 113 139 166 113 139 166 113 139 166 113 139 166 113 139 166 113 139 166 113 139 166 113 139 166 113 139 166 113 139 166 113 139 166 113 139 166 113 139 166 113 139 166 113 139 166 113 139 166 113 139 166 113 139 166 113 139 166 113 139 166 113 139 166 113 139 166 113 139 166 113 139 166 113 139 166 113 139 166 113 139 166 113 139 166 113 139 166 113 139 166 113 139 166 113 139 166 113 139 166 113 139 166 113 139 166 113 139 166 113 139 166 113 139 166 113 139 166 113 139 166 113 139 166 113 139 166 113 139 166 113 139 166 113 139 166 113 139 166 113 139 166 113 139 166 113 139 166 113 139 166 113 139 166 113 139 166 113 139 166 113 139 166 113 139 166 113 139 166 113 139 166 113 139 166 113 139 166 113 139 166 113 139 166 113 139 166 113 139 166 113 139 166 113 139 166 113 139 166 113 139 166 113 139 166 113 139 166 113 139 166 113 139 166 113 139 166 113 139 166 113 139 166 113 139 166 113 139 166 113 139 166 113 139 166 113 139 166 113 139 166 113 139 166 113 139 166 113 139 166 113 139 166 113 139 166 113 139 166 113 139 166 113 139 166 113 139 166 113 139 166 113 139 166 113 139 166 113 139 166 113 139 166 113 139 166 113 139 166 113 139 166 113 139 166 113 139 166 113 139 166 113 139 166 113 139 166 113 139 166 113 139 166 113 139 166 113 139 166 113 139 166 113 139 166 113 139 166 113 139 166 113 139 166 113 139 166 113 139 166 113 139 166 113 139 166 113 139 166 113 139 166 113 139 166 113 139 166 113 139 166 113 139 166 113 139 166 113 139 166 113 139 166 113 139 166 113 139 166 113 139 166 113 139 166 113 139 166 113 139 166 113 139 166 113 139 166 113 139 166 113 139 166 113 139 166 113 139 166 113 139 166 113 139 166 113 139 166 113 139 166 113 139 166 113 139 166 113 139 166 113 139 166 113 139 166 113 139 166 113 139 166 113 139 166 113 139 166 113 139 166 113 139 166 113 139 166 113 139 166 113 139 166 113 139 166 113 139 166 113 139 166 113 139 166 113 139 166 113 139 166 113 139 166 113 139 166 113 139 166 113 139 166 113 139 166 113 139 166 113 139 166 113 139 166 113 139 166 113 139 166 113 139 166 113 139 166 113 139 166 113 139 166 113 139 166 113 139 166 113 139 166 113 139 166 113 139 166 113 139 166 113 139 166 113 139 166 113 139 166 113 139 166 113 139 166 113 139 166 113 139 166 113 139 166 113 139 166 113 139 166 113 139 166 113 139 166 113 139 166 113 139 166 113 139 166 113 139 166 113 139 166 113 139 166 113 139 166 113 139 166 113 139 166 113 139 166 113 139 166 113 139 166 113 139 166 113 139 166 113 139 166 113 139 166 113 139 166 113 139 166 113 139 166 113 139 166 113 139 166 113 139 166 113 139 166 113 139 166 113 139 166 113 139 166 113 139 166 113 139 166 113 139 166 113 139 166
113 139 166 113 139 166 113 139 166 113 139 166 113 139 166 113 139 166 113 139 166 113 139 166 113 139 166 113 139 166 113 139 166 113 139 166 113 139 166 113 139 166 113 139 166 113 139 166 113 139 166 113 139 166 113 139 166 113 139 166 113 139 166 113 139 166 113 139 166 113 139 166 113 139 166 113 139 166 113 139 166 113 139 166 113 139 166 113 139 166 113 139 166 113 139 166 113 139 166 113 139 166 113 139 166 113 139 166 113 139 166 113 139 166 113 139 166 113 139 166 113 139 166 113 139 166 113 139 166 113 139 166 113 139 166 113 139 166 113 139 166 113 139 166 113 139 166 113 139 166 113 139 166 113 139 166 113 139 166 113 139 166 113 139 166 113 139 166 113 139 166 113 139 166 113 139 166 113 139 166 113 139 166 113 139 166 113 139 166 113 139 166 113 139 166 113 139 166 113 139 166 113 139 166 113 139 166 113 139 166 113 139 166 113 139 166 113 139 166 113 139 166 113 139 166 113 139 166 113 139 166 113 139 166 113 139 166 113 139 166 113 139 166 113 139 166 113 139 166 113 139 166 113 139 166 113 139 166 113 139 166 113 139 166 113 139 166 113 139 166 113 139 166 113 139 166 113 139 166 113 139 166 113 139 166 113 139 166 113 139 166 113 139 166 113 139 166 113 139 166 113 139 166 113 139 166 113 139 166 113 139 166 113 139 166 113 139 166 113 139 166 113 139 166 113 139 166 113 139 166 113 139 166 113 139 166 113 139 166 113 139 166 113 139 166 113 139 166 113 139 166 113 139 166 113 139 166 113 139 166 113 139 166 113 139 166 113 139 166 113 139 166 113 139 166 113 139 166 113 139 166 113 139 166 113 139 166 113 139 166 113 139 166 113 139 166 113 139 166 113 139 166 113 139 166 113 139 166 113 139 166 113 139 166 113 139 166 113 139 166 113 139 166 113 139 166 113 139 166 113 139 166 113 139 166 113 139 166 113 139 166 113 139 166 113 139 166 113 139 166 113 139 166 113 139 166 113 139 166 113 139 166 113 139 166 113 139 166 113 139 166 113 139 166 113 139 166 113 139 166 113 139 166 113 139 166 113 139 166 113 139 166 113 139 166 113 139 166 113 139 166 113 139 166 113 139 166 113 139 166 113 139 166 113 139 166 113 139 166 113 139 166 113 139 166 113 139 166 113 139 166 113 139 166 113 139 166 113 139 166 113 139 166 113 139 166 113 139 166 113 139 166 113 139 166 113 139 166 113 139 166 113 139 166 113 139 166 113 139 166 113 139 166 113 139 166 113 139 166 113 139 166 113 139 166 113 139 166 113 139 166 113 139 166 113 139 166 113 139 166 113 139 166 113 139 166 113 139 166 113 139 166 113 139 166 113 139 166 113 139 166 113 139 166 113 139 166 113 139 166 113 139 166 113 139 166 113 139 166 113 139 166 113 139 166 113 139 166 113 139 166 113 139 166 113 139 166 113 139 166 113 139 166 113 139 166 113 139 166 113 139 166 113 139 166 113 139 166 113 139 166 113 139 166 113 139 166 113 139 166 113 139 166 113 139 166 113 139 166 113 139 166 113 139 166 113 139 166 113 139 166 113 139 166 113 139 166 113 139 166
113 139 166 113 139 166 113 139 166 113 139 166 113 139 166 113 139 166 113 139 166 113 139 166 113 139 166 113 139 166 113 139 166 113 139 166 113 139 166 113 139 166 113 139 166 113 139 166 113 139 166 113 139 166 113 139 166 113 139 166 113 139 166 113 139 166 113 139 166 113 139 166 113 139 166 113 139 166 113 139 166 113 139 166 113 139 166 113 139 166 113 139 166 113 139 166 113 139 166 113 139 166 113 139 166 113 139 166 113 139 166 113 139 166 113 139 166 113 139 166 113 139 166 113 139 166 113 139 166 113 139 166 113 139 166 113 139 166 113 139 166 113 139 166 113 139 166 113 139 166 113 139 166 113 139 166 113 139 166 113 139 166 113 139 166 113 139 166 113 139 166 113 139 166 113 139 166 113 139 166 113 139 166 113 139 166 113 139 166 113 139 166 113 139 166 113 139 166 113 139 166 113 139 166 113 139 166 113 139 166 113 139 166 113 139 166 113 139 166 113 139 166 113 139 166 113 139 166 113 139 166 113 139 166 113 139 166 113 139 166 113 139 166 113 139 166 113 139 166 113 139 166 113 139 166 113 139 166 113 139 166 113 139 166 113 139 166 113 139 166 113 139 166 113 139 166 113 139 166 113 139 166 113 139 166 113 139 166 113 139 166 113 139 166 113 139 166 113 139 166 113 139 166 113 139 166 113 139 166 113 139 166 113 139 166 113 139 166 113 139 166 113 139 166 113 139 166 113 139 166 113 139 166 113 139 166 113 139 166 113 139 166 113 139 166 113 139 166 113 139 166 113 139 166 113 139 166 113 139 166 113 139 166 113 139 166 113 139 166 113 139 166 113 139 166 113 139 166 113 139 166 113 139 166 113 139 166 113 139 166 113 139 166 113 139 166 113 139 166 113 139 166 113 139 166 113 139 166 113 139 166 113 139 166 113 139 166 113 139 166 113 139 166 113 139 166 113 139 166 113 139 166 113 139 166 113 139 166 113 139 166 113 139 166 113 139 166 113 139 166 113 139 166 113 139 166 113 139 166 113 139 166 113 139 166 113 139 166 113 139 166 113 139 166 113 139 166 113 139 166 113 139 166 113 139 166 113 139 166 113 139 166 113 139 166 113 139 166 113 139 166 113 139 166 113 139 166 113 139 166 113 139 166 113 139 166 113 139 166 113 139 166 113 139 166 113 139 166 113 139 166 113 139 166 113 139 166 113 139 166 113 139 166 113 139 166 113 139 166 113 139 166 113 139 166 113 139 166 113 139 166 113 139 166 113 139 166 113 139 166 113 139 166 113 139 166 113 139 166 113 139 166 113 139 166 113 139 166 113 139 166 113 139 166 113 139 166 113 139 166 113 139 166 113 139 166 113 139 166 113 139 166 113 139 166 113 139 166 113 139 166 113 139 166 113 139 166 113 139 166 113 139 166 113 139 166 113 139 166 113 139 166 113 139 166 113 139 166 113 139 166 113 139 166 113 139 166 113 139 166 113 139 166 113 139 166 113 139 166 113 139 166 113 139 166 113 139 166 113 139 166 113 139 166 113 139 166 113 139 166 113 139 166 113 139 166 113 139 166 113 139 166 113 139 166 113 139 166 113 139 166 113 139 166 113 139 166 113 139 166
113 139 166 113 139 166 113 139 166 113 139 166 113 139 166 113 139 166 113 139 166 113 139 166 113 139 166 113 139 166 113 139 166 113 139 166 113 139 166 113 139 166 113 139 166 113 139 166 113 139 166 113 139 166 113 139 166 113 139 166 113 139 166 113 139 166 113 139 166 113 139 166 113 139 166 113 139 166 113 139 166 113 139 166 113 139 166 113 139 166 113 139 166 113 139 166 113 139 166 113 139 166 113 139 166 113 139 166 113 139 166 113 139 166 113 139 166 113 139 166 113 139 166 113 139 166 113 139 166 113 139 166 113 139 166 113 139 166 113 139 166 113 139 166 113 139 166 113 139 166 113 139 166 113 139 166 113 139 166 113 139 166 113 139 166 113 139 166 113 139 166 113 139 166 113 139 166 113 139 166 113 139 166 113 139 166 113 139 166 113 139 166 113 139 166 113 139 166 113 139 166 113 139 166 113 139 166 113 139 166 113 139 166 113 139 166 113 139 166 113 139 166 113 139 166 113 139 166 113 139 166 113 139 166 113 139 166 113 139 166 113 139 166 113 139 166 113 139 166 113 139 166 113 139 166 113 139 166 113 139 166 113 139 166 113 139 166 113 139 166 113 139 166 113 139 166 113 139 166 113 139 166 113 139 166 113 139 166 113 139 166 113 139 166 113 139 166 113 139 166 113 139 166 113 139 166 113 139 166 113 139 166 113 139 166 113 139 166 113 139 166 113 139 166 113 139 166 113 139 166 113 139 166 113 139 166 113 139 166 113 139 166 113 139 166 113 139 166 113 139 166 113 139 166 113 139 166 113 139 166 113 139 166 113 139 166 113 139 166 113 139 166 113 139 166 113 139 166 113 139 166 113 139 166 113 139 166 113 139 166 113 139 166 113 139 166 113 139 166 113 139 166 113 139 166 113 139 166 113 139 166 113 139 166 113 139 166 113 139 166 113 139 166 113 139 166 113 139 166 113 139 166 113 139 166 113 139 166 113 139 166 113 139 166 113 139 166 113 139 166 113 139 166 113 139 166 113 139 166 113 139 166 113 139 166 113 139 166 113 139 166 113 139 166 113 139 166 113 139 166 113 139 166 113 139 166 113 139 166 113 139 166 113 139 166 113 139 166 113 139 166 113 139 166 113 139 166 113 139 166 113 139 166 113 139 166 113 139 166 113 139 166 113 139 166 113 139 166 113 139 166 113 139 166 113 139 166 113 139 166 113 139 166 113 139 166 113 139 166 113 139 166 113 139 166 113 139 166 113 139 166 113 139 166 113 139 166 113 139 166 113 139 166 113 139 166 113 139 166 113 139 166 113 139 166 113 139 166 113 139 166 113 139 166 113 139 166 113 139 166 113 139 166 113 139 166 113 139 166 113 139 166 113 139 166 113 139 166 113 139 166 113 139 166 113 139 166 113 139 166 113 139 166 113 139 166 113 139 166 113 139 166 113 139 166 113 139 166 113 139 166 113 139 166 113 139 166 113 139 166 113 139 166 113 139 166 113 139 166 113 139 166 113 139 166 113 139 166 113 139 166 113 139 166 113 139 166 113 139 166 113 139 166 113 139 166 113 139 166 113 139 166 113 139 166 113 139 166 113 139 166 113 139 166 113 139 166 113 139 166
113 139 166 113 139 166 113 139 166 113 139 166 113 139 166 113 139 166 113 139 166 113 139 166 113 139 166 113 139 166 113 139 166 113 139 166 113 139 166 113 139 166 113 139 166 113 139 166 113 139 166 113 139 166 113 139 166 113 139 166 113 139 166 113 139 166 113 139 166 113 139 166 113 139 166 113 139 166 113 139 166 113 139 166 113 139 166 113 139 166 113 139 166 113 139 166 113 139 166 113 139 166 113 139 166 113 139 166 113 139 166 113 139 166 113 139 166 113 139 166 113 139 166 113 139 166 113 139 166 113 139 166 113 139 166 113 139 166 113 139 166 113 139 166 113 139 166 113 139 166 113 139 166 113 139 166 113 139 166 113 139 166 113 139 166 113 139 166 113 139 166 113 139 166 113 139 166 113 139 166 113 139 166 113 139 166 113 139 166 113 139 166 113 139 166 113 139 166 113 139 166 113 139 166 113 139 166 113 139 166 113 139 166 113 139 166 113 139 166 113 139 166 113 139 166 113 139 166 113 139 166 113 139 166 113 139 166 113 139 166 113 139 166 113 139 166 113 139 166 113 139 166 113 139 166 113 139 166 113 139 166 113 139 166 113 139 166 113 139 166 113 139 166 113 139 166 113 139 166 113 139 166 113 139 166 113 139 166 113 139 166 113 139 166 113 139 166 113 139 166 113 139 166 113 139 166 113 139 166 113 139 166 113 139 166 113 139 166 113 139 166 113 139 166 113 139 166 113 139 166 113 139 166 113 139 166 113 139 166 113 139 166 113 139 166 113 139 166 113 139 166 113 139 166 113 139 166 113 139 166 113 139 166 113 139 166 113 139 166 113 139 166 113 139 166 113 139 166 113 139 166 113 139 166 113 139 166 113 139 166 113 139 166 113 139 166 113 139 166 113 139 166 113 139 166 113 139 166 113 139 166 113 139 166 113 139 166 113 139 166 113 139 166 113 139 166 113 139 166 113 139 166 113 139 166 113 139 166 113 139 166 113 139 166 113 139 166 113 139 166 113 139 166 113 139 166 113 139 166 113 139 166 113 139 166 113 139 166 113 139 166 113 139 166 113 139 166 113 139 166 113 139 166 113 139 166 113 139 166 113 139 166 113 139 166 113 139 166 113 139 166 113 139 166 113 139 166 113 139 166 113 139 166 113 139 166 113 139 166 113 139 166 113 139 166 113 139 166 113 139 166 113 139 166 113 139 166 113 139 166 113 139 166 113 139 166 113 139 166 113 139 166 113 139 166 113 139 166 113 139 166 113 139 166 113 139 166 113 139 166 113 139 166 113 139 166 113 139 166 113 139 166 113 139 166 113 139 166 113 139 166 113 139 166 113 139 166 113 139 166 113 139 166 113 139 166 113 139 166 113 139 166 113 139 166 113 139 166 113 139 166 113 139 166 113 139 166 113 139 166 113 139 166 113 139 166 113 139 166 113 139 166 113 139 166 113 139 166 113 139 166 113 139 166 113 139 166 113 139 166 113 139 166 113 139 166 113 139 166 113 139 166 113 139 166 113 139 166 113 139 166 113 139 166 113 139 166 113 139 166 113 139 166 113 139 166 113 139 166 113 139 166 113 139 166 113 139 166 113 139 166 113 139 166 113 139 166 113 139 166
113 139 166 113 139 166 113 139 166 113 139 166 113 139 166 113 139 166 113 139 166 113 139 166 113 139 166 113 139 166 113 139 166 113 139 166 113 139 166 113 139 166 113 139 166 113 139 166 113 139 166 113 139 166 113 139 166 113 139 166 113 139 166 113 139 166 113 139 166 113 139 166 113 139 166 113 139 166 113 139 166 113 139 166 113 139 166 113 139 166 113 139 166 113 139 166 113 139 166 113 139 166 113 139 166 113 139 166 113 139 166 113 139 166 113 139 166 113 139 166 113 139 166 113 139 166 113 139 166 113 139 166 113 139 166 113 139 166 113 139 166 113 139 166 113 139 166 113 139 166 113 139 166 113 139 166 113 139 166 113 139 166 113 139 166 113 139 166 113 139 166 113 139 166 113 139 166 113 139 166 113 139 166 113 139 166 113 139 166 113 139 166 113 139 166 113 139 166 113 139 166 113 139 166 113 139 166 113 139 166 113 139 166 113 139 166 113 139 166 113 139 166 113 139 166 113 139 166 113 139 166 113 139 166 113 139 166 113 139 166 113 139 166 113 139 166 113 139 166 113 139 166 113 139 166 113 139 166 113 139 166 113 139 166 113 139 166 113 139 166 113 139 166 113 139 166 113 139 166 113 139 166 113 139 166 113 139 166 113 139 166 113 139 166 113 139 166 113 139 166 113 139 166 113 139 166 113 139 166 113 139 166 113 139 166 113 139 166 113 139 166 113 139 166 113 139 166 113 139 166 113 139 166 113 139 166 113 139 166 113 139 166 113 139 166 113 139 166 113 139 166 113 139 166 113 139 166 113 139 166 113 139 166 113 139 166 113 139 166 113 139 166 113 139 166 113 139 166 113 139 166 113 139 166 113 139 166 113 139 166 113 139 166 113 139 166 113 139 166 113 139 166 113 139 166 113 139 166 113 139 166 113 139 166 113 139 166 113 139 166 113 139 166 113 139 166 113 139 166 113 139 166 113 139 166 113 139 166 113 139 166 113 139 166 113 139 166 113 139 166 113 139 166 113 139 166 113 139 166 113 139 166 113 139 166 113 139 166 113 139 166 113 139 166 113 139 166 113 139 166 113 139 166 113 139 166 113 139 166 113 139 166 113 139 166 113 139 166 113 139 166 113 139 166 113 139 166 113 139 166 113 139 166 113 139 166 113 139 166 113 139 166 113 139 166 113 139 166 113 139 166 113 139 166 113 139 166 113 139 166 113 139 166 113 139 166 113 139 166 113 139 166 113 139 166 113 139 166 113 139 166 113 139 166 113 139 166 113 139 166 113 139 166 113 139 166 113 139 166 113 139 166 113 139 166 113 139 166 113 139 166 113 139 166 113 139 166 113 139 166 113 139 166 113 139 166 113 139 166 113 139 166 113 139 166 113 139 166 113 139 166 113 139 166 113 139 166 113 139 166 113 139 166 113 139 166 113 139 166 113 139 166 113 139 166 113 139 166 113 139 166 113 139 166 113 139 166 113 139 166 113 139 166 113 139 166 113 139 166 113 139 166 113 139 166 113 139 166 113 139 166 113 139 166 113 139 166 113 139 166 113 139 166 113 139 166 113 139 166 113 139 166 113 139 166 113 139 166 113 139 166 113 139 166 113 139 166 113 139 166
113 139 166 113 139 166 113 139 166 113 139 166 113 139 166 113 139 166 113 139 166 113 139 166 113 139 166 113 139 166 113 139 166 113 139 166 113 139 166 113 139 166 113 139 166 113 139 166 113 139 166 113 139 166 113 139 166 113 139 166 113 139 166 113 139 166 113 139 166 113 139 166 113 139 166 113 139 166 113 139 166 113 139 166 113 139 166 113 139 166 113 139 166 113 139 166 113 139 166 113 139 166 113 139 166 113 139 166 113 139 166 113 139 166 113 139 166 113 139 166 113 139 166 113 139 166 113 139 166 113 139 166 113 139 166 113 139 166 113 139 166 113 139 166 113 139 166 113 139 166 113 139 166 113 139 166 113 139 166 113 139 166 113 139 166 113 139 166 113 139 166 113 139 166 113 139 166 113 139 166 113 139 166 113 139 166 113 139 166 113 139 166 113 139 166 113 139 166 113 139 166 113 139 166 113 139 166 113 139 166 113 139 166 113 139 166 113 139 166 113 139 166 113 139 166 113 139 166 113 139 166 113 139 166 113 139 166 113 139 166 113 139 166 113 139 166 113 139 166 113 139 166 113 139 166 113 139 166 113 139 166 113 139 166 113 139 166 113 139 166 113 139 166 113 139 166 113 139 166 113 139 166 113 139 166 113 139 166 113 139 166 113 139 166 113 139 166 113 139 166 113 139 166 113 139 166 113 139 166 113 139 166 113 139 166 113 139 166 113 139 166 113 139 166 113 139 166 113 139 166 113 139 166 113 139 166 113 139 166 113 139 166 113 139 166 113 139 166 113 139 166 113 139 166 113 139 166 113 139 166 113 139 166 113 139 166 113 139 166 113 139 166 113 139 166 113 139 166 113 139 166 113 139 166 113 139 166 113 139 166 113 139 166 113 139 166 113 139 166 113 139 166 113 139 166 113 139 166 113 139 166 113 139 166 113 139 166 113 139 166 113 139 166 113 139 166 113 139 166 113 139 166 113 139 166 113 139 166 113 139 166 113 139 166 113 139 166 113 139 166 113 139 166 113 139 166 113 139 166 113 139 166 113 139 166 113 139 166 113 139 166 113 139 166 113 139 166 113 139 166 113 139 166 113 139 166 113 139 166 113 139 166 113 139 166 113 139 166 113 139 166 113 139 166 113 139 166 113 139 166 113 139 166 113 139 166 113 139 166 113 139 166 113 139 166 113 139 166 113 139 166 113 139 166 113 139 166 113 139 166 113 139 166 113 139 166 113 139 166 113 139 166 113 139 166 113 139 166 113 139 166 113 139 166 113 139 166 113 139 166 113 139 166 113 139 166 113 139 166 113 139 166 113 139 166 113 139 166 113 139 166 113 139 166 113 139 166 113 139 166 113 139 166 113 139 166 113 139 166 113 139 166 113 139 166 113 139 166 113 139 166 113 139 166 113 139 166 113 139 166 113 139 166 113 139 166 113 139 166 113 139 166 113 139 166 113 139 166 113 139 166 113 139 166 113 139 166 113 139 166 113 139 166 113 139 166 113 139 166 113 139 166 113 139 166 113 139 166 113 139 166 113 139 166 113 139 166 113 139 166 113 139 166 113 139 166 113 139 166 113 139 166 113 139 166 113 139 166 113 139 166 113 139 166 113 139 166 113 139 166
113 139 166 113 139 166 113 139 166 113 139 166 113 139 166 113 139 166 113 139 166 113 139 166 113 139 166 113 139 166 113 139 166 113 139 166 113 139 166 113 139 166 113 139 166 113 139 166 113 139 166 113 139 166 113 139 166 113 139 166 113 139 166 113 139 166 113 139 166 113 139 166 113 139 166 113 139 166 113 139 166 113 139 166 113 139 166 113 139 166 113 139 166 113 139 166 113 139 166 113 139 166 113 139 166 113 139 166 113 139 166 113 139 166 113 139 166 113 139 166 113 139 166 113 139 166 113 139 166 113 139 166 113 139 166 113 139 166 113 139 166 113 139 166 113 139 166 113 139 166 113 139 166 113 139 166 113 139 166 113 139 166 113 139 166 113 139 166 113 139 166 113 139 166 113 139 166 113 139 166 113 139 166 113 139 166 113 139 166 113 139 166 113 139 166 113 139 166 113 139 166 113 139 166 113 139 166 113 139 166 113 139 166 113 139 166 113 139 166 113 139 166 113 139 166 113 139 166 113 139 166 113 139 166 113 139 166 113 139 166 113 139 166 113 139 166 113 139 166 113 139 166 113 139 166 113 139 166 113 139 166 113 139 166 113 139 166 113 139 166 113 139 166 113 139 166 113 139 166 113 139 166 113 139 166 113 139 166 113 139 166 113 139 166 113 139 166 113 139 166 113 139 166 113 139 166 113 139 166 113 139 166 113 139 166 113 139 166 113 139 166 113 139 166 113 139 166 113 139 166 113 139 166 113 139 166 113 139 166 113 139 166 113 139 166 113 139 166 113 139 166 113 139 166 113 139 166 113 139 166 113 139 166 113 139 166 113 139 166 113 139 166 113 139 166 113 139 166 113 139 166 113 139 166 113 139 166 113 139 166 113 139 166 113 139 166 113 139 166 113 139 166 113 139 166 113 139 166 113 139 166 113 139 166 113 139 166 113 139 166 113 139 166 113 139 166 113 139 166 113 139 166 113 139 166 113 139 166 113 139 166 113 139 166 113 139 166 113 139 166 113 139 166 113 139 166 113 139 166 113 139 166 113 139 166 113 139 166 113 139 166 113 139 166 113 139 166 113 139 166 113 139 166 113 139 166 113 139 166 113 139 166 113 139 166 113 139 166 113 139 166 113 139 166 113 139 166 113 139 166 113 139 166 113 139 166 113 139 166 113 139 166 113 139 166 113 139 166 113 139 166 113 139 166 113 139 166 113 139 166 113 139 166 113 139 166 113 139 166 113 139 166 113 139 166 113 139 166 113 139 166 113 139 166 113 139 166 113 139 166 113 139 166 113 139 166 113 139 166 113 139 166 113 139 166 113 139 166 113 139 166 113 139 166 113 139 166 113 139 166 113 139 166 113 139 166 113 139 166 113 139 166 113 139 166 113 139 166 113 139 166 113 139 166 113 139 166 113 139 166 113 139 166 113 139 166 113 139 166 113 139 166 113 139 166 113 139 166 113 139 166 113 139 166 113 139 166 113 139 166 113 139 166 113 139 166 113 139 166 113 139 166 113 139 166 113 139 166 113 139 166 113 139 166 113 139 166 113 139 166 113 139 166 113 139 166 113 139 166 113 139 166 113 139 166 113 139 166 113 139 166 113 139 166 113 139 166 113 139 166
113 139 166 113 139 166 113 139 166 113 139 166 113 139 166 113 139 166 113 139 166 113 139 166 113 139 166 113 139 166 113 139 166 113 139 166 113 139 166 113 139 166 113 139 166 113 139 166 113 139 166 113 139 166 113 139 166 113 139 166 113 139 166 113 139 166 113 139 166 113 139 166 113 139 166 113 139 166 113 139 166 113 139 166 113 139 166 113 139 166 113 139 166 113 139 166 113 139 166 113 139 166 113 139 166 113 139 166 113 139 166 113 139 166 113 139 166 113 139 166 113 139 166 113 139 166 113 139 166 113 139 166 113 139 166 113 139 166 113 139 166 113 139 166 113 139 166 113 139 166 113 139 166 113 139 166 113 139 166 113 139 166 113 139 166 113 139 166 113 139 166 113 139 166 113 139 166 113 139 166 113 139 166 113 139 166 113 139 166 113 139 166 113 139 166 113 139 166 113 139 166 113 139 166 113 139 166 113 139 166 113 139 166 113 139 166 113 139 166 113 139 166 113 139 166 113 139 166 113 139 166 113 139 166 113 139 166 113 139 166 113 139 166 113 139 166 113 139 166 113 139 166 113 139 166 113 139 166 113 139 166 113 139 166 113 139 166 113 139 166 113 139 166 113 139 166 113 139 166 113 139 166 113 139 166 113 139 166 113 139 166 113 139 166 113 139 166 113 139 166 113 139 166 113 139 166 113 139 166 113 139 166 113 139 166 113 139 166 113 139 166 113 139 166 113 139 166 113 139 166 113 139 166 113 139 166 113 139 166 113 139 166 113 139 166 113 139 166 113 139 166 113 139 166 113 139 166 113 139 166 113 139 166 113 139 166 113 139 166 113 139 166 113 139 166 113 139 166 113 139 166 113 139 166 113 139 166 113 139 166 113 139 166 113 139 166 113 139 166 113 139 166 113 139 166 113 139 166 113 139 166 113 139 166 113 139 166 113 139 166 113 139 166 113 139 166 113 139 166 113 139 166 113 139 166 113 139 166 113 139 166 113 139 166 113 139 166 113 139 166 113 139 166 113 139 166 113 139 166 113 139 166 113 139 166 113 139 166 113 139 166 113 139 166 113 139 166 113 139 166 113 139 166 113 139 166 113 139 166 113 139 166 113 139 166 113 139 166 113 139 166 113 139 166 113 139 166 113 139 166 113 139 166 113 139 166 113 139 166 113 139 166 113 139 166 113 139 166 113 139 166 113 139 166 113 139 166 113 139 166 113 139 166 113 139 166 113 139 166 113 139 166 113 139 166 113 139 166 113 139 166 113 139 166 113 139 166 113 139 166 113 139 166 113 139 166 113 139 166 113 139 166 113 139 166 113 139 166 113 139 166 113 139 166 113 139 166 113 139 166 113 139 166 113 139 166 113 139 166 113 139 166 113 139 166 113 139 166 113 139 166 113 139 166 113 139 166 113 139 166 113 139 166 113 139 166 113 139 166 113 139 166 113 139 166 113 139 166 113 139 166 113 139 166 113 139 166 113 139 166 113 139 166 113 139 166 113 139 166 113 139 166 113 139 166 113 139 166 113 139 166 113 139 166 113 139 166 113 139 166 113 139 166 113 139 166 113 139 166 113 139 166 113 139 166 113 139 166 113 139 166 113 139 166 113 139 166 113 139 166
113 139 166 113 139 166 113 139 166 113 139 166 113 139 166 113 139 166 113 139 166 113 139 166 113 139 166 113 139 166 113 139 166 113 139 166 113 139 166 113 139 166 113 139 166 113 139 166 113 139 166 113 139 166 113 139 166 113 139 166 113 139 166 113 139 166 113 139 166 113 139 166 113 139 166 113 139 166 113 139 166 113 139 166 113 139 166 113 139 166 113 139 166 113 139 166 113 139 166 113 139 166 113 139 166 113 139 166 113 139 166 113 139 166 113 139 166 113 139 166 113 139 166 113 139 166 113 139 166 113 139 166 113 139 166 113 139 166 113 139 166 113 139 166 113 139 166 113 139 166 113 139 166 113 139 166 113 139 166 113 139 166 113 139 166 113 139 166 113 139 166 113 139 166 113 139 166 113 139 166 113 139 166 113 139 166 113 139 166 113 139 166 113 139 166 113 139 166 113 139 166 113 139 166 113 139 166 113 139 166 113 139 166 113 139 166 113 139 166 113 139 166 113 139 166 113 139 166 113 139 166 113 139 166 113 139 166 113 139 166 113 139 166 113 139 166 113 139 166 113 139 166 113 139 166 113 139 166 113 139 166 113 139 166 113 139 166 113 139 166 113 139 166 113 139 166 113 139 166 113 139 166 113 139 166 113 139 166 113 139 166 113 139 166 113 139 166 113 139 166 113 139 166 113 139 166 113 139 166 113 139 166 113 139 166 113 139 166 113 139 166 113 139 166 113 139 166 113 139 166 113 139 166 113 139 166 113 139 166 113 139 166 113 139 166 113 139 166 113 139 166 113 139 166 113 139 166 113 139 166 113 139 166 113 139 166 113 139 166 113 139 166 113 139 166 113 139 166 113 139 166 113 139 166 113 139 166 113 139 166 113 139 166 113 139 166 113 139 166 113 139 166 113 139 166 113 139 166 113 139 166 113 139 166 113 139 166 113 139 166 113 139 166 113 139 166 113 139 166 113 139 166 113 139 166 113 139 166 113 139 166 113 139 166 113 139 166 113 139 166 113 139 166 113 139 166 113 139 166 113 139 166 113 139 166 113 139 166 113 139 166 113 139 166 113 139 166 113 139 166 113 139 166 113 139 166 113 139 166 113 139 166 113 139 166 113 139 166 113 139 166 113 139 166 113 139 166 113 139 166 113 139 166 113 139 166 113 139 166 113 139 166 113 139 166 113 139 166 113 139 166 113 139 166 113 139 166 113 139 166 113 139 166 113 139 166 113 139 166 113 139 166 113 139 166 113 139 166 113 139 166 113 139 166 113 139 166 113 139 166 113 139 166 113 139 166 113 139 166 113 139 166 113 139 166 113 139 166 113 139 166 113 139 166 113 139 166 113 139 166 113 139 166 113 139 166 113 139 166 113 139 166 113 139 166 113 139 166 113 139 166 113 139 166 113 139 166 113 139 166 113 139 166 113 139 166 113 139 166 113 139 166 113 139 166 113 139 166 113 139 166 113 139 166 113 139 166 113 139 166 113 139 166 113 139 166 113 139 166 113 139 166 113 139 166 113 139 166 113 139 166 113 139 166 113 139 166 113 139 166 113 139 166 113 139 166 113 139 166 113 139 166 113 139 166 113 139 166 113 139 166 113 139 166 113 139 166 113 139 166
113 139 166 113 139 166 113 139 166 113 139 166 113 139 166 113 139 166 113 139 166 113 139 166 113 139 166 113 139 166 113 139 166 113 139 166 113 139 166 113 139 166 113 139 166 113 139 166 113 139 166 113 139 166 113 139 166 113 139 166 113 139 166 113 139 166 113 139 166 113 139 166 113 139 166 113 139 166 113 139 166 113 139 166 113 139 166 113 139 166 113 139 166 113 139 166 113 139 166 113 139 166 113 139 166 113 139 166 113 139 166 113 139 166 113 139 166 113 139 166 113 139 166 113 139 166 113 139 166 113 139 166 113 139 166 113 139 166 113 139 166 113 139 166 113 139 166 113 139 166 113 139 166 113 139 166 113 139 166 113 139 166 113 139 166 113 139 166 113 139 166 113 139 166 113 139 166 113 139 166 113 139 166 113 139 166 113 139 166 113 139 166 113 139 166 113 139 166 113 139 166 113 139 166 113 139 166 113 139 166 113 139 166 113 139 166 113 139 166 113 139 166 113 139 166 113 139 166 113 139 166 113 139 166 113 139 166 113 139 166 113 139 166 113 139 166 113 139 166 113 139 166 113 139 166 113 139 166 113 139 166 113 139 166 113 139 166 113 139 166 113 139 166 113 139 166 113 139 166 113 139 166 113 139 166 113 139 166 113 139 166 113 139 166 113 139 166 113 139 166 113 139 166 113 139 166 113 139 166 113 139 166 113 139 166 113 139 166 113 139 166 113 139 166 113 139 166 113 139 166 113 139 166 113 139 166 113 139 166 113 139 166 113 139 166 113 139 166 113 139 166 113 139 166 113 139 166 113 139 166 113 139 166 113 139 166 113 139 166 113 139 166 113 139 166 113 139 166 113 139 166 113 139 166 113 139 166 113 139 166 113 139 166 113 139 166 113 139 166 113 139 166 113 139 166 113 139 166 113 139 166 113 139 166 113 139 166 113 139 166 113 139 166 113 139 166 113 139 166 113 139 166 113 139 166 113 139 166 113 139 166 113 139 166 113 139 166 113 139 166 113 139 166 113 139 166 113 139 166 113 139 166 113 139 166 113 139 166 113 139 166 113 139 166 113 139 166 113 139 166 113 139 166 113 139 166 113 139 166 113 139 166 113 139 166 113 139 166 113 139 166 113 139 166 113 139 166 113 139 166 113 139 166 113 139 166 113 139 166 113 139 166 113 139 166 113 139 166 113 139 166 113 139 166 113 139 166 113 139 166 113 139 166 113 139 166 113 139 166 113 139 166 113 139 166 113 139 166 113 139 166 113 139 166 113 139 166 113 139 166 113 139 166 113 139 166 113 139 166 113 139 166 113 139 166 113 139 166 113 139 166 113 139 166 113 139 166 113 139 166 113 139 166 113 139 166 113 139 166 113 139 166 113 139 166 113 139 166 113 139 166 113 139 166 113 139 166 113 139 166 113 139 166 113 139 166 113 139 166 113 139 166 113 139 166 113 139 166 113 139 166 113 139 166 113 139 166 113 139 166 113 139 166 113 139 166 113 139 166 113 139 166 113 139 166 113 139 166 113 139 166 113 139 166 113 139 166 113 139 166 113 139 166 113 139 166 113 139 166 113 139 166 113 139 166 113 139 166 113 139 166 113 139 166 113 139 166 113 139 166
113 139 166 113 139 166 113 139 166 113 139 166 113 139 166 113 139 166 113 139 166 113 139 166 113 139 166 113 139 166 113 139 166 113 139 166 113 139 166 113 139 166 113 139 166 113 139 166 113 139 166 113 139 166 113 139 166 113 139 166 113 139 166 113 139 166 113 139 166 113 139 166 113 139 166 113 139 166 113 139 166 113 139 166 113 139 166 113 139 166 113 139 166 113 139 166 113 139 166 113 139 166 113 139 166 113 139 166 113 139 166 113 139 166 113 139 166 113 139 166 113 139 166 113 139 166 113 139 166 113 139 166 113 139 166 113 139 166 113 139 166 113 139 166 113 139 166 113 139 166 113 139 166 113 139 166 113 139 166 113 139 166 113 139 166 113 139 166 113 139 166 113 139 166 113 139 166 113 139 166 113 139 166 113 139 166 113 139 166 113 139 166 113 139 166 113 139 166 113 139 166 113 139 166 113 139 166 113 139 166 113 139 166 113 139 166 113 139 166 113 139 166 113 139 166 113 139 166 113 139 166 113 139 166 113 139 166 113 139 166 113 139 166 113 139 166 113 139 166 113 139 166 113 139 166 113 139 166 113 139 166 113 139 166 113 139 166 113 139 166 113 139 166 113 139 166 113 139 166 113 139 166 113 139 166 113 139 166 113 139 166 113 139 166 113 139 166 113 139 166 113 139 166 113 139 166 113 139 166 113 139 166 113 139 166 113 139 166 113 139 166 113 139 166 113 139 166 113 139 166 113 139 166 113 139 166 113 139 166 113 139 166 113 139 166 113 139 166 113 139 166 113 139 166 113 139 166 113 139 166 113 139 166 113 139 166 113 139 166 113 139 166 113 139 166 113 139 166 113 139 166 113 139 166 113 139 166 113 139 166 113 139 166 113 139 166 113 139 166 113 139 166 113 139 166 113 139 166 113 139 166 113 139 166 113 139 166 113 139 166 113 139 166 113 139 166 113 139 166 113 139 166 113 139 166 113 139 166 113 139 166 113 139 166 113 139 166 113 139 166 113 139 166 113 139 166 113 139 166 113 139 166 113 139 166 113 139 166 113 139 166 113 139 166 113 139 166 113 139 166 113 139 166 113 139 166 113 139 166 113 139 166 113 139 166 113 139 166 113 139 166 113 139 166 113 139 166 113 139 166 113 139 166 113 139 166 113 139 166 113 139 166 113 139 166 113 139 166 113 139 166 113 139 166 113 139 166 113 139 166 113 139 166 113 139 166 113 139 166 113 139 166 113 139 166 113 139 166 113 139 166 113 139 166 113 139 166 113 139 166 113 139 166 113 139 166 113 139 166 113 139 166 113 139 166 113 139 166 113 139 166 113 139 166 113 139 166 113 139 166 113 139 166 113 139 166 113 139 166 113 139 166 113 139 166 113 139 166 113 139 166 113 139 166 113 139 166 113 139 166 113 139 166 113 139 166 113 139 166 113 139 166 113 139 166 113 139 166 113 139 166 113 139 166 113 139 166 113 139 166 113 139 166 113 139 166 113 139 166 113 139 166 113 139 166 113 139 166 113 139 166 113 139 166 113 139 166 113 139 166 113 139 166 113 139 166 113 139 166 113 139 166 113 139 166 113 139 166 113 139 166 113 139 166 113 139 166 113 139 166
113 139 166 113 139 166 113 139 166 113 139 166 113 139 166 113 139 166 113 139 166 113 139 166 113 139 166 113 139 166 113 139 166 113 139 166 113 139 166 113 139 166 113 139 166 113 139 166 113 139 166 113 139 166 113 139 166 113 139 166 113 139 166 113 139 166 113 139 166 113 139 166 113 139 166 113 139 166 113 139 166 113 139 166 113 139 166 113 139 166 113 139 166 113 139 166 113 139 166 113 139 166 113 139 166 113 139 166 113 139 166 113 139 166 113 139 166 113 139 166 113 139 166 113 139 166 113 139 166 113 139 166 113 139 166 113 139 166 113 139 166 113 139 166 113 139 166 113 139 166 113 139 166 113 139 166 113 139 166 113 139 166 113 139 166 113 139 166 113 139 166 113 139 166 113 139 166 113 139 166 113 139 166 113 139 166 113 139 166 113 139 166 113 139 166 113 139 166 113 139 166 113 139 166 113 139 166 113 139 166 113 139 166 113 139 166 113 139 166 113 139 166 113 139 166 113 139 166 113 139 166 113 139 166 113 139 166 113 139 166 113 139 166 113 139 166 113 139 166 113 139 166 113 139 166 113 139 166 113 139 166 113 139 166 113 139 166 113 139 166 113 139 166 113 139 166 113 139 166 113 139 166 113 139 166 113 139 166 113 139 166 113 139 166 113 139 166 113 139 166 113 139 166 113 139 166 113 139 166 113 139 166 113 139 166 113 139 166 113 139 166 113 139 166 113 139 166 113 139 166 113 139 166 113 139 166 113 139 166 113 139 166 113 139 166 113 139 166 113 139 166 113 139 166 113 139 166 113 139 166 113 139 166 113 139 166 113 139 166 113 139 166 113 139 166 113 139 166 113 139 166 113 139 166 113 139 166 113 139 166 113 139 166 113 139 166 113 139 166 113 139 166 113 139 166 113 139 166 113 139 166 113 139 166 113 139 166 113 139 166 113 139 166 113 139 166 113 139 166 113 139 166 113 139 166 113 139 166 113 139 166 113 139 166 113 139 166 113 139 166 113 139 166 113 139 166 113 139 166 113 139 166 113 139 166 113 139 166 113 139 166 113 139 166 113 139 166 113 139 166 113 139 166 113 139 166 113 139 166 113 139 166 113 139 166 113 139 166 113 139 166 113 139 166 113 139 166 113 139 166 113 139 166 113 139 166 113 139 166 113 139 166 113 139 166 113 139 166 113 139 166 113 139 166 113 139 166 113 139 166 113 139 166 113 139 166 113 139 166 113 139 166 113 139 166 113 139 166 113 139 166 113 139 166 113 139 166 113 139 166 113 139 166 113 139 166 113 139 166 113 139 166 113 139 166 113 139 166 113 139 166 113 139 166 113 139 166 113 139 166 113 139 166 113 139 166 113 139 166 113 139 166 113 139 166 113 139 166 113 139 166 113 139 166 113 139 166 113 139 166 113 139 166 113 139 166 113 139 166 113 139 166 113 139 166 113 139 166 113 139 166 113 139 166 113 139 166 113 139 166 113 139 166 113 139 166 113 139 166 113 139 166 113 139 166 113 139 166 113 139 166 113 139 166 113 139 166 113 139 166 113 139 166 113 139 166 113 139 166 113 139 166 113 139 166 113 139 166 113 139 166 113 139 166 113 139 166 113 139 166
113 139 166 113 139 166 113 139 166 113 139 166 113 139 166 113 139 166 113 139 166 113 139 166 113 139 166 113 139 166 113 139 166 113 139 166 113 139 166 113 139 166 113 139 166 113 139 166 113 139 166 113 139 166 113 139 166 113 139 166 113 139 166 113 139 166 113 139 166 113 139 166 113 139 166 113 139 166 113 139 166 113 139 166 113 139 166 113 139 166 113 139 166 113 139 166 113 139 166 113 139 166 113 139 166 113 139 166 113 139 166 113 139 166 113 139 166 113 139 166 113 139 166 113 139 166 113 139 166 113 139 166 113 139 166 113 139 166 113 139 166 113 139 166 113 139 166 113 139 166 113 139 166 113 139 166 113 139 166 113 139 166 113 139 166 113 139 166 113 139 166 113 139 166 113 139 166 113 139 166 113 139 166 113 139 166 113 139 166 113 139 166 113 139 166 113 139 166 113 139 166 113 139 166 113 139 166 113 139 166 113 139 166 113 139 166 113 139 166 113 139 166 113 139 166 113 139 166 113 139 166 113 139 166 113 139 166 113 139 166 113 139 166 113 139 166 113 139 166 113 139 166 113 139 166 113 139 166 113 139 166 113 139 166 113 139 166 113 139 166 113 139 166 113 139 166 113 139 166 113 139 166 113 139 166 113 139 166 113 139 166 113 139 166 113 139 166 113 139 166 113 139 166 113 139 166 113 139 166 113 139 166 113 139 166 113 139 166 113 139 166 113 139 166 113 139 166 113 139 166 113 139 166 113 139 166 113 139 166 113 139 166 113 139 166 113 139 166 113 139 166 113 139 166 113 139 166 113 139 166 113 139 166 113 139 166 113 139 166 113 139 166 113 139 166 113 139 166 113 139 166 113 139 166 113 139 166 113 139 166 113 139 166 113 139 166 113 139 166 113 139 166 113 139 166 113 139 166 113 139 166 113 139 166 113 139 166 113 139 166 113 139 166 113 139 166 113 139 166 113 139 166 113 139 166 113 139 166 113 139 166 113 139 166 113 139 166 113 139 166 113 139 166 113 139 166 113 139 166 113 139 166 113 139 166 113 139 166 113 139 166 113 139 166 113 139 166 113 139 166 113 139 166 113 139 166 113 139 166 113 139 166 113 139 166 113 139 166 113 139 166 113 139 166 113 139 166 113 139 166 113 139 166 113 139 166 113 139 166 113 139 166 113 139 166 113 139 166 113 139 166 113 139 166 113 139 166 113 139 166 113 139 166 113 139 166 113 139 166 113 139 166 113 139 166 113 139 166 113 139 166 113 139 166 113 139 166 113 139 166 113 139 166 113 139 166 113 139 166 113 139 166 113 139 166 113 139 166 113 139 166 113 139 166 113 139 166 113 139 166 113 139 166 113 139 166 113 139 166 113 139 166 113 139 166 113 139 166 113 139 166 113 139 166 113 139 166 113 139 166 113 139 166 113 139 166 113 139 166 113 139 166 113 139 166 113 139 166 113 139 166 113 139 166 113 139 166 113 139 166 113 139 166 113 139 166 113 139 166 113 139 166 113 139 166 113 139 166 113 139 166 113 139 166 113 139 166 113 139 166 113 139 166 113 139 166 113 139 166 113 139 166 113 139 166 113 139 166 113 139 166 113 139 166 113 139 166 113 139 166
113 139 166 113 139 166 113 139 166 113 139 166 113 139 166 113 139 166 113 139 166 113 139 166 113 139 166 113 139 166 113 139 166 113 139 166 113 139 166 113 139 166 113 139 166 113 139 166 113 139 166 113 139 166 113 139 166 113 139 166 113 139 166 113 139 166 113 139 166 113 139 166 113 139 166 113 139 166 113 139 166 113 139 166 113 139 166 113 139 166 113 139 166 113 139 166 113 139 166 113 139 166 113 139 166 113 139 166 113 139 166 113 139 166 113 139 166 113 139 166 113 139 166 113 139 166 113 139 166 113 139 166 113 139 166 113 139 166 113 139 166 113 139 166 113 139 166 113 139 166 113 139 166 113 139 166 113 139 166 113 139 166 113 139 166 113 139 166 113 139 166 113 139 166 113 139 166 113 139 166 113 139 166 113 139 166 113 139 166 113 139 166 113 139 166 113 139 166 113 139 166 113 139 166 113 139 166 113 139 166 113 139 166 113 139 166 113 139 166 113 139 166 113 139 166 113 139 166 113 139 166 113 139 166 113 139 166 113 139 166 113 139 166 113 139 166 113 139 166 113 139 166 113 139 166 113 139 166 113 139 166 113 139 166 113 139 166 113 139 166 113 139 166 113 139 166 113 139 166 113 139 166 113 139 166 113 139 166 113 139 166 113 139 166 113 139 166 113 139 166 113 139 166 113 139 166 113 139 166 113 139 166 113 139 166 113 139 166 113 139 166 113 139 166 113 139 166 113 139 166 113 139 166 113 139 166 113 139 166 113 139 166 113 139 166 113 139 166 113 139 166 113 139 166 113 139 166 113 139 166 113 139 166 113 139 166 113 139 166 113 139 166 113 139 166 113 139 166 113 139 166 113 139 166 113 139 166 113 139 166 113 139 166 113 139 166 113 139 166 113 139 166 113 139 166 113 139 166 113 139 166 113 139 166 113 139 166 113 139 166 113 139 166 113 139 166 113 139 166 113 139 166 113 139 166 113 139 166 113 139 166 113 139 166 113 139 166 113 139 166 113 139 166 113 139 166 113 139 166 113 139 166 113 139 166 113 139 166 113 139 166 113 139 166 113 139 166 113 139 166 113 139 166 113 139 166 113 139 166 113 139 166 113 139 166 113 139 166 113 139 166 113 139 166 113 139 166 113 139 166 113 139 166 113 139 166 113 139 166 113 139 166 113 139 166 113 139 166 113 139 166 113 139 166 113 139 166 113 139 166 113 139 166 113 139 166 113 139 166 113 139 166 113 139 166 113 139 166 113 139 166 113 139 166 113 139 166 113 139 166 113 139 166 113 139 166 113 139 166 113 139 166 113 139 166 113 139 166 113 139 166 113 139 166 113 139 166 113 139 166 113 139 166 113 139 166 113 139 166 113 139 166 113 139 166 113 139 166 113 139 166 113 139 166 113 139 166 113 139 166 113 139 166 113 139 166 113 139 166 113 139 166 113 139 166 113 139 166 113 139 166 113 139 166 113 139 166 113 139 166 113 139 166 113 139 166 113 139 166 113 139 166 113 139 166 113 139 166 113 139 166 113 139 166 113 139 166 113 139 166 113 139 166 113 139 166 113 139 166 113 139 166 113 139 166 113 139 166 113 139 166 113 139 166 113 139 166 113 139 166
113 139 166 113 139 166 113 139 166 113 139 166 113 139 166 113 139 166 113 139 166 113 139 166 113 139 166 113 139 166 113 139 166 113 139 166 113 139 166 113 139 166 113 139 166 113 139 166 113 139 166 113 139 166 113 139 166 113 139 166 113 139 166 113 139 166 113 139 166 113 139 166 113 139 166 113 139 166 113 139 166 113 139 166 113 139 166 113 139 166 113 139 166 113 139 166 113 139 166 113 139 166 113 139 166 113 139 166 113 139 166 113 139 166 113 139 166 113 139 166 113 139 166 113 139 166 113 139 166 113 139 166 113 139 166 113 139 166 113 139 166 113 139 166 113 139 166 113 139 166 113 139 166 113 139 166 113 139 166 113 139 166 113 139 166 113 139 166 113 139 166 113 139 166 113 139 166 113 139 166 113 139 166 113 139 166 113 139 166 113 139 166 113 139 166 113 139 166 113 139 166 113 139 166 113 139 166 113 139 166 113 139 166 113 139 166 113 139 166 113 139 166 113 139 166 113 139 166 113 139 166 113 139 166 113 139 166 113 139 166 113 139 166 113 139 166 113 139 166 113 139 166 113 139 166 113 139 166 113 139 166 113 139 166 113 139 166 113 139 166 113 139 166 113 139 166 113 139 166 113 139 166 113 139 166 113 139 166 113 139 166 113 139 166 113 139 166 113 139 166 113 139 166 113 139 166 113 139 166 113 139 166 113 139 166 113 139 166 113 139 166 113 139 166 113 139 166 113 139 166 113 139 166 113 139 166 113 139 166 113 139 166 113 139 166 113 139 166 113 139 166 113 139 166 113 139 166 113 139 166 113 139 166 113 139 166 113 139 166 113 139 166 113 139 166 113 139 166 113 139 166 113 139 166 113 139 166 113 139 166 113 139 166 113 139 166 113 139 166 113 139 166 113 139 166 113 139 166 113 139 166 113 139 166 113 139 166 113 139 166 113 139 166 113 139 166 113 139 166 113 139 166 113 139 166 113 139 166 113 139 166 113 139 166 113 139 166 113 139 166 113 139 166 113 139 166 113 139 166 113 139 166 113 139 166 113 139 166 113 139 166 113 139 166 113 139 166 113 139 166 113 139 166 113 139 166 113 139 166 113 139 166 113 139 166 113 139 166 113 139 166 113 139 166 113 139 166 113 139 166 113 139 166 113 139 166 113 139 166 113 139 166 113 139 166 113 139 166 113 139 166 113 139 166 113 139 166 113 139 166 113 139 166 113 139 166 113 139 166 113 139 166 113 139 166 113 139 166 113 139 166 113 139 166 113 139 166 113 139 166 113 139 166 113 139 166 113 139 166 113 139 166 113 139 166 113 139 166 113 139 166 113 139 166 113 139 166 113 139 166 113 139 166 113 139 166 113 139 166 113 139 166 113 139 166 113 139 166 113 139 166 113 139 166 113 139 166 113 139 166 113 139 166 113 139 166 113 139 166 113 139 166 113 139 166 113 139 166 113 139 166 113 139 166 113 139 166 113 139 166 113 139 166 113 139 166 113 139 166 113 139 166 113 139 166 113 139 166 113 139 166 113 139 166 113 139 166 113 139 166 113 139 166 113 139 166 113 139 166 113 139 166 113 139 166 113 139 166 113 139 166 113 139 166 113 139 166 113 139 166
113 139 166 113 139 166 113 139 166 113 139 166 113 139 166 113 139 166 113 139 166 113 139 166 113 139 166 113 139 166 113 139 166 113 139 166 113 139 166 113 139 166 113 139 166 113 139 166 113 139 166 113 139 166 113 139 166 113 139 166 113 139 166 113 139 166 113 139 166 113 139 166 113 139 166 113 139 166 113 139 166 113 139 166 113 139 166 113 139 166 113 139 166 113 139 166 113 139 166 113 139 166 113 139 166 113 139 166 113 139 166 113 139 166 113 139 166 113 139 166 113 139 166 113 139 166 113 139 166 113 139 166 113 139 166 113 139 166 113 139 166 113 139 166 113 139 166 113 139 166 113 139 166 113 139 166 113 139 166 113 139 166 113 139 166 113 139 166 113 139 166 113 139 166 113 139 166 113 139 166 113 139 166 113 139 166 113 139 166 113 139 166 113 139 166 113 139 166 113 139 166 113 139 166 113 139 166 113 139 166 113 139 166 113 139 166 113 139 166 113 139 166 113 139 166 113 139 166 113 139 166 113 139 166 113 139 166 113 139 166 113 139 166 113 139 166 113 139 166 113 139 166 113 139 166 113 139 166 113 139 166 113 139 166 113 139 166 113 139 166 113 139 166 113 139 166 113 139 166 113 139 166 113 139 166 113 139 166 113 139 166 113 139 166 113 139 166 113 139 166 113 139 166 113 139 166 113 139 166 113 139 166 113 139 166 113 139 166 113 139 166 113 139 166 113 139 166 113 139 166 113 139 166 113 139 166 113 139 166 113 139 166 113 139 166 113 139 166 113 139 166 113 139 166 113 139 166 113 139 166 113 139 166 113 139 166 113 139 166 113 139 166 113 139 166 113 139 166 113 139 166 113 139 166 113 139 166 113 139 166 113 139 166 113 139 166 113 139 166 113 139 166 113 139 166 113 139 166 113 139 166 113 139 166 113 139 166 113 139 166 113 139 166 113 139 166 113 139 166 113 139 166 113 139 166 113 139 166 113 139 166 113 139 166 113 139 166 113 139 166 113 139 166 113 139 166 113 139 166 113 139 166 113 139 166 113 139 166 113 139 166 113 139 166 113 139 166 113 139 166 113 139 166 113 139 166 113 139 166 113 139 166 113 139 166 113 139 166 113 139 166 113 139 166 113 139 166 113 139 166 113 139 166 113 139 166 113 139 166 113 139 166 113 139 166 113 139 166 113 139 166 113 139 166 113 139 166 113 139 166 113 139 166 113 139 166 113 139 166 113 139 166 113 139 166 113 139 166 113 139 166 113 139 166 113 139 166 113 139 166 113 139 166 113 139 166 113 139 166 113 139 166 113 139 166 113 139 166 113 139 166 113 139 166 113 139 166 113 139 166 113 139 166 113 139 166 113 139 166 113 139 166 113 139 166 113 139 166 113 139 166 113 139 166 113 139 166 113 139 166 113 139 166 113 139 166 113 139 166 113 139 166 113 139 166 113 139 166 113 139 166 113 139 166 113 139 166 113 139 166 113 139 166 113 139 166 113 139 166 113 139 166 113 139 166 113 139 166 113 139 166 113 139 166 113 139 166 113 139 166 113 139 166 113 139 166 113 139 166 113 139 166 113 139 166 113 139 166 113 139 166 113 139 166 113 139 166 113 139 166
113 139 166 113 139 166 113 139 166 113 139 166 113 139 166 113 139 166 113 139 166 113 139 166 113 139 166 113 139 166 113 139 166 113 139 166 113 139 166 113 139 166 113 139 166 113 139 166 113 139 166 113 139 166 113 139 166 113 139 166 113 139 166 113 139 166 113 139 166 113 139 166 113 139 166 113 139 166 113 139 166 113 139 166 113 139 166 113 139 166 113 139 166 113 139 166 113 139 166 113 139 166 113 139 166 113 139 166 113 139 166 113 139 166 113 139 166 113 139 166 113 139 166 113 139 166 113 139 166 113 139 166 113 139 166 113 139 166 113 139 166 113 139 166 113 139 166 113 139 166 113 139 166 113 139 166 113 139 166 113 139 166 113 139 166 113 139 166 113 139 166 113 139 166 113 139 166 113 139 166 113 139 166 113 139 166 113 139 166 113 139 166 113 139 166 113 139 166 113 139 166 113 139 166 113 139 166 113 139 166 113 139 166 113 139 166 113 139 166 113 139 166 113 139 166 113 139 166 113 139 166 113 139 166 113 139 166 113 139 166 113 139 166 113 139 166 113 139 166 113 139 166 113 139 166 113 139 166 113 139 166 113 139 166 113 139 166 113 139 166 113 139 166 113 139 166 113 139 166 113 139 166 113 139 166 113 139 166 113 139 166 113 139 166 113 139 166 113 139 166 113 139 166 113 139 166 113 139 166 113 139 166 113 139 166 113 139 166 113 139 166 113 139 166 113 139 166 113 139 166 113 139 166 113 139 166 113 139 166 113 139 166 113 139 166 113 139 166 113 139 166 113 139 166 113 139 166 113 139 166 113 139 166 113 139 166 113 139 166 113 139 166 113 139 166 113 139 166 113 139 166 113 139 166 113 139 166 113 139 166 113 139 166 113 139 166 113 139 166 113 139 166 113 139 166 113 139 166 113 139 166 113 139 166 113 139 166 113 139 166 113 139 166 113 139 166 113 139 166 113 139 166 113 139 166 113 139 166 113 139 166 113 139 166 113 139 166 113 139 166 113 139 166 113 139 166 113 139 166 113 139 166 113 139 166 113 139 166 113 139 166 113 139 166 113 139 166 113 139 166 113 139 166 113 139 166 113 139 166 113 139 166 113 139 166 113 139 166 113 139 166 113 139 166 113 139 166 113 139 166 113 139 166 113 139 166 113 139 166 113 139 166 113 139 166 113 139 166 113 139 166 113 139 166 113 139 166 113 139 166 113 139 166 113 139 166 113 139 166 113 139 166 113 139 166 113 139 166 113 139 166 113 139 166 113 139 166 113 139 166 113 139 166 113 139 166 113 139 166 113 139 166 113 139 166 113 139 166 113 139 166 113 139 166 113 139 166 113 139 166 113 139 166 113 139 166 113 139 166 113 139 166 113 139 166 113 139 166 113 139 166 113 139 166 113 139 166 113 139 166 113 139 166 113 139 166 113 139 166 113 139 166 113 139 166 113 139 166 113 139 166 113 139 166 113 139 166 113 139 166 113 139 166 113 139 166 113 139 166 113 139 166 113 139 166 113 139 166 113 139 166 113 139 166 113 139 166 113 139 166 113 139 166 113 139 166 113 139 166 113 139 166 113 139 166 113 139 166 113 139 166 113 139 166 113 139 166 113 139 166
113 139 166 113 139 166 113 139 166 113 139 166 113 139 166 113 139 166 113 139 166 113 139 166 113 139 166 113 139 166 113 139 166 113 139 166 113 139 166 113 139 166 113 139 166 113 139 166 113 139 166 113 139 166 113 139 166 113 139 166 113 139 166 113 139 166 113 139 166 113 139 166 113 139 166 113 139 166 113 139 166 113 139 166 113 139 166 113 139 166 113 139 166 113 139 166 113 139 166 113 139 166 113 139 166 113 139 166 113 139 166 113 139 166 113 139 166 113 139 166 113 139 166 113 139 166 113 139 166 113 139 166 113 139 166 113 139 166 113 139 166 113 139 166 113 139 166 113 139 166 113 139 166 113 139 166 113 139 166 113 139 166 113 139 166 113 139 166 113 139 166 113 139 166 113 139 166 113 139 166 113 139 166 113 139 166 113 139 166 113 139 166 113 139 166 113 139 166 113 139 166 113 139 166 113 139 166 113 139 166 113 139 166 113 139 166 113 139 166 113 139 166 113 139 166 113 139 166 113 139 166 113 139 166 113 139 166 113 139 166 113 139 166 113 139 166 113 139 166 113 139 166 113 139 166 113 139 166 113 139 166 113 139 166 113 139 166 113 139 166 113 139 166 113 139 166 113 139 166 113 139 166 113 139 166 113 139 166 113 139 166 113 139 166 113 139 166 113 139 166 113 139 166 113 139 166 113 139 166 113 139 166 113 139 166 113 139 166 113 139 166 113 139 166 113 139 166 113 139 166 113 139 166 113 139 166 113 139 166 113 139 166 113 139 166 113 139 166 113 139 166 113 139 166 113 139 166 113 139 166 113 139 166 113 139 166 113 139 166 113 139 166 113 139 166 113 139 166 113 139 166 113 139 166 113 139 166 113 139 166 113 139 166 113 139 166 113 139 166 113 139 166 113 139 166 113 139 166 113 139 166 113 139 166 113 139 166 113 139 166 113 139 166 113 139 166 113 139 166 113 139 166 113 139 166 113 139 166 113 139 166 113 139 166 113 139 166 113 139 166 113 139 166 113 139 166 113 139 166 113 139 166 113 139 166 113 139 166 113 139 166 113 139 166 113 139 166 113 139 166 113 139 166 113 139 166 113 139 166 113 139 166 113 139 166 113 139 166 113 139 166 113 139 166 113 139 166 113 139 166 113 139 166 113 139 166 113 139 166 113 139 166 113 139 166 113 139 166 113 139 166 113 139 166 113 139 166 113 139 166 113 139 166 113 139 166 113 139 166 113 139 166 113 139 166 113 139 166 113 139 166 113 139 166 113 139 166 113 139 166 113 139 166 113 139 166 113 139 166 113 139 166 113 139 166 113 139 166 113 139 166 113 139 166 113 139 166 113 139 166 113 139 166 113 139 166 113 139 166 113 139 166 113 139 166 113 139 166 113 139 166 113 139 166 113 139 166 113 139 166 113 139 166 113 139 166 113 139 166 113 139 166 113 139 166 113 139 166 113 139 166 113 139 166 113 139 166 113 139 166 113 139 166 113 139 166 113 139 166 113 139 166 113 139 166 113 139 166 113 139 166 113 139 166 113 139 166 113 139 166 113 139 166 113 139 166 113 139 166 113 139 166 113 139 166 113 139 166 113 139 166 113 139 166 113 139 166 113 139 166
113 139 166 113 139 166 113 139 166 113 139 166 113 139 166 113 139 166 113 139 166 113 139 166 113 139 166 113 139 166 113 139 166 113 139 166 113 139 166 113 139 166 113 139 166 113 139 166 113 139 166 113 139 166 113 139 166 113 139 166 113 139 166 113 139 166 113 139 166 113 139 166 113 139 166 113 139 166 113 139 166 113 139 166 113 139 166 113 139 166 113 139 166 113 139 166 113 139 166 113 139 166 113 139 166 113 139 166 113 139 166 113 139 166 113 139 166 113 139 166 113 139 166 113 139 166 113 139 166 113 139 166 113 139 166 113 139 166 113 139 166 113 139 166 113 139 166 113 139 166 113 139 166 113 139 166 113 139 166 113 139 166 113 139 166 113 139 166 113 139 166 113 139 166 113 139 166 113 139 166 113 139 166 113 139 166 113 139 166 113 139 166 113 139 166 113 139 166 113 139 166 113 139 166 113 139 166 113 139 166 113 139 166 113 139 166 113 139 166 113 139 166 113 139 166 113 139 166 113 139 166 113 139 166 113 139 166 113 139 166 113 139 166 113 139 166 113 139 166 113 139 166 113 139 166 113 139 166 113 139 166 113 139 166 113 139 166 113 139 166 113 139 166 113 139 166 113 139 166 113 139 166 113 139 166 113 139 166 113 139 166 113 139 166 113 139 166 113 139 166 113 139 166 113 139 166 113 139 166 113 139 166 113 139 166 113 139 166 113 139 166 113 139 166 113 139 166 113 139 166 113 139 166 113 139 166 113 139 166 113 139 166 113 139 166 113 139 166 113 139 166 113 139 166 113 139 166 113 139 166 113 139 166 113 139 166 113 139 166 113 139 166 113 139 166 113 139 166 113 139 166 113 139 166 113 139 166 113 139 166 113 139 166 113 139 166 113 139 166 113 139 166 113 139 166 113 139 166 113 139 166 113 139 166 113 139 166 113 139 166 113 139 166 113 139 166 113 139 166 113 139 166 113 139 166 113 139 166 113 139 166 113 139 166 113 139 166 113 139 166 113 139 166 113 139 166 113 139 166 113 139 166 113 139 166 113 139 166 113 139 166 113 139 166 113 139 166 113 139 166 113 139 166 113 139 166 113 139 166 113 139 166 113 139 166 113 139 166 113 139 166 113 139 166 113 139 166 113 139 166 113 139 166 113 139 166 113 139 166 113 139 166 113 139 166 113 139 166 113 139 166 113 139 166 113 139 166 113 139 166 113 139 166 113 139 166 113 139 166 113 139 166 113 139 166 113 139 166 113 139 166 113 139 166 113 139 166 113 139 166 113 139 166 113 139 166 113 139 166 113 139 166 113 139 166 113 139 166 113 139 166 113 139 166 113 139 166 113 139 166 113 139 166 113 139 166 113 139 166 113 139 166 113 139 166 113 139 166 113 139 166 113 139 166 113 139 166 113 139 166 113 139 166 113 139 166 113 139 166 113 139 166 113 139 166 113 139 166 113 139 166 113 139 166 113 139 166 113 139 166 113 139 166 113 139 166 113 139 166 113 139 166 113 139 166 113 139 166 113 139 166 113 139 166 113 139 166 113 139 166 113 139 166 113 139 166 113 139 166 113 139 166 113 139 166 113 139 166 113 139 166 113 139 166 113 139 166 113 139 166
113 139 166 113 139 166 113 139 166 113 139 166 113 139 166 113 139 166 113 139 166 113 139 166 113 139 166 113 139 166 113 139 166 113 139 166 113 139 166 113 139 166 113 139 166 113 139 166 113 139 166 113 139 166 113 139 166 113 139 166 113 139 166 113 139 166 113 139 166 113 139 166 113 139 166 113 139 166 113 139 166 113 139 166 113 139 166 113 139 166 113 139 166 113 139 166 113 139 166 113 139 166 113 139 166 113 139 166 113 139 166 113 139 166 113 139 166 113 139 166 113 139 166 113 139 166 113 139 166 113 139 166 113 139 166 113 139 166 113 139 166 113 139 166 113 139 166 113 139 166 113 139 166 113 139 166 113 139 166 113 139 166 113 139 166 113 139 166 113 139 166 113 139 166 113 139 166 113 139 166 113 139 166 113 139 166 113 139 166 113 139 166 113 139 166 113 139 166 113 139 166 113 139 166 113 139 166 113 139 166 113 139 166 113 139 166 113 139 166 113 139 166 113 139 166 113 139 166 113 139 166 113 139 166 113 139 166 113 139 166 113 139 166 113 139 166 113 139 166 113 139 166 113 139 166 113 139 166 113 139 166 113 139 166 113 139 166 113 139 166 113 139 166 113 139 166 113 139 166 113 139 166 113 139 166 113 139 166 113 139 166 113 139 166 113 139 166 113 139 166 113 139 166 113 139 166 113 139 166 113 139 166 113 139 166 113 139 166 113 139 166 113 139 166 113 139 166 113 139 166 113 139 166 113 139 166 113 139 166 113 139 166 113 139 166 113 139 166 113 139 166 113 139 166 113 139 166 113 139 166 113 139 166 113 139 166 113 139 166 113 139 166 113 139 166 113 139 166 113 139 166 113 139 166 113 139 166 113 139 166 113 139 166 113 139 166 113 139 166 113 139 166 113 139 166 113 139 166 113 139 166 113 139 166 113 139 166 113 139 166 113 139 166 113 139 166 113 139 166 113 139 166 113 139 166 113 139 166 113 139 166 113 139 166 113 139 166 113 139 166 113 139 166 113 139 166 113 139 166 113 139 166 113 139 166 113 139 166 113 139 166 113 139 166 113 139 166 113 139 166 113 139 166 113 139 166 113 139 166 113 139 166 113 139 166 113 139 166 113 139 166 113 139 166 113 139 166 113 139 166 113 139 166 113 139 166 113 139 166 113 139 166 113 139 166 113 139 166 113 139 166 113 139 166 113 139 166 113 139 166 113 139 166 113 139 166 113 139 166 113 139 166 113 139 166 113 139 166 113 139 166 113 139 166 113 139 166 113 139 166 113 139 166 113 139 166 113 139 166 113 139 166 113 139 166 113 139 166 113 139 166 113 139 166 113 139 166 113 139 166 113 139 166 113 139 166 113 139 166 113 139 166 113 139 166 113 139 166 113 139 166 113 139 166 113 139 166 113 139 166 113 139 166 113 139 166 113 139 166 113 139 166 113 139 166 113 139 166 113 139 166 113 139 166 113 139 166 113 139 166 113 139 166 113 139 166 113 139 166 113 139 166 113 139 166 113 139 166 113 139 166 113 139 166 113 139 166 113 139 166 113 139 166 113 139 166 113 139 166 113 139 166 113 139 166 113 139 166 113 139 166 113 139 166 113 139 166 113 139 166
113 139 166 113 139 166 113 139 166 113 139 166 113 139 166 113 139 166 113 139 166 113 139 166 113 139 166 113 139 166 113 139 166 113 139 166 113 139 166 113 139 166 113 139 166 113 139 166 113 139 166 113 139 166 113 139 166 113 139 166 113 139 166 113 139 166 113 139 166 113 139 166 113 139 166 113 139 166 113 139 166 113 139 166 113 139 166 113 139 166 113 139 166 113 139 166 113 139 166 113 139 166 113 139 166 113 139 166 113 139 166 113 139 166 113 139 166 113 139 166 113 139 166 113 139 166 113 139 166 113 139 166 113 139 166 113 139 166 113 139 166 113 139 166 113 139 166 113 139 166 113 139 166 113 139 166 113 139 166 113 139 166 113 139 166 113 139 166 113 139 166 113 139 166 113 139 166 113 139 166 113 139 166 113 139 166 113 139 166 113 139 166 113 139 166 113 139 166 113 139 166 113 139 166 113 139 166 113 139 166 113 139 166 113 139 166 113 139 166 113 139 166 113 139 166 113 139 166 113 139 166 113 139 166 113 139 166 113 139 166 113 139 166 113 139 166 113 139 166 113 139 166 113 139 166 113 139 166 113 139 166 113 139 166 113 139 166 113 139 166 113 139 166 113 139 166 113 139 166 113 139 166 113 139 166 113 139 166 113 139 166 113 139 166 113 139 166 113 139 166 113 139 166 113 139 166 113 139 166 113 139 166 113 139 166 113 139 166 113 139 166 113 139 166 113 139 166 113 139 166 113 139 166 113 139 166 113 139 166 113 139 166 113 139 166 113 139 166 113 139 166 113 139 166 113 139 166 113 139 166 113 139 166 113 139 166 113 139 166 113 139 166 113 139 166 113 139 166 113 139 166 113 139 166 113 139 166 113 139 166 113 139 166 113 139 166 113 139 166 113 139 166 113 139 166 113 139 166 113 139 166 113 139 166 113 139 166 113 139 166 113 139 166 113 139 166 113 139 166 113 139 166 113 139 166 113 139 166 113 139 166 113 139 166 113 139 166 113 139 166 113 139 166 113 139 166 113 139 166 113 139 166 113 139 166 113 139 166 113 139 166 113 139 166 113 139 166 113 139 166 113 139 166 113 139 166 113 139 166 113 139 166 113 139 166 113 139 166 113 139 166 113 139 166 113 139 166 113 139 166 113 139 166 113 139 166 113 139 166 113 139 166 113 139 166 113 139 166 113 139 166 113 139 166 113 139 166 113 139 166 113 139 166 113 139 166 113 139 166 113 139 166 113 139 166 113 139 166 113 139 166 113 139 166 113 139 166 113 139 166 113 139 166 113 139 166 113 139 166 113 139 166 113 139 166 113 139 166 113 139 166 113 139 166 113 139 166 113 139 166 113 139 166 113 139 166 113 139 166 113 139 166 113 139 166 113 139 166 113 139 166 113 139 166 113 139 166 113 139 166 113 139 166 113 139 166 113 139 166 113 139 166 113 139 166 113 139 166 113 139 166 113 139 166 113 139 166 113 139 166 113 139 166 113 139 166 113 139 166 113 139 166 113 139 166 113 139 166 113 139 166 113 139 166 113 139 166 113 139 166 113 139 166 113 139 166 113 139 166 113 139 166 113 139 166 113 139 166 113 139 166 113 139 166 113 139 166 113 139 166
113 139 166 113 139 166 113 139 166 113 139 166 113 139 166 113 139 166 113 139 166 113 139 166 113 139 166 113 139 166 113 139 166 113 139 166 113 139 166 113 139 166 113 139 166 113 139 166 113 139 166 113 139 166 113 139 166 113 139 166 113 139 166 113 139 166 113 139 166 113 139 166 113 139 166 113 139 166 113 139 166 113 139 166 113 139 166 113 139 166 113 139 166 113 139 166 113 139 166 113 139 166 113 139 166 113 139 166 113 139 166 113 139 166 113 139 166 113 139 166 113 139 166 113 139 166 113 139 166 113 139 166 113 139 166 113 139 166 113 139 166 113 139 166 113 139 166 113 139 166 113 139 166 113 139 166 113 139 166 113 139 166 113 139 166 113 139 166 113 139 166 113 139 166 113 139 166 113 139 166 113 139 166 113 139 166 113 139 166 113 139 166 113 139 166 113 139 166 113 139 166 113 139 166 113 139 166 113 139 166 113 139 166 113 139 166 113 139 166 113 139 166 113 139 166 113 139 166 113 139 166 113 139 166 113 139 166 113 139 166 113 139 166 113 139 166 113 139 166 113 139 166 113 139 166 113 139 166 113 139 166 113 139 166 113 139 166 113 139 166 113 139 166 113 139 166 113 139 166 113 139 166 113 139 166 113 139 166 113 139 166 113 139 166 113 139 166 113 139 166 113 139 166 113 139 166 113 139 166 113 139 166 113 139 166 113 139 166 113 139 166 113 139 166 113 139 166 113 139 166 113 139 166 113 139 166 113 139 166 113 139 166 113 139 166 113 139 166 113 139 166 113 139 166 113 139 166 113 139 166 113 139 166 113 139 166 113 139 166 113 139 166 113 139 166 113 139 166 113 139 166 113 139 166 113 139 166 113 139 166 113 139 166 113 139 166 113 139 166 113 139 166 113 139 166 113 139 166 113 139 166 113 139 166 113 139 166 113 139 166 113 139 166 113 139 166 113 139 166 113 139 166 113 139 166 113 139 166 113 139 166 113 139 166 113 139 166 113 139 166 113 139 166 113 139 166 113 139 166 113 139 166 113 139 166 113 139 166 113 139 166 113 139 166 113 139 166 113 139 166 113 139 166 113 139 166 113 139 166 113 139 166 113 139 166 113 139 166 113 139 166 113 139 166 113 139 166 113 139 166 113 139 166 113 139 166 113 139 166 113 139 166 113 139 166 113 139 166 113 139 166 113 139 166 113 139 166 113 139 166 113 139 166 113 139 166 113 139 166 113 139 166 113 139 166 113 139 166 113 139 166 113 139 166 113 139 166 113 139 166 113 139 166 113 139 166 113 139 166 113 139 166 113 139 166 113 139 166 113 139 166 113 139 166 113 139 166 113 139 166 113 139 166 113 139 166 113 139 166 113 139 166 113 139 166 113 139 166 113 139 166 113 139 166 113 139 166 113 139 166 113 139 166 113 139 166 113 139 166 113 139 166 113 139 166 113 139 166 113 139 166 113 139 166 113 139 166 113 139 166 113 139 166 113 139 166 113 139 166 113 139 166 113 139 166 113 139 166 113 139 166 113 139 166 113 139 166 113 139 166 113 139 166 113 139 166 113 139 166 113 139 166 113 139 166 113 139 166 113 139 166 113 139 166 113 139 166 113 139 166
113 139 166 113 139 166 113 139 166 113 139 166 113 139 166 113 139 166 113 139 166 113 139 166 113 139 166 113 139 166 113 139 166 113 139 166 113 139 166 113 139 166 113 139 166 113 139 166 113 139 166 113 139 166 113 139 166 113 139 166 113 139 166 113 139 166 113 139 166 113 139 166 113 139 166 113 139 166 113 139 166 113 139 166 113 139 166 113 139 166 113 139 166 113 139 166 113 139 166 113 139 166 113 139 166 113 139 166 113 139 166 113 139 166 113 139 166 113 139 166 113 139 166 113 139 166 113 139 166 113 139 166 113 139 166 113 139 166 113 139 166 113 139 166 113 139 166 113 139 166 113 139 166 113 139 166 113 139 166 113 139 166 113 139 166 113 139 166 113 139 166 113 139 166 113 139 166 113 139 166 113 139 166 113 139 166 113 139 166 113 139 166 113 139 166 113 139 166 113 139 166 113 139 166 113 139 166 113 139 166 113 139 166 113 139 166 113 139 166 113 139 166 113 139 166 113 139 166 113 139 166 113 139 166 113 139 166 113 139 166 113 139 166 113 139 166 113 139 166 113 139 166 113 139 166 113 139 166 113 139 166 113 139 166 113 139 166 113 139 166 113 139 166 113 139 166 113 139 166 113 139 166 113 139 166 113 139 166 113 139 166 113 139 166 113 139 166 113 139 166 113 139 166 113 139 166 113 139 166 113 139 166 113 139 166 113 139 166 113 139 166 113 139 166 113 139 166 113 139 166 113 139 166 113 139 166 113 139 166 113 139 166 113 139 166 113 139 166 113 139 166 113 139 166 113 139 166 113 139 166 113 139 166 113 139 166 113 139 166 113 139 166 113 139 166 113 139 166 113 139 166 113 139 166 113 139 166 113 139 166 113 139 166 113 139 166 113 139 166 113 139 166 113 139 166 113 139 166 113 139 166 113 139 166 113 139 166 113 139 166 113 139 166 113 139 166 113 139 166 113 139 166 113 139 166 113 139 166 113 139 166 113 139 166 113 139 166 113 139 166 113 139 166 113 139 166 113 139 166 113 139 166 113 139 166 113 139 166 113 139 166 113 139 166 113 139 166 113 139 166 113 139 166 113 139 166 113 139 166 113 139 166 113 139 166 113 139 166 113 139 166 113 139 166 113 139 166 113 139 166 113 139 166 113 139 166 113 139 166 113 139 166 113 139 166 113 139 166 113 139 166 113 139 166 113 139 166 113 139 166 113 139 166 113 139 166 113 139 166 113 139 166 113 139 166 113 139 166 113 139 166 113 139 166 113 139 166 113 139 166 113 139 166 113 139 166 113 139 166 113 139 166 113 139 166 113 139 166 113 139 166 113 139 166 113 139 166 113 139 166 113 139 166 113 139 166 113 139 166 113 139 166 113 139 166 113 139 166 113 139 166 113 139 166 113 139 166 113 139 166 113 139 166 113 139 166 113 139 166 113 139 166 113 139 166 113 139 166 113 139 166 113 139 166 113 139 166 113 139 166 113 139 166 113 139 166 113 139 166 113 139 166 113 139 166 113 139 166 113 139 166 113 139 166 113 139 166 113 139 166 113 139 166 113 139 166 113 139 166 113 139 166 113 139 166 113 139 166 113 139 166 113 139 166 113 139 166 113 139 166
113 139 166 113 139 166 113 139 166 113 139 166 113 139 166 113 139 166 113 139 166 113 139 166 113 139 166 113 139 166 113 139 166 113 139 166 113 139 166 113 139 166 113 139 166 113 139 166 113 139 166 113 139 166 113 139 166 113 139 166 113 139 166 113 139 166 113 139 166 113 139 166 113 139 166 113 139 166 113 139 166 113 139 166 113 139 166 113 139 166 113 139 166 113 139 166 113 139 166 113 139 166 113 139 166 113 139 166 113 139 166 113 139 166 113 139 166 113 139 166 113 139 166 113 139 166 113 139 166 113 139 166 113 139 166 113 139 166 113 139 166 113 139 166 113 139 166 113 139 166 113 139 166 113 139 166 113 139 166 113 139 166 113 139 166 113 139 166 113 139 166 113 139 166 113 139 166 113 139 166 113 139 166 113 139 166 113 139 166 113 139 166 113 139 166 113 139 166 113 139 166 113 139 166 113 139 166 113 139 166 113 139 166 113 139 166 113 139 166 113 139 166 113 139 166 113 139 166 113 139 166 113 139 166 113 139 166 113 139 166 113 139 166 113 139 166 113 139 166 113 139 166 113 139 166 113 139 166 113 139 166 113 139 166 113 139 166 113 139 166 113 139 166 113 139 166 113 139 166 113 139 166 113 139 166 113 139 166 113 139 166 113 139 166 113 139 166 113 139 166 113 139 166 113 139 166 113 139 166 113 139 166 113 139 166 113 139 166 113 139 166 113 139 166 113 139 166 113 139 166 113 139 166 113 139 166 113 139 166 113 139 166 113 139 166 113 139 166 113 139 166 113 139 166 113 139 166 113 139 166 113 139 166 113 139 166 113 139 166 113 139 166 113 139 166 113 139 166 113 139 166 113 139 166 113 139 166 113 139 166 113 139 166 113 139 166 113 139 166 113 139 166 113 139 166 113 139 166 113 139 166 113 139 166 113 139 166 113 139 166 113 139 166 113 139 166 113 139 166 113 139 166 113 139 166 113 139 166 113 139 166 113 139 166 113 139 166 113 139 166 113 139 166 113 139 166 113 139 166 113 139 166 113 139 166 113 139 166 113 139 166 113 139 166 113 139 166 113 139 166 113 139 166 113 139 166 113 139 166 113 139 166 113 139 166 113 139 166 113 139 166 113 139 166 113 139 166 113 139 166 113 139 166 113 139 166 113 139 166 113 139 166 113 139 166 113 139 166 113 139 166 113 139 166 113 139 166 113 139 166 113 139 166 113 139 166 113 139 166 113 139 166 113 139 166 113 139 166 113 139 166 113 139 166 113 139 166 113 139 166 113 139 166 113 139 166 113 139 166 113 139 166 113 139 166 113 139 166 113 139 166 113 139 166 113 139 166 113 139 166 113 139 166 113 139 166 113 139 166 113 139 166 113 139 166 113 139 166 113 139 166 113 139 166 113 139 166 113 139 166 113 139 166 113 139 166 113 139 166 113 139 166 113 139 166 113 139 166 113 139 166 113 139 166 113 139 166 113 139 166 113 139 166 113 139 166 113 139 166 113 139 166 113 139 166 113 139 166 113 139 166 113 139 166 113 139 166 113 139 166 113 139 166 113 139 166 113 139 166 113 139 166 113 139 166 113 139 166 113 139 166 113 139 166 113 139 166 113 139 166
113 139 166 113 139 166 113 139 166 113 139 166 113 139 166 113 139 166 113 139 166 113 139 166 113 139 166 113 139 166 113 139 166 113 139 166 113 139 166 113 139 166 113 139 166 113 139 166 113 139 166 113 139 166 113 139 166 113 139 166 113 139 166 113 139 166 113 139 166 113 139 166 113 139 166 113 139 166 113 139 166 113 139 166 113 139 166 113 139 166 113 139 166 113 139 166 113 139 166 113 139 166 113 139 166 113 139 166 113 139 166 113 139 166 113 139 166 113 139 166 113 139 166 113 139 166 113 139 166 113 139 166 113 139 166 113 139 166 113 139 166 113 139 166 113 139 166 113 139 166 113 139 166 113 139 166 113 139 166 113 139 166 113 139 166 113 139 166 113 139 166 113 139 166 113 139 166 113 139 166 113 139 166 113 139 166 113 139 166 113 139 166 113 139 166 113 139 166 113 139 166 113 139 166 113 139 166 113 139 166 113 139 166 113 139 166 113 139 166 113 139 166 113 139 166 113 139 166 113 139 166 113 139 166 113 139 166 113 139 166 113 139 166 113 139 166 113 139 166 113 139 166 113 139 166 113 139 166 113 139 166 113 139 166 113 139 166 113 139 166 113 139 166 113 139 166 113 139 166 113 139 166 113 139 166 113 139 166 113 139 166 113 139 166 113 139 166 113 139 166 113 139 166 113 139 166 113 139 166 113 139 166 113 139 166 113 139 166 113 139 166 113 139 166 113 139 166 113 139 166 113 139 166 113 139 166 113 139 166 113 139 166 113 139 166 113 139 166 113 139 166 113 139 166 113 139 166 113 139 166 113 139 166 113 139 166 113 139 166 113 139 166 113 139 166 113 139 166 113 139 166 113 139 166 113 139 166 113 139 166 113 139 166 113 139 166 113 139 166 113 139 166 113 139 166 113 139 166 113 139 166 113 139 166 113 139 166 113 139 166 113 139 166 113 139 166 113 139 166 113 139 166 113 139 166 113 139 166 113 139 166 113 139 166 113 139 166 113 139 166 113 139 166 113 139 166 113 139 166 113 139 166 113 139 166 113 139 166 113 139 166 113 139 166 113 139 166 113 139 166 113 139 166 113 139 166 113 139 166 113 139 166 113 139 166 113 139 166 113 139 166 113 139 166 113 139 166 113 139 166 113 139 166 113 139 166 113 139 166 113 139 166 113 139 166 113 139 166 113 139 166 113 139 166 113 139 166 113 139 166 113 139 166 113 139 166 113 139 166 113 139 166 113 139 166 113 139 166 113 139 166 113 139 166 113 139 166 113 139 166 113 139 166 113 139 166 113 139 166 113 139 166 113 139 166 113 139 166 113 139 166 113 139 166 113 139 166 113 139 166 113 139 166 113 139 166 113 139 166 113 139 166 113 139 166 113 139 166 113 139 166 113 139 166 113 139 166 113 139 166 113 139 166 113 139 166 113 139 166 113 139 166 113 139 166 113 139 166 113 139 166 113 139 166 113 139 166 113 139 166 113 139 166 113 139 166 113 139 166 113 139 166 113 139 166 113 139 166 113 139 166 113 139 166 113 139 166 113 139 166 113 139 166 113 139 166 113 139 166 113 139 166 113 139 166 113 139 166 113 139 166 113 139 166 113 139 166 113 139 166
113 139 166 113 139 166 113 139 166 113 139 166 113 139 166 113 139 166 113 139 166 113 139 166 113 139 166 113 139 166 113 139 166 113 139 166 113 139 166 113 139 166 113 139 166 113 139 166 113 139 166 113 139 166 113 139 166 113 139 166 113 139 166 113 139 166 113 139 166 113 139 166 113 139 166 113 139 166 113 139 166 113 139 166 113 139 166 113 139 166 113 139 166 113 139 166 113 139 166 113 139 166 113 139 166 113 139 166 113 139 166 113 139 166 113 139 166 113 139 166 113 139 166 113 139 166 113 139 166 113 139 166 113 139 166 113 139 166 113 139 166 113 139 166 113 139 166 113 139 166 113 139 166 113 139 166 113 139 166 113 139 166 113 139 166 113 139 166 113 139 166 113 139 166 113 139 166 113 139 166 113 139 166 113 139 166 113 139 166 113 139 166 113 139 166 113 139 166 113 139 166 113 139 166 113 139 166 113 139 166 113 139 166 113 139 166 113 139 166 113 139 166 113 139 166 113 139 166 113 139 166 113 139 166 113 139 166 113 139 166 113 139 166 113 139 166 113 139 166 113 139 166 113 139 166 113 139 166 113 139 166 113 139 166 113 139 166 113 139 166 113 139 166 113 139 166 113 139 166 113 139 166 113 139 166 113 139 166 113 139 166 113 139 166 113 139 166 113 139 166 113 139 166 113 139 166 113 139 166 113 139 166 113 139 166 113 139 166 113 139 166 113 139 166 113 139 166 113 139 166 113 139 166 113 139 166 113 139 166 113 139 166 113 139 166 113 139 166 113 139 166 113 139 166 113 139 166 113 139 166 113 139 166 113 139 166 113 139 166 113 139 166 113 139 166 113 139 166 113 139 166 113 139 166 113 139 166 113 139 166 113 139 166 113 139 166 113 139 166 113 139 166 113 139 166 113 139 166 113 139 166 113 139 166 113 139 166 113 139 166 113 139 166 113 139 166 113 139 166 113 139 166 113 139 166 113 139 166 113 139 166 113 139 166 113 139 166 113 139 166 113 139 166 113 139 166 113 139 166 113 139 166 113 139 166 113 139 166 113 139 166 113 139 166 113 139 166 113 139 166 113 139 166 113 139 166 113 139 166 113 139 166 113 139 166 113 139 166 113 139 166 113 139 166 113 139 166 113 139 166 113 139 166 113 139 166 113 139 166 113 139 166 113 139 166 113 139 166 113 139 166 113 139 166 113 139 166 113 139 166 113 139 166 113 139 166 113 139 166 113 139 166 113 139 166 113 139 166 113 139 166 113 139 166 113 139 166 113 139 166 113 139 166 113 139 166 113 139 166 113 139 166 113 139 166 113 139 166 113 139 166 113 139 166 113 139 166 113 139 166 113 139 166 113 139 166 113 139 166 113 139 166 113 139 166 113 139 166 113 139 166 113 139 166 113 139 166 113 139 166 113 139 166 113 139 166 113 139 166 113 139 166 113 139 166 113 139 166 113 139 166 113 139 166 113 139 166 113 139 166 113 139 166 113 139 166 113 139 166 113 139 166 113 139 166 113 139 166 113 139 166 113 139 166 113 139 166 113 139 166 113 139 166 113 139 166 113 139 166 113 139 166 113 139 166 113 139 166 113 139 166 113 139 166 113 139 166 113 139 166
113 139 166 113 139 166 113 139 166 113 139 166 113 139 166 113 139 166 113 139 166 113 139 166 113 139 166 113 139 166 113 139 166 113 139 166 113 139 166 113 139 166 113 139 166 113 139 166 113 139 166 113 139 166 113 139 166 113 139 166 113 139 166 113 139 166 113 139 166 113 139 166 113 139 166 113 139 166 113 139 166 113 139 166 113 139 166 113 139 166 113 139 166 113 139 166 113 139 166 113 139 166 113 139 166 113 139 166 113 139 166 113 139 166 113 139 166 113 139 166 113 139 166 113 139 166 113 139 166 113 139 166 113 139 166 113 139 166 113 139 166 113 139 166 113 139 166 113 139 166 113 139 166 113 139 166 113 139 166 113 139 166 113 139 166 113 139 166 113 139 166 113 139 166 113 139 166 113 139 166 113 139 166 113 139 166 113 139 166 113 139 166 113 139 166 113 139 166 113 139 166 113 139 166 113 139 166 113 139 166 113 139 166 113 139 166 113 139 166 113 139 166 113 139 166 113 139 166 113 139 166 113 139 166 113 139 166 113 139 166 113 139 166 113 139 166 113 139 166 113 139 166 113 139 166 113 139 166 113 139 166 113 139 166 113 139 166 113 139 166 113 139 166 113 139 166 113 139 166 113 139 166 113 139 166 113 139 166 113 139 166 113 139 166 113 139 166 113 139 166 113 139 166 113 139 166 113 139 166 113 139 166 113 139 166 113 139 166 113 139 166 113 139 166 113 139 166 113 139 166 113 139 166 113 139 166 113 139 166 113 139 166 113 139 166 113 139 166 113 139 166 113 139 166 113 139 166 113 139 166 113 139 166 113 139 166 113 139 166 113 139 166 113 139 166 113 139 166 113 139 166 113 139 166 113 139 166 113 139 166 113 139 166 113 139 166 113 139 166 113 139 166 113 139 166 113 139 166 113 139 166 113 139 166 113 139 166 113 139 166 113 139 166 113 139 166 113 139 166 113 139 166 113 139 166 113 139 166 113 139 166 113 139 166 113 139 166 113 139 166 113 139 166 113 139 166 113 139 166 113 139 166 113 139 166 113 139 166 113 139 166 113 139 166 113 139 166 113 139 166 113 139 166 113 139 166 113 139 166 113 139 166 113 139 166 113 139 166 113 139 166 113 139 166 113 139 166 113 139 166 113 139 166 113 139 166 113 139 166 113 139 166 113 139 166 113 139 166 113 139 166 113 139 166 113 139 166 113 139 166 113 139 166 113 139 166 113 139 166 113 139 166 113 139 166 113 139 166 113 139 166 113 139 166 113 139 166 113 139 166 113 139 166 113 139 166 113 139 166 113 139 166 113 139 166 113 139 166 113 139 166 113 139 166 113 139 166 113 139 166 113 139 166 113 139 166 113 139 166 113 139 166 113 139 166 113 139 166 113 139 166 113 139 166 113 139 166 113 139 166 113 139 166 113 139 166 113 139 166 113 139 166 113 139 166 113 139 166 113 139 166 113 139 166 113 139 166 113 139 166 113 139 166 113 139 166 113 139 166 113 139 166 113 139 166 113 139 166 113 139 166 113 139 166 113 139 166 113 139 166 113 139 166 113 139 166 113 139 166 113 139 166 113 139 166 113 139 166 113 139 166 113 139 166 113 139 166 113 139 166
113 139 166 113 139 166 113 139 166 113 139 166 113 139 166 113 139 166 113 139 166 113 139 166 113 139 166 113 139 166 113 139 166 113 139 166 113 139 166 113 139 166 113 139 166 113 139 166 113 139 166 113 139 166 113 139 166 113 139 166 113 139 166 113 139 166 113 139 166 113 139 166 113 139 166 113 139 166 113 139 166 113 139 166 113 139 166 113 139 166 113 139 166 113 139 166 113 139 166 113 139 166 113 139 166 113 139 166 113 139 166 113 139 166 113 139 166 113 139 166 113 139 166 113 139 166 113 139 166 113 139 166 113 139 166 113 139 166 113 139 166 113 139 166 113 139 166 113 139 166 113 139 166 113 139 166 113 139 166 113 139 166 113 139 166 113 139 166 113 139 166 113 139 166 113 139 166 113 139 166 113 139 166 113 139 166 113 139 166 113 139 166 113 139 166 113 139 166 113 139 166 113 139 166 113 139 166 113 139 166 113 139 166 113 139 166 113 139 166 113 139 166 113 139 166 113 139 166 113 139 166 113 139 166 113 139 166 113 139 166 113 139 166 113 139 166 113 139 166 113 139 166 113 139 166 113 139 166 113 139 166 113 139 166 113 139 166 113 139 166 113 139 166 113 139 166 113 139 166 113 139 166 113 139 166 113 139 166 113 139 166 113 139 166 113 139 166 113 139 166 113 139 166 113 139 166 113 139 166 113 139 166 113 139 166 113 139 166 113 139 166 113 139 166 113 139 166 113 139 166 113 139 166 113 139 166 113 139 166 113 139 166 113 139 166 113 139 166 113 139 166 113 139 166 113 139 166 113 139 166 113 139 166 113 139 166 113 139 166 113 139 166 113 139 166 113 139 166 113 139 166 113 139 166 113 139 166 113 139 166 113 139 166 113 139 166 113 139 166 113 139 166 113 139 166 113 139 166 113 139 166 113 139 166 113 139 166 113 139 166 113 139 166 113 139 166 113 139 166 113 139 166 113 139 166 113 139 166 113 139 166 113 139 166 113 139 166 113 139 166 113 139 166 113 139 166 113 139 166 113 139 166 113 139 166 113 139 166 113 139 166 113 139 166 113 139 166 113 139 166 113 139 166 113 139 166 113 139 166 113 139 166 113 139 166 113 139 166 113 139 166 113 139 166 113 139 166 113 139 166 113 139 166 113 139 166 113 139 166 113 139 166 113 139 166 113 139 166 113 139 166 113 139 166 113 139 166 113 139 166 113 139 166 113 139 166 113 139 166 113 139 166 113 139 166 113 139 166 113 139 166 113 139 166 113 139 166 113 139 166 113 139 166 113 139 166 113 139 166 113 139 166 113 139 166 113 139 166 113 139 166 113 139 166 113 139 166 113 139 166 113 139 166 113 139 166 113 139 166 113 139 166 113 139 166 113 139 166 113 139 166 113 139 166 113 139 166 113 139 166 113 139 166 113 139 166 113 139 166 113 139 166 113 139 166 113 139 166 113 139 166 113 139 166 113 139 166 113 139 166 113 139 166 113 139 166 113 139 166 113 139 166 113 139 166 113 139 166 113 139 166 113 139 166 113 139 166 113 139 166 113 139 166 113 139 166 113 139 166 113 139 166 113 139 166 113 139 166 113 139 166 113 139 166 113 139 166 113 139 166
113 139 166 113 139 166 113 139 166 113 139 166 113 139 166 113 139 166 113 139 166 113 139 166 113 139 166 113 139 166 113 139 166 113 139 166 113 139 166 113 139 166 113 139 166 113 139 166 113 139 166 113 139 166 113 139 166 113 139 166 113 139 166 113 139 166 113 139 166 113 139 166 113 139 166 113 139 166 113 139 166 113 139 166 113 139 166 113 139 166 113 139 166 113 139 166 113 139 166 113 139 166 113 139 166 113 139 166 113 139 166 113 139 166 113 139 166 113 139 166 113 139 166 113 139 166 113 139 166 113 139 166 113 139 166 113 139 166 113 139 166 113 139 166 113 139 166 113 139 166 113 139 166 113 139 166 113 139 166 113 139 166 113 139 166 113 139 166 113 139 166 113 139 166 113 139 166 113 139 166 113 139 166 113 139 166 113 139 166 113 139 166 113 139 166 113 139 166 113 139 166 113 139 166 113 139 166 113 139 166 113 139 166 113 139 166 113 139 166 113 139 166 113 139 166 113 139 166 113 139 166 113 139 166 113 139 166 113 139 166 113 139 166 113 139 166 113 139 166 113 139 166 113 139 166 113 139 166 113 139 166 113 139 166 113 139 166 113 139 166 113 139 166 113 139 166 113 139 166 113 139 166 113 139 166 113 139 166 113 139 166 113 139 166 113 139 166 113 139 166 113 139 166 113 139 166 113 139 166 113 139 166 113 139 166 113 139 166 113 139 166 113 139 166 113 139 166 113 139 166 113 139 166 113 139 166 113 139 166 113 139 166 113 139 166 113 139 166 113 139 166 113 139 166 113 139 166 113 139 166 113 139 166 113 139 166 113 139 166 113 139 166 113 139 166 113 139 166 113 139 166 113 139 166 113 139 166 113 139 166 113 139 166 113 139 166 113 139 166 113 139 166 113 139 166 113 139 166 113 139 166 113 139 166 113 139 166 113 139 166 113 139 166 113 139 166 113 139 166 113 139 166 113 139 166 113 139 166 113 139 166 113 139 166 113 139 166 113 139 166 113 139 166 113 139 166 113 139 166 113 139 166 113 139 166 113 139 166 113 139 166 113 139 166 113 139 166 113 139 166 113 139 166 113 139 166 113 139 166 113 139 166 113 139 166 113 139 166 113 139 166 113 139 166 113 139 166 113 139 166 113 139 166 113 139 166 113 139 166 113 139 166 113 139 166 113 139 166 113 139 166 113 139 166 113 139 166 113 139 166 113 139 166 113 139 166 113 139 166 113 139 166 113 139 166 113 139 166 113 139 166 113 139 166 113 139 166 113 139 166 113 139 166 113 139 166 113 139 166 113 139 166 113 139 166 113 139 166 113 139 166 113 139 166 113 139 166 113 139 166 113 139 166 113 139 166 113 139 166 113 139 166 113 139 166 113 139 166 113 139 166 113 139 166 113 139 166 113 139 166 113 139 166 113 139 166 113 139 166 113 139 166 113 139 166 113 139 166 113 139 166 113 139 166 113 139 166 113 139 166 113 139 166 113 139 166 113 139 166 113 139 166 113 139 166 113 139 166 113 139 166 113 139 166 113 139 166 113 139 166 113 139 166 113 139 166 113 139 166 113 139 166 113 139 166 113 139 166 113 139 166 113 139 166 113 139 166 113 139 166
113 139 166 113 139 166 113 139 166 113 139 166 113 139 166 113 139 166 113 139 166 113 139 166 113 139 166 113 139 166 113 139 166 113 139 166 113 139 166 113 139 166 113 139 166 113 139 166 113 139 166 113 139 166 113 139 166 113 139 166 113 139 166 113 139 166 113 139 166 113 139 166 113 139 166 113 139 166 113 139 166 113 139 166 113 139 166 113 139 166 113 139 166 113 139 166 113 139 166 113 139 166 113 139 166 113 139 166 113 139 166 113 139 166 113 139 166 113 139 166 113 139 166 113 139 166 113 139 166 113 139 166 113 139 166 113 139 166 113 139 166 113 139 166 113 139 166 113 139 166 113 139 166 113 139 166 113 139 166 113 139 166 113 139 166 113 139 166 113 139 166 113 139 166 113 139 166 113 139 166 113 139 166 113 139 166 113 139 166 113 139 166 113 139 166 113 139 166 113 139 166 113 139 166 113 139 166 113 139 166 113 139 166 113 139 166 113 139 166 113 139 166 113 139 166 113 139 166 113 139 166 113 139 166 113 139 166 113 139 166 113 139 166 113 139 166 113 139 166 113 139 166 113 139 166 113 139 166 113 139 166 113 139 166 113 139 166 113 139 166 113 139 166 113 139 166 113 139 166 113 139 166 113 139 166 113 139 166 113 139 166 113 139 166 113 139 166 113 139 166 113 139 166 113 139 166 113 139 166 113 139 166 113 139 166 113 139 166 113 139 166 113 139 166 113 139 166 113 139 166 113 139 166 113 139 166 113 139 166 113 139 166 113 139 166 113 139 166 113 139 166 113 139 166 113 139 166 113 139 166 113 139 166 113 139 166 113 139 166 113 139 166 113 139 166 113 139 166 113 139 166 113 139 166 113 139 166 113 139 166 113 139 166 113 139 166 113 139 166 113 139 166 113 139 166 113 139 166 113 139 166 113 139 166 113 139 166 113 139 166 113 139 166 113 139 166 113 139 166 113 139 166 113 139 166 113 139 166 113 139 166 113 139 166 113 139 166 113 139 166 113 139 166 113 139 166 113 139 166 113 139 166 113 139 166 113 139 166 113 139 166 113 139 166 113 139 166 113 139 166 113 139 166 113 139 166 113 139 166 113 139 166 113 139 166 113 139 166 113 139 166 113 139 166 113 139 166 113 139 166 113 139 166 113 139 166 113 139 166 113 139 166 113 139 166 113 139 166 113 139 166 113 139 166 113 139 166 113 139 166 113 139 166 113 139 166 113 139 166 113 139 166 113 139 166 113 139 166 113 139 166 113 139 166 113 139 166 113 139 166 113 139 166 113 139 166 113 139 166 113 139 166 113 139 166 113 139 166 113 139 166 113 139 166 113 139 166 113 139 166 113 139 166 113 139 166 113 139 166 113 139 166 113 139 166 113 139 166 113 139 166 113 139 166 113 139 166 113 139 166 113 139 166 113 139 166 113 139 166 113 139 166 113 139 166 113 139 166 113 139 166 113 139 166 113 139 166 113 139 166 113 139 166 113 139 166 113 139 166 113 139 166 113 139 166 113 139 166 113 139 166 113 139 166 113 139 166 113 139 166 113 139 166 113 139 166 113 139 166 113 139 166 113 139 166 113 139 166 113 139 166 113 139 166 113 139 166 113 139 166
113 139 166 113 139 166 113 139 166 113 139 166 113 139 166 113 139 166 113 139 166 113 139 166 113 139 166 113 139 166 113 139 166 113 139 166 113 139 166 113 139 166 113 139 166 113 139 166 113 139 166 113 139 166 113 139 166 113 139 166 113 139 166 113 139 166 113 139 166 113 139 166 113 139 166 113 139 166 113 139 166 113 139 166 113 139 166 113 139 166 113 139 166 113 139 166 113 139 166 113 139 166 113 139 166 113 139 166 113 139 166 113 139 166 113 139 166 113 139 166 113 139 166 113 139 166 113 139 166 113 139 166 113 139 166 113 139 166 113 139 166 113 139 166 113 139 166 113 139 166 113 139 166 113 139 166 113 139 166 113 139 166 113 139 166 113 139 166 113 139 166 113 139 166 113 139 166 113 139 166 113 139 166 113 139 166 113 139 166 113 139 166 113 139 166 113 139 166 113 139 166 113 139 166 113 139 166 113 139 166 113 139 166 113 139 166 113 139 166 113 139 166 113 139 166 113 139 166 113 139 166 113 139 166 113 139 166 113 139 166 113 139 166 113 139 166 113 139 166 113 139 166 113 139 166 113 139 166 113 139 166 113 139 166 113 139 166 113 139 166 113 139 166 113 139 166 113 139 166 113 139 166 113 139 166 113 139 166 113 139 166 113 139 166 113 139 166 113 139 166 113 139 166 113 139 166 113 139 166 113 139 166 113 139 166 113 139 166 113 139 166 113 139 166 113 139 166 113 139 166 113 139 166 113 139 166 113 139 166 113 139 166 113 139 166 113 139 166 113 139 166 113 139 166 113 139 166 113 139 166 113 139 166 113 139 166 113 139 166 113 139 166 113 139 166 113 139 166 113 139 166 113 139 166 113 139 166 113 139 166 113 139 166 113 139 166 113 139 166 113 139 166 113 139 166 113 139 166 113 139 166 113 139 166 113 139 166 113 139 166 113 139 166 113 139 166 113 139 166 113 139 166 113 139 166 113 139 166 113 139 166 113 139 166 113 139 166 113 139 166 113 139 166 113 139 166 113 139 166 113 139 166 113 139 166 113 139 166 113 139 166 113 139 166 113 139 166 113 139 166 113 139 166 113 139 166 113 139 166 113 139 166 113 139 166 113 139 166 113 139 166 113 139 166 113 139 166 113 139 166 113 139 166 113 139 166 113 139 166 113 139 166 113 139 166 113 139 166 113 139 166 113 139 166 113 139 166 113 139 166 113 139 166 113 139 166 113 139 166 113 139 166 113 139 166 113 139 166 113 139 166 113 139 166 113 139 166 113 139 166 113 139 166 113 139 166 113 139 166 113 139 166 113 139 166 113 139 166 113 139 166 113 139 166 113 139 166 113 139 166 113 139 166 113 139 166 113 139 166 113 139 166 113 139 166 113 139 166 113 139 166 113 139 166 113 139 166 113 139 166 113 139 166 113 139 166 113 139 166 113 139 166 113 139 166 113 139 166 113 139 166 113 139 166 113 139 166 113 139 166 113 139 166 113 139 166 113 139 166 113 139 166 113 139 166 113 139 166 113 139 166 113 139 166 113 139 166 113 139 166 113 139 166 113 139 166 113 139 166 113 139 166 113 139 166 113 139 166 113 139 166 113 139 166 113 139 166 113 139 166
113 139 166 113 139 166 113 139 166 113 139 166 113 139 166 113 139 166 113 139 166 113 139 166 113 139 166 113 139 166 113 139 166 113 139 166 113 139 166 113 139 166 113 139 166 113 139 166 113 139 166 113 139 166 113 139 166 113 139 166 113 139 166 113 139 166 113 139 166 113 139 166 113 139 166 113 139 166 113 139 166 113 139 166 113 139 166 113 139 166 113 139 166 113 139 166 113 139 166 113 139 166 113 139 166 113 139 166 113 139 166 113 139 166 113 139 166 113 139 166 113 139 166 113 139 166 113 139 166 113 139 166 113 139 166 113 139 166 113 139 166 113 139 166 113 139 166 113 139 166 113 139 166 113 139 166 113 139 166 113 139 166 113 139 166 113 139 166 113 139 166 113 139 166 113 139 166 113 139 166 113 139 166 113 139 166 113 139 166 113 139 166 113 139 166 113 139 166 113 139 166 113 139 166 113 139 166 113 139 166 113 139 166 113 139 166 113 139 166 113 139 166 113 139 166 113 139 166 113 139 166 113 139 166 113 139 166 113 139 166 113 139 166 113 139 166 113 139 166 113 139 166 113 139 166 113 139 166 113 139 166 113 139 166 113 139 166 113 139 166 113 139 166 113 139 166 113 139 166 113 139 166 113 139 166 113 139 166 113 139 166 113 139 166 113 139 166 113 139 166 113 139 166 113 139 166 113 139 166 113 139 166 113 139 166 113 139 166 113 139 166 113 139 166 113 139 166 113 139 166 113 139 166 113 139 166 113 139 166 113 139 166 113 139 166 113 139 166 113 139 166 113 139 166 113 139 166 113 139 166 113 139 166 113 139 166 113 139 166 113 139 166 113 139 166 113 139 166 113 139 166 113 139 166 113 139 166 113 139 166 113 139 166 113 139 166 113 139 166 113 139 166 113 139 166 113 139 166 113 139 166 113 139 166 113 139 166 113 139 166 113 139 166 113 139 166 113 139 166 113 139 166 113 139 166 113 139 166 113 139 166 113 139 166 113 139 166 113 139 166 113 139 166 113 139 166 113 139 166 113 139 166 113 139 166 113 139 166 113 139 166 113 139 166 113 139 166 113 139 166 113 139 166 113 139 166 113 139 166 113 139 166 113 139 166 113 139 166 113 139 166 113 139 166 113 139 166 113 139 166 113 139 166 113 139 166 113 139 166 113 139 166 113 139 166 113 139 166 113 139 166 113 139 166 113 139 166 113 139 166 113 139 166 113 139 166 113 139 166 113 139 166 113 139 166 113 139 166 113 139 166 113 139 166 113 139 166 113 139 166 113 139 166 113 139 166 113 139 166 113 139 166 113 139 166 113 139 166 113 139 166 113 139 166 113 139 166 113 139 166 113 139 166 113 139 166 113 139 166 113 139 166 113 139 166 113 139 166 113 139 166 113 139 166 113 139 166 113 139 166 113 139 166 113 139 166 113 139 166 113 139 166 113 139 166 113 139 166 113 139 166 113 139 166 113 139 166 113 139 166 113 139 166 113 139 166 113 139 166 113 139 166 113 139 166 113 139 166 113 139 166 113 139 166 113 139 166 113 139 166 113 139 166 113 139 166 113 139 166 113 139 166 113 139 166 113 139 166 113 139 166 113 139 166 113 139 166 113 139 166
8 14 30 8 14 30 8 14 30 8 14 30 8 14 30 8 14 30 8 14 30 8 14 30 8 14 30 8 14 30 8 14 30 8 14 30 8 14 30 8 14 30 8 14 30 8 14 30 8 14 30 8 14 30 8 14 30 8 14 30 8 14 30 8 14 30 8 14 30 8 14 30 8 14 30 8 14 30 8 14 30 8 14 30 8 14 30 8 14 30 8 14 30 8 14 30 8 14 30 8 14 30 8 14 30 8 14 30 8 14 30 8 14 30 8 14 30 8 14 30 8 14 30 8 14 30 8 14 30 8 14 30 8 14 30 8 14 30 8 14 30 8 14 30 8 14 30 8 14 30 8 14 30 8 14 30 8 14 30 8 14 30 8 14 30 8 14 30 8 14 30 8 14 30 8 14 30 8 14 30 8 14 30 8 14 30 8 14 30 8 14 30 8 14 30 8 14 30 8 14 30 8 14 30 8 14 30 8 14 30 8 14 30 8 14 30 8 14 30 8 14 30 8 14 30 8 14 30 8 14 30 8 14 30 8 14 30 8 14 30 8 14 30 8 14 30 8 14 30 8 14 30 8 14 30 8 14 30 8 14 30 8 14 30 8 14 30 8 14 30 8 14 30 8 14 30 8 14 30 8 14 30 8 14 30 8 14 30 8 14 30 8 14 30 8 14 30 8 14 30 8 14 30 8 14 30 8 14 30 8 14 30 8 14 30 8 14 30 8 14 30 8 14 30 8 14 30 8 14 30 8 14 30 8 14 30 8 14 30 8 14 30 8 14 30 8 14 30 8 14 30 8 14 30 8 14 30 8 14 30 8 14 30 8 14 30 8 14 30 8 14 30 8 14 30 8 14 30 8 14 30 8 14 30 8 14 30 8 14 30 8 14 30 8 14 30 8 14 30 8 14 30 8 14 30 8 14 30 8 14 30 8 14 30 8 14 30 8 14 30 8 14 30 8 14 30 8 14 30 8 14 30 8 14 30 8 14 30 8 14 30 8 14 30 8 14 30 8 14 30 8 14 30 8 14 30 8 14 30 8 14 30 8 14 30 8 14 30 8 14 30 8 14 30 8 14 30 8 14 30 8 14 30 8 14 30 8 14 30 8 14 30 8 14 30 8 14 30 8 14 30 8 14 30 8 14 30 8 14 30 8 14 30 8 14 30 8 14 30 8 14 30 8 14 30 8 14 30 8 14 30 8 14 30 8 14 30 8 14 30 8 14 30 8 14 30 8 14 30 8 14 30 8 14 30 8 14 30 8 14 30 8 14 30 8 14 30 8 14 30 8 14 30 8 14 30 8 14 30 8 14 30 8 14 30 8 14 30 8 14 30 8 14 30 8 14 30 8 14 30 8 14 30 8 14 30 8 14 30 8 14 30 8 14 30 8 14 30 8 14 30 8 14 30 8 14 30 8 14 30 8 14 30 8 14 30 8 14 30 8 14 30 8 14 30 8 14 30 8 14 30 8 14 30 8 14 30 8 14 30 8 14 30 8 14 30 8 14 30 8 14 30 8 14 30 8 14 30 8 14 30 8 14 30 8 14 30 8 14 30 8 14 30 8 14 30 8 14 30 8 14 30 8 14 30 8 14 30 8 14 30 8 14 30 8 14 30 8 14 30
8 14 30 8 14 30 8 14 30 8 14 30 8 14 30 8 14 30 8 14 30 8 14 30 8 14 30 8 14 30 8 14 30 8 14 30 8 14 30 8 14 30 8 14 30 8 14 30 8 14 30 8 14 30 8 14 30 8 14 30 8 14 30 8 14 30 8 14 30 8 14 30 8 14 30 8 14 30 8 14 30 8 14 30 8 14 30 8 14 30 8 14 30 8 14 30 8 14 30 8 14 30 8 14 30 8 14 30 8 14 30 8 14 30 8 14 30 8 14 30 8 14 30 8 14 30 8 14 30 8 14 30 8 14 30 8 14 30 8 14 30 8 14 30 8 14 30 8 14 30 8 14 30 8 14 30 8 14 30 8 14 30 8 14 30 8 14 30 8 14 30 8 14 30 8 14 30 8 14 30 8 14 30 8 14 30 8 14 30 8 14 30 8 14 30 8 14 30 8 14 30 8 14 30 8 14 30 8 14 30 8 14 30 8 14 30 8 14 30 8 14 30 8 14 30 8 14 30 8 14 30 8 14 30 8 14 30 8 14 30 8 14 30 8 14 30 8 14 30 8 14 30 8 14 30 8 14 30 8 14 30 8 14 30 8 14 30 8 14 30 8 14 30 8 14 30 8 14 30 8 14 30 8 14 30 8 14 30 8 14 30 8 14 30 8 14 30 8 14 30 8 14 30 8 14 30 8 14 30 8 14 30 8 14 30 8 14 30 8 14 30 8 14 30 8 14 30 8 14 30 8 14 30 8 14 30 8 14 30 8 14 30 8 14 30 8 14 30 8 14 30 8 14 30 8 14 30 8 14 30 8 14 30 8 14 30 8 14 30 8 14 30 8 14 30 8 14 30 8 14 30 8 14 30 8 14 30 8 14 30 8 14 30 8 14 30 8 14 30 8 14 30 8 14 30 8 14 30 8 14 30 8 14 30 8 14 30 8 14 30 8 14 30 8 14 30 8 14 30 8 14 30 8 14 30 8 14 30 8 14 30 8 14 30 8 14 30 8 14 30 8 14 30 8 14 30 8 14 30 8 14 30 8 14 30 8 14 30 8 14 30 8 14 30 8 14 30 8 14 30 8 14 30 8 14 30 8 14 30 8 14 30 8 14 30 8 14 30 8 14 30 8 14 30 8 14 30 8 14 30 8 14 30 8 14 30 8 14 30 8 14 30 8 14 30 8 14 30 8 14 30 8 14 30 8 14 30 8 14 30 8 14 30 8 14 30 8 14 30 8 14 30 8 14 30 8 14 30 8 14 30 8 14 30 8 14 30 8 14 30 8 14 30 8 14 30 8 14 30 8 14 30 8 14 30 8 14 30 8 14 30 8 14 30 8 14 30 8 14 30 8 14 30 8 14 30 8 14 30 8 14 30 8 14 30 8 14 30 8 14 30 8 14 30 8 14 30 8 14 30 8 14 30 8 14 30 8 14 30 8 14 30 8 14 30 8 14 30 8 14 30 8 14 30 8 14 30 8 14 30 8 14 30 8 14 30 8 14 30 8 14 30 8 14 30 8 14 30 8 14 30 8 14 30 8 14 30 8 14 30 8 14 30 8 14 30 8 14 30 8 14 30 8 14 30 8 14 30 8 14 30 8 14 30 8 14 30 8 14 30
8 14 30 8 14 30 8 14 30 8 14 30 8 14 30 8 14 30 8 14 30 8 14 30 8 14 30 8 14 30 8 14 30 8 14 30 8 14 30 8 14 30 8 14 30 8 14 30 8 14 30 8 14 30 8 14 30 8 14 30 8 14 30 8 14 30 8 14 30 8 14 30 8 14 30 8 14 30 8 14 30 8 14 30 8 14 30 8 14 30 8 14 30 8 14 30 8 14 30 8 14 30 8 14 30 8 14 30 8 14 30 8 14 30 8 14 30 8 14 30 8 14 30 8 14 30 8 14 30 8 14 30 8 14 30 8 14 30 8 14 30 8 14 30 8 14 30 8 14 30 8 14 30 8 14 30 8 14 30 8 14 30 8 14 30 8 14 30 8 14 30 8 14 30 8 14 30 8 14 30 8 14 30 8 14 30 8 14 30 8 14 30 8 14 30 8 14 30 8 14 30 8 14 30 8 14 30 8 14 30 8 14 30 8 14 30 8 14 30 8 14 30 8 14 30 8 14 30 8 14 30 8 14 30 8 14 30 8 14 30 8 14 30 8 14 30 8 14 30 8 14 30 8 14 30 8 14 30 8 14 30 8 14 30 8 14 30 8 14 30 8 14 30 8 14 30 8 14 30 8 14 30 8 14 30 8 14 30 8 14 30 8 14 30 8 14 30 8 14 30 8 14 30 8 14 30 8 14 30 8 14 30 8 14 30 8 14 30 8 14 30 8 14 30 8 14 30 8 14 30 8 14 30 8 14 30 8 14 30 8 14 30 8 14 30 8 14 30 8 14 30 8 14 30 8 14 30 8 14 30 8 14 30 8 14 30 8 14 30 8 14 30 8 14 30 8 14 30 8 14 30 8 14 30 8 14 30 8 14 30 8 14 30 8 14 30 8 14 30 8 14 30 8 14 30 8 14 30 8 14 30 8 14 30 8 14 30 8 14 30 8 14 30 8 14 30 8 14 30 8 14 30 8 14 30 8 14 30 8 14 30 8 14 30 8 14 30 8 14 30 8 14 30 8 14 30 8 14 30 8 14 30 8 14 30 8 14 30 8 14 30 8 14 30 8 14 30 8 14 30 8 14 30 8 14 30 8 14 30 8 14 30 8 14 30 8 14 30 8 14 30 8 14 30 8 14 30 8 14 30 8 14 30 8 14 30 8 14 30 8 14 30 8 14 30 8 14 30 8 14 30 8 14 30 8 14 30 8 14 30 8 14 30 8 14 30 8 14 30 8 14 30 8 14 30 8 14 30 8 14 30 8 14 30 8 14 30 8 14 30 8 14 30 8 14 30 8 14 30 8 14 30 8 14 30 8 14 30 8 14 30 8 14 30 8 14 30 8 14 30 8 14 30 8 14 30 8 14 30 8 14 30 8 14 30 8 14 30 8 14 30 8 14 30 8 14 30 8 14 30 8 14 30 8 14 30 8 14 30 8 14 30 8 14 30 8 14 30 8 14 30 8 14 30 8 14 30 8 14 30 8 14 30 8 14 30 8 14 30 8 14 30 8 14 30 8 14 30 8 14 30 8 14 30 8 14 30 8 14 30 8 14 30 8 14 30 8 14 30 8 14 30 8 14 30 8 14 30 8 14 30 8 14 30 8 14 30 8 14 30
8 14 30 8 14 30 8 14 30 8 14 30 8 14 30 8 14 30 8 14 30 8 14 30 8 14 30 8 14 30 8 14 30 8 14 30 8 14 30 8 14 30 8 14 30 8 14 30 8 14 30 8 14 30 8 14 30 8 14 30 8 14 30 8 14 30 8 14 30 8 14 30 8 14 30 8 14 30 8 14 30 8 14 30 8 14 30 8 14 30 8 14 30 8 14 30 8 14 30 8 14 30 8 14 30 8 14 30 8 14 30 8 14 30 8 14 30 8 14 30 8 14 30 8 14 30 8 14 30 8 14 30 8 14 30 8 14 30 8 14 30 8 14 30 8 14 30 8 14 30 8 14 30 8 14 30 8 14 30 8 14 30 8 14 30 8 14 30 8 14 30 8 14 30 8 14 30 8 14 30 8 14 30 8 14 30 8 14 30 8 14 30 8 14 30 8 14 30 8 14 30 8 14 30 8 14 30 8 14 30 8 14 30 8 14 30 8 14 30 8 14 30 8 14 30 8 14 30 8 14 30 8 14 30 8 14 30 8 14 30 8 14 30 8 14 30 8 14 30 8 14 30 8 14 30 8 14 30 8 14 30 8 14 30 8 14 30 8 14 30 8 14 30 8 14 30 8 14 30 8 14 30 8 14 30 8 14 30 8 14 30 8 14 30 8 14 30 8 14 30 8 14 30 8 14 30 8 14 30 8 14 30 8 14 30 8 14 30 8 14 30 8 14 30 8 14 30 8 14 30 8 14 30 8 14 30 8 14 30 8 14 30 8 14 30 8 14 30 8 14 30 8 14 30 8 14 30 8 14 30 8 14 30 8 14 30 8 14 30 8 14 30 8 14 30 8 14 30 8 14 30 8 14 30 8 14 30 8 14 30 8 14 30 8 14 30 8 14 30 8 14 30 8 14 30 8 14 30 8 14 30 8 14 30 8 14 30 8 14 30 8 14 30 8 14 30 8 14 30 8 14 30 8 14 30 8 14 30 8 14 30 8 14 30 8 14 30 8 14 30 8 14 30 8 14 30 8 14 30 8 14 30 8 14 30 8 14 30 8 14 30 8 14 30 8 14 30 8 14 30 8 14 30 8 14 30 8 14 30 8 14 30 8 14 30 8 14 30 8 14 30 8 14 30 8 14 30 8 14 30 8 14 30 8 14 30 8 14 30 8 14 30 8 14 30 8 14 30 8 14 30 8 14 30 8 14 30 8 14 30 8 14 30 8 14 30 8 14 30 8 14 30 8 14 30 8 14 30 8 14 30 8 14 30 8 14 30 8 14 30 8 14 30 8 14 30 8 14 30 8 14 30 8 14 30 8 14 30 8 14 30 8 14 30 8 14 30 8 14 30 8 14 30 8 14 30 8 14 30 8 14 30 8 14 30 8 14 30 8 14 30 8 14 30 8 14 30 8 14 30 8 14 30 8 14 30 8 14 30 8 14 30 8 14 30 8 14 30 8 14 30 8 14 30 8 14 30 8 14 30 8 14 30 8 14 30 8 14 30 8 14 30 8 14 30 8 14 30 8 14 30 8 14 30 8 14 30 8 14 30 8 14 30 8 14 30 8 14 30 8 14 30 8 14 30 8 14 30 8 14 30 8 14 30 8 14 30 8 14 30
8 14 30 8 14 30 8 14 30 8 14 30 8 14 30 8 14 30 8 14 30 8 14 30 8 14 30 8 14 30 8 14 30 8 14 30 8 14 30 8 14 30 8 14 30 8 14 30 8 14 30 8 14 30 8 14 30 8 14 30 8 14 30 8 14 30 8 14 30 8 14 30 8 14 30 8 14 30 8 14 30 8 14 30 8 14 30 8 14 30 8 14 30 8 14 30 8 14 30 8 14 30 8 14 30 8 14 30 8 14 30 8 14 30 8 14 30 8 14 30 8 14 30 8 14 30 8 14 30 8 14 30 8 14 30 8 14 30 8 14 30 8 14 30 8 14 30 8 14 30 8 14 30 8 14 30 8 14 30 8 14 30 8 14 30 8 14 30 8 14 30 8 14 30 8 14 30 8 14 30 8 14 30 8 14 30 8 14 30 8 14 30 8 14 30 8 14 30 8 14 30 8 14 30 8 14 30 8 14 30 8 14 30 8 14 30 8 14 30 8 14 30 8 14 30 8 14 30 8 14 30 8 14 30 8 14 30 8 14 30 8 14 30 8 14 30 8 14 30 8 14 30 8 14 30 8 14 30 8 14 30 8 14 30 8 14 30 8 14 30 8 14 30 8 14 30 8 14 30 8 14 30 8 14 30 8 14 30 8 14 30 8 14 30 8 14 30 8 14 30 8 14 30 8 14 30 8 14 30 8 14 30 8 14 30 8 14 30 8 14 30 8 14 30 8 14 30 8 14 30 8 14 30 8 14 30 8 14 30 8 14 30 8 14 30 8 14 30 8 14 30 8 14 30 8 14 30 8 14 30 8 14 30 8 14 30 8 14 30 8 14 30 8 14 30 8 14 30 8 14 30 8 14 30 8 14 30 8 14 30 8 14 30 8 14 30 8 14 30 8 14 30 8 14 30 8 14 30 8 14 30 8 14 30 8 14 30 8 14 30 8 14 30 8 14 30 8 14 30 8 14 30 8 14 30 8 14 30 8 14 30 8 14 30 8 14 30 8 14 30 8 14 30 8 14 30 8 14 30 8 14 30 8 14 30 8 14 30 8 14 30 8 14 30 8 14 30 8 14 30 8 14 30 8 14 30 8 14 30 8 14 30 8 14 30 8 14 30 8 14 30 8 14 30 8 14 30 8 14 30 8 14 30 8 14 30 8 14 30 8 14 30 8 14 30 8 14 30 8 14 30 8 14 30 8 14 30 8 14 30 8 14 30 8 14 30 8 14 30 8 14 30 8 14 30 8 14 30 8 14 30 8 14 30 8 14 30 8 14 30 8 14 30 8 14 30 8 14 30 8 14 30 8 14 30 8 14 30 8 14 30 8 14 30 8 14 30 8 14 30 8 14 30 8 14 30 8 14 30 8 14 30 8 14 30 8 14 30 8 14 30 8 14 30 8 14 30 8 14 30 8 14 30 8 14 30 8 14 30 8 14 30 8 14 30 8 14 30 8 14 30 8 14 30 8 14 30 8 14 30 8 14 30 8 14 30 8 14 30 8 14 30 8 14 30 8 14 30 8 14 30 8 14 30 8 14 30 8 14 30 8 14 30 8 14 30 8 14 30 8 14 30 8 14 30 8 14 30 8 14 30 8 14 30 8 14 30 8 14 30
8 14 30 8 14 30 8 14 30 8 14 30 8 14 30 8 14 30 8 14 30 8 14 30 8 14 30 8 14 30 8 14 30 8 14 30 8 14 30 8 14 30 8 14 30 8 14 30 8 14 30 8 14 30 8 14 30 8 14 30 8 14 30 8 14 30 8 14 30 8 14 30 8 14 30 8 14 30 8 14 30 8 14 30 8 14 30 8 14 30 8 14 30 8 14 30 8 14 30 8 14 30 8 14 30 8 14 30 8 14 30 8 14 30 8 14 30 8 14 30 8 14 30 8 14 30 8 14 30 8 14 30 8 14 30 8 14 30 8 14 30 8 14 30 8 14 30 8 14 30 8 14 30 8 14 30 8 14 30 8 14 30 8 14 30 8 14 30 8 14 30 8 14 30 8 14 30 8 14 30 8 14 30 8 14 30 8 14 30 8 14 30 8 14 30 8 14 30 8 14 30 8 14 30 8 14 30 8 14 30 8 14 30 8 14 30 8 14 30 8 14 30 8 14 30 8 14 30 8 14 30 8 14 30 8 14 30 8 14 30 8 14 30 8 14 30 8 14 30 8 14 30 8 14 30 8 14 30 8 14 30 8 14 30 8 14 30 8 14 30 8 14 30 8 14 30 8 14 30 8 14 30 8 14 30 8 14 30 8 14 30 8 14 30 8 14 30 8 14 30 8 14 30 8 14 30 8 14 30 8 14 30 8 14 30 8 14 30 8 14 30 8 14 30 8 14 30 8 14 30 8 14 30 8 14 30 8 14 30 8 14 30 8 14 30 8 14 30 8 14 30 8 14 30 8 14 30 8 14 30 8 14 30 8 14 30 8 14 30 8 14 30 8 14 30 8 14 30 8 14 30 8 14 30 8 14 30 8 14 30 8 14 30 8 14 30 8 14 30 8 14 30 8 14 30 8 14 30 8 14 30 8 14 30 8 14 30 8 14 30 8 14 30 8 14 30 8 14 30 8 14 30 8 14 30 8 14 30 8 14 30 8 14 30 8 14 30 8 14 30 8 14 30 8 14 30 8 14 30 8 14 30 8 14 30 8 14 30 8 14 30 8 14 30 8 14 30 8 14 30 8 14 30 8 14 30 8 14 30 8 14 30 8 14 30 8 14 30 8 14 30 8 14 30 8 14 30 8 14 30 8 14 30 8 14 30 8 14 30 8 14 30 8 14 30 8 14 30 8 14 30 8 14 30 8 14 30 8 14 30 8 14 30 8 14 30 8 14 30 8 14 30 8 14 30 8 14 30 8 14 30 8 14 30 8 14 30 8 14 30 8 14 30 8 14 30 8 14 30 8 14 30 8 14 30 8 14 30 8 14 30 8 14 30 8 14 30 8 14 30 8 14 30 8 14 30 8 14 30 8 14 30 8 14 30 8 14 30 8 14 30 8 14 30 8 14 30 8 14 30 8 14 30 8 14 30 8 14 30 8 14 30 8 14 30 8 14 30 8 14 30 8 14 30 8 14 30 8 14 30 8 14 30 8 14 30 8 14 30 8 14 30 8 14 30 8 14 30 8 14 30 8 14 30 8 14 30 8 14 30 8 14 30 8 14 30 8 14 30 8 14 30 8 14 30 8 14 30 8 14 30 8 14 30 8 14 30 8 14 30
8 14 30 8 14 30 8 14 30 8 14 30 8 14 30 8 14 30 8 14 30 8 14 30 8 14 30 8 14 30 8 14 30 8 14 30 8 14 30 8 14 30 8 14 30 8 14 30 8 14 30 8 14 30 8 14 30 8 14 30 8 14 30 8 14 30 8 14 30 8 14 30 8 14 30 8 14 30 8 14 30 8 14 30 8 14 30 8 14 30 8 14 30 8 14 30 8 14 30 8 14 30 8 14 30 8 14 30 8 14 30 8 14 30 8 14 30 8 14 30 8 14 30 8 14 30 8 14 30 8 14 30 8 14 30 8 14 30 8 14 30 8 14 30 8 14 30 8 14 30 8 14 30 8 14 30 8 14 30 8 14 30 8 14 30 8 14 30 8 14 30 8 14 30 8 14 30 8 14 30 8 14 30 8 14 30 8 14 30 8 14 30 8 14 30 8 14 30 8 14 30 8 14 30 8 14 30 8 14 30 8 14 30 8 14 30 8 14 30 8 14 30 8 14 30 8 14 30 8 14 30 8 14 30 8 14 30 8 14 30 8 14 30 8 14 30 8 14 30 8 14 30 8 14 30 8 14 30 8 14 30 8 14 30 8 14 30 8 14 30 8 14 30 8 14 30 8 14 30 8 14 30 8 14 30 8 14 30 8 14 30 8 14 30 8 14 30 8 14 30 8 14 30 8 14 30 8 14 30 8 14 30 8 14 30 8 14 30 8 14 30 8 14 30 8 14 30 8 14 30 8 14 30 8 14 30 8 14 30 8 14 30 8 14 30 8 14 30 8 14 30 8 14 30 8 14 30 8 14 30 8 14 30 8 14 30 8 14 30 8 14 30 8 14 30 8 14 30 8 14 30 8 14 30 8 14 30 8 14 30 8 14 30 8 14 30 8 14 30 8 14 30 8 14 30 8 14 30 8 14 30 8 14 30 8 14 30 8 14 30 8 14 30 8 14 30 8 14 30 8 14 30 8 14 30 8 14 30 8 14 30 8 14 30 8 14 30 8 14 30 8 14 30 8 14 30 8 14 30 8 14 30 8 14 30 8 14 30 8 14 30 8 14 30 8 14 30 8 14 30 8 14 30 8 14 30 8 14 30 8 14 30 8 14 30 8 14 30 8 14 30 8 14 30 8 14 30 8 14 30 8 14 30 8 14 30 8 14 30 8 14 30 8 14 30 8 14 30 8 14 30 8 14 30 8 14 30 8 14 30 8 14 30 8 14 30 8 14 30 8 14 30 8 14 30 8 14 30 8 14 30 8 14 30 8 14 30 8 14 30 8 14 30 8 14 30 8 14 30 8 14 30 8 14 30 8 14 30 8 14 30 8 14 30 8 14 30 8 14 30 8 14 30 8 14 30 8 14 30 8 14 30 8 14 30 8 14 30 8 14 30 8 14 30 8 14 30 8 14 30 8 14 30 8 14 30 8 14 30 8 14 30 8 14 30 8 14 30 8 14 30 8 14 30 8 14 30 8 14 30 8 14 30 8 14 30 8 14 30 8 14 30 8 14 30 8 14 30 8 14 30 8 14 30 8 14 30 8 14 30 8 14 30 8 14 30 8 14 30 8 14 30 8 14 30 8 14 30 8 14 30 8 14 30 8 14 30 8 14 30
8 14 30 8 14 30 8 14 30 8 14 30 8 14 30 8 14 30 8 14 30 8 14 30 8 14 30 8 14 30 8 14 30 8 14 30 8 14 30 8 14 30 8 14 30 8 14 30 8 14 30 8 14 30 8 14 30 8 14 30 8 14 30 8 14 30 8 14 30 8 14 30 8 14 30 8 14 30 8 14 30 8 14 30 8 14 30 8 14 30 8 14 30 8 14 30 8 14 30 8 14 30 8 14 30 8 14 30 8 14 30 8 14 30 8 14 30 8 14 30 8 14 30 8 14 30 8 14 30 8 14 30 8 14 30 8 14 30 8 14 30 8 14 30 8 14 30 8 14 30 8 14 30 8 14 30 8 14 30 8 14 30 8 14 30 8 14 30 8 14 30 8 14 30 8 14 30 8 14 30 8 14 30 8 14 30 8 14 30 8 14 30 8 14 30 8 14 30 8 14 30 8 14 30 8 14 30 8 14 30 8 14 30 8 14 30 8 14 30 8 14 30 8 14 30 8 14 30 8 14 30 8 14 30 8 14 30 8 14 30 8 14 30 8 14 30 8 14 30 8 14 30 8 14 30 8 14 30 8 14 30 8 14 30 8 14 30 8 14 30 8 14 30 8 14 30 8 14 30 8 14 30 8 14 30 8 14 30 8 14 30 8 14 30 8 14 30 8 14 30 8 14 30 8 14 30 8 14 30 8 14 30 8 14 30 8 14 30 8 14 30 8 14 30 8 14 30 8 14 30 8 14 30 8 14 30 8 14 30 8 14 30 8 14 30 8 14 30 8 14 30 8 14 30 8 14 30 8 14 30 8 14 30 8 14 30 8 14 30 8 14 30 8 14 30 8 14 30 8 14 30 8 14 30 8 14 30 8 14 30 8 14 30 8 14 30 8 14 30 8 14 30 8 14 30 8 14 30 8 14 30 8 14 30 8 14 30 8 14 30 8 14 30 8 14 30 8 14 30 8 14 30 8 14 30 8 14 30 8 14 30 8 14 30 8 14 30 8 14 30 8 14 30 8 14 30 8 14 30 8 14 30 8 14 30 8 14 30 8 14 30 8 14 30 8 14 30 8 14 30 8 14 30 8 14 30 8 14 30 8 14 30 8 14 30 8 14 30 8 14 30 8 14 30 8 14 30 8 14 30 8 14 30 8 14 30 8 14 30 8 14 30 8 14 30 8 14 30 8 14 30 8 14 30 8 14 30 8 14 30 8 14 30 8 14 30 8 14 30 8 14 30 8 14 30 8 14 30 8 14 30 8 14 30 8 14 30 8 14 30 8 14 30 8 14 30 8 14 30 8 14 30 8 14 30 8 14 30 8 14 30 8 14 30 8 14 30 8 14 30 8 14 30 8 14 30 8 14 30 8 14 30 8 14 30 8 14 30 8 14 30 8 14 30 8 14 30 8 14 30 8 14 30 8 14 30 8 14 30 8 14 30 8 14 30 8 14 30 8 14 30 8 14 30 8 14 30 8 14 30 8 14 30 8 14 30 8 14 30 8 14 30 8 14 30 8 14 30 8 14 30 8 14 30 8 14 30 8 14 30 8 14 30 8 14 30 8 14 30 8 14 30 8 14 30 8 14 30 8 14 30 8 14 30 8 14 30 8 14 30
8 14 30 8 14 30 8 14 30 8 14 30 8 14 30 8 14 30 8 14 30 8 14 30 8 14 30 8 14 30 8 14 30 8 14 30 8 14 30 8 14 30 8 14 30 8 14 30 8 14 30 8 14 30 8 14 30 8 14 30 8 14 30 8 14 30 8 14 30 8 14 30 8 14 30 8 14 30 8 14 30 8 14 30 8 14 30 8 14 30 8 14 30 8 14 30 8 14 30 8 14 30 8 14 30 8 14 30 8 14 30 8 14 30 8 14 30 8 14 30 8 14 30 8 14 30 8 14 30 8 14 30 8 14 30 8 14 30 8 14 30 8 14 30 8 14 30 8 14 30 8 14 30 8 14 30 8 14 30 8 14 30 8 14 30 8 14 30 8 14 30 8 14 30 8 14 30 8 14 30 8 14 30 8 14 30 8 14 30 8 14 30 8 14 30 8 14 30 8 14 30 8 14 30 8 14 30 8 14 30 8 14 30 8 14 30 8 14 30 8 14 30 8 14 30 8 14 30 8 14 30 8 14 30 8 14 30 8 14 30 8 14 30 8 14 30 8 14 30 8 14 30 8 14 30 8 14 30 8 14 30 8 14 30 8 14 30 8 14 30 8 14 30 8 14 30 8 14 30 8 14 30 8 14 30 8 14 30 8 14 30 8 14 30 8 14 30 8 14 30 8 14 30 8 14 30 8 14 30 8 14 30 8 14 30 8 14 30 8 14 30 8 14 30 8 14 30 8 14 30 8 14 30 8 14 30 8 14 30 8 14 30 8 14 30 8 14 30 8 14 30 8 14 30 8 14 30 8 14 30 8 14 30 8 14 30 8 14 30 8 14 30 8 14 30 8 14 30 8 14 30 8 14 30 8 14 30 8 14 30 8 14 30 8 14 30 8 14 30 8 14 30 8 14 30 8 14 30 8 14 30 8 14 30 8 14 30 8 14 30 8 14 30 8 14 30 8 14 30 8 14 30 8 14 30 8 14 30 8 14 30 8 14 30 8 14 30 8 14 30 8 14 30 8 14 30 8 14 30 8 14 30 8 14 30 8 14 30 8 14 30 8 14 30 8 14 30 8 14 30 8 14 30 8 14 30 8 14 30 8 14 30 8 14 30 8 14 30 8 14 30 8 14 30 8 14 30 8 14 30 8 14 30 8 14 30 8 14 30 8 14 30 8 14 30 8 14 30 8 14 30 8 14 30 8 14 30 8 14 30 8 14 30 8 14 30 8 14 30 8 14 30 8 14 30 8 14 30 8 14 30 8 14 30 8 14 30 8 14 30 8 14 30 8 14 30 8 14 30 8 14 30 8 14 30 8 14 30 8 14 30 8 14 30 8 14 30 8 14 30 8 14 30 8 14 30 8 14 30 8 14 30 8 14 30 8 14 30 8 14 30 8 14 30 8 14 30 8 14 30 8 14 30 8 14 30 8 14 30 8 14 30 8 14 30 8 14 30 8 14 30 8 14 30 8 14 30 8 14 30 8 14 30 8 14 30 8 14 30 8 14 30 8 14 30 8 14 30 8 14 30 8 14 30 8 14 30 8 14 30 8 14 30 8 14 30 8 14 30 8 14 30 8 14 30 8 14 30 8 14 30 8 14 30 8 14 30 8 14 30
8 14 30 8 14 30 8 14 30 8 14 30 8 14 30 8 14 30 8 14 30 8 14 30 8 14 30 8 14 30 8 14 30 8 14 30 8 14 30 8 14 30 8 14 30 8 14 30 8 14 30 8 14 30 8 14 30 8 14 30 8 14 30 8 14 30 8 14 30 8 14 30 8 14 30 8 14 30 8 14 30 8 14 30 8 14 30 8 14 30 8 14 30 8 14 30 8 14 30 8 14 30 8 14 30 8 14 30 8 14 30 8 14 30 8 14 30 8 14 30 8 14 30 8 14 30 8 14 30 8 14 30 8 14 30 8 14 30 8 14 30 8 14 30 8 14 30 8 14 30 8 14 30 8 14 30 8 14 30 8 14 30 8 14 30 8 14 30 8 14 30 8 14 30 8 14 30 8 14 30 8 14 30 8 14 30 8 14 30 8 14 30 8 14 30 8 14 30 8 14 30 8 14 30 8 14 30 8 14 30 8 14 30 8 14 30 8 14 30 8 14 30 8 14 30 8 14 30 8 14 30 8 14 30 8 14 30 8 14 30 8 14 30 8 14 30 8 14 30 8 14 30 8 14 30 8 14 30 8 14 30 8 14 30 8 14 30 8 14 30 8 14 30 8 14 30 8 14 30 8 14 30 8 14 30 8 14 30 8 14 30 8 14 30 8 14 30 8 14 30 8 14 30 8 14 30 8 14 30 8 14 30 8 14 30 8 14 30 8 14 30 8 14 30 8 14 30 8 14 30 8 14 30 8 14 30 8 14 30 8 14 30 8 14 30 8 14 30 8 14 30 8 14 30 8 14 30 8 14 30 8 14 30 8 14 30 8 14 30 8 14 30 8 14 30 8 14 30 8 14 30 8 14 30 8 14 30 8 14 30 8 14 30 8 14 30 8 14 30 8 14 30 8 14 30 8 14 30 8 14 30 8 14 30 8 14 30 8 14 30 8 14 30 8 14 30 8 14 30 8 14 30 8 14 30 8 14 30 8 14 30 8 14 30 8 14 30 8 14 30 8 14 30 8 14 30 8 14 30 8 14 30 8 14 30 8 14 30 8 14 30 8 14 30 8 14 30 8 14 30 8 14 30 8 14 30 8 14 30 8 14 30 8 14 30 8 14 30 8 14 30 8 14 30 8 14 30 8 14 30 8 14 30 8 14 30 8 14 30 8 14 30 8 14 30 8 14 30 8 14 30 8 14 30 8 14 30 8 14 30 8 14 30 8 14 30 8 14 30 8 14 30 8 14 30 8 14 30 8 14 30 8 14 30 8 14 30 8 14 30 8 14 30 8 14 30 8 14 30 8 14 30 8 14 30 8 14 30 8 14 30 8 14 30 8 14 30 8 14 30 8 14 30 8 14 30 8 14 30 8 14 30 8 14 30 8 14 30 8 14 30 8 14 30 8 14 30 8 14 30 8 14 30 8 14 30 8 14 30 8 14 30 8 14 30 8 14 30 8 14 30 8 14 30 8 14 30 8 14 30 8 14 30 8 14 30 8 14 30 8 14 30 8 14 30 8 14 30 8 14 30 8 14 30 8 14 30 8 14 30 8 14 30 8 14 30 8 14 30 8 14 30 8 14 30 8 14 30 8 14 30 8 14 30 8 14 30 8 14 30
8 14 30 8 14 30 8 14 30 8 14 30 8 14 30 8 14 30 8 14 30 8 14 30 8 14 30 8 14 30 8 14 30 8 14 30 8 14 30 8 14 30 8 14 30 8 14 30 8 14 30 8 14 30 8 14 30 8 14 30 8 14 30 8 14 30 8 14 30 8 14 30 8 14 30 8 14 30 8 14 30 8 14 30 8 14 30 8 14 30 8 14 30 8 14 30 8 14 30 8 14 30 8 14 30 8 14 30 8 14 30 8 14 30 8 14 30 8 14 30 8 14 30 8 14 30 8 14 30 8 14 30 8 14 30 8 14 30 8 14 30 8 14 30 8 14 30 8 14 30 8 14 30 8 14 30 8 14 30 8 14 30 8 14 30 8 14 30 8 14 30 8 14 30 8 14 30 8 14 30 8 14 30 8 14 30 8 14 30 8 14 30 8 14 30 8 14 30 8 14 30 8 14 30 8 14 30 8 14 30 8 14 30 8 14 30 8 14 30 8 14 30 8 14 30 8 14 30 8 14 30 8 14 30 8 14 30 8 14 30 8 14 30 8 14 30 8 14 30 8 14 30 8 14 30 8 14 30 8 14 30 8 14 30 8 14 30 8 14 30 8 14 30 8 14 30 8 14 30 8 14 30 8 14 30 8 14 30 8 14 30 8 14 30 8 14 30 8 14 30 8 14 30 8 14 30 8 14 30 8 14 30 8 14 30 8 14 30 8 14 30 8 14 30 8 14 30 8 14 30 8 14 30 8 14 30 8 14 30 8 14 30 8 14 30 8 14 30 8 14 30 8 14 30 8 14 30 8 14 30 8 14 30 8 14 30 8 14 30 8 14 30 8 14 30 8 14 30 8 14 30 8 14 30 8 14 30 8 14 30 8 14 30 8 14 30 8 14 30 8 14 30 8 14 30 8 14 30 8 14 30 8 14 30 8 14 30 8 14 30 8 14 30 8 14 30 8 14 30 8 14 30 8 14 30 8 14 30 8 14 30 8 14 30 8 14 30 8 14 30 8 14 30 8 14 30 8 14 30 8 14 30 8 14 30 8 14 30 8 14 30 8 14 30 8 14 30 8 14 30 8 14 30 8 14 30 8 14 30 8 14 30 8 14 30 8 14 30 8 14 30 8 14 30 8 14 30 8 14 30 8 14 30 8 14 30 8 14 30 8 14 30 8 14 30 8 14 30 8 14 30 8 14 30 8 14 30 8 14 30 8 14 30 8 14 30 8 14 30 8 14 30 8 14 30 8 14 30 8 14 30 8 14 30 8 14 30 8 14 30 8 14 30 8 14 30 8 14 30 8 14 30 8 14 30 8 14 30 8 14 30 8 14 30 8 14 30 8 14 30 8 14 30 8 14 30 8 14 30 8 14 30 8 14 30 8 14 30 8 14 30 8 14 30 8 14 30 8 14 30 8 14 30 8 14 30 8 14 30 8 14 30 8 14 30 8 14 30 8 14 30 8 14 30 8 14 30 8 14 30 8 14 30 8 14 30 8 14 30 8 14 30 8 14 30 8 14 30 8 14 30 8 14 30 8 14 30 8 14 30 8 14 30 8 14 30 8 14 30 8 14 30 8 14 30 8 14 30 8 14 30 8 14 30 8 14 30 8 14 30
8 14 30 8 14 30 8 14 30 8 14 30 8 14 30 8 14 30 8 14 30 8 14 30 8 14 30 8 14 30 8 14 30 8 14 30 8 14 30 8 14 30 8 14 30 8 14 30 8 14 30 8 14 30 8 14 30 8 14 30 8 14 30 8 14 30 8 14 30 8 14 30 8 14 30 8 14 30 8 14 30 8 14 30 8 14 30 8 14 30 8 14 30 8 14 30 8 14 30 8 14 30 8 14 30 8 14 30 8 14 30 8 14 30 8 14 30 8 14 30 8 14 30 8 14 30 8 14 30 8 14 30 8 14 30 8 14 30 8 14 30 8 14 30 8 14 30 8 14 30 8 14 30 8 14 30 8 14 30 8 14 30 8 14 30 8 14 30 8 14 30 8 14 30 8 14 30 8 14 30 8 14 30 8 14 30 8 14 30 8 14 30 8 14 30 8 14 30 8 14 30 8 14 30 8 14 30 8 14 30 8 14 30 8 14 30 8 14 30 8 14 30 8 14 30 8 14 30 8 14 30 8 14 30 8 14 30 8 14 30 8 14 30 8 14 30 8 14 30 8 14 30 8 14 30 8 14 30 8 14 30 8 14 30 8 14 30 8 14 30 8 14 30 8 14 30 8 14 30 8 14 30 8 14 30 8 14 30 8 14 30 8 14 30 8 14 30 8 14 30 8 14 30 8 14 30 8 14 30 8 14 30 8 14 30 8 14 30 8 14 30 8 14 30 8 14 30 8 14 30 8 14 30 8 14 30 8 14 30 8 14 30 8 14 30 8 14 30 8 14 30 8 14 30 8 14 30 8 14 30 8 14 30 8 14 30 8 14 30 8 14 30 8 14 30 8 14 30 8 14 30 8 14 30 8 14 30 8 14 30 8 14 30 8 14 30 8 14 30 8 14 30 8 14 30 8 14 30 8 14 30 8 14 30 8 14 30 8 14 30 8 14 30 8 14 30 8 14 30 8 14 30 8 14 30 8 14 30 8 14 30 8 14 30 8 14 30 8 14 30 8 14 30 8 14 30 8 14 30 8 14 30 8 14 30 8 14 30 8 14 30 8 14 30 8 14 30 8 14 30 8 14 30 8 14 30 8 14 30 8 14 30 8 14 30 8 14 30 8 14 30 8 14 30 8 14 30 8 14 30 8 14 30 8 14 30 8 14 30 8 14 30 8 14 30 8 14 30 8 14 30 8 14 30 8 14 30 8 14 30 8 14 30 8 14 30 8 14 30 8 14 30 8 14 30 8 14 30 8 14 30 8 14 30 8 14 30 8 14 30 8 14 30 8 14 30 8 14 30 8 14 30 8 14 30 8 14 30 8 14 30 8 14 30 8 14 30 8 14 30 8 14 30 8 14 30 8 14 30 8 14 30 8 14 30 8 14 30 8 14 30 8 14 30 8 14 30 8 14 30 8 14 30 8 14 30 8 14 30 8 14 30 8 14 30 8 14 30 8 14 30 8 14 30 8 14 30 8 14 30 8 14 30 8 14 30 8 14 30 8 14 30 8 14 30 8 14 30 8 14 30 8 14 30 8 14 30 8 14 30 8 14 30 8 14 30 8 14 30 8 14 30 8 14 30 8 14 30 8 14 30 8 14 30 8 14 30 8 14 30
8 14 30 8 14 30 8 14 30 8 14 30 8 14 30 8 14 30 8 14 30 8 14 30 8 14 30 8 14 30 8 14 30 8 14 30 8 14 30 8 14 30 8 14 30 8 14 30 8 14 30 8 14 30 8 14 30 8 14 30 8 14 30 8 14 30 8 14 30 8 14 30 8 14 30 8 14 30 8 14 30 8 14 30 8 14 30 8 14 30 8 14 30 8 14 30 8 14 30 8 14 30 8 14 30 8 14 30 8 14 30 8 14 30 8 14 30 8 14 30 8 14 30 8 14 30 8 14 30 8 14 30 8 14 30 8 14 30 8 14 30 8 14 30 8 14 30 8 14 30 8 14 30 8 14 30 8 14 30 8 14 30 8 14 30 8 14 30 8 14 30 8 14 30 8 14 30 8 14 30 8 14 30 8 14 30 8 14 30 8 14 30 8 14 30 8 14 30 8 14 30 8 14 30 8 14 30 8 14 30 8 14 30 8 14 30 8 14 30 8 14 30 8 14 30 8 14 30 8 14 30 8 14 30 8 14 30 8 14 30 8 14 30 8 14 30 8 14 30 8 14 30 8 14 30 8 14 30 8 14 30 8 14 30 8 14 30 8 14 30 8 14 30 8 14 30 8 14 30 8 14 30 8 14 30 8 14 30 8 14 30 8 14 30 8 14 30 8 14 30 8 14 30 8 14 30 8 14 30 8 14 30 8 14 30 8 14 30 8 14 30 8 14 30 8 14 30 8 14 30 8 14 30 8 14 30 8 14 30 8 14 30 8 14 30 8 14 30 8 14 30 8 14 30 8 14 30 8 14 30 8 14 30 8 14 30 8 14 30 8 14 30 8 14 30 8 14 30 8 14 30 8 14 30 8 14 30 8 14 30 8 14 30 8 14 30 8 14 30 8 14 30 8 14 30 8 14 30 8 14 30 8 14 30 8 14 30 8 14 30 8 14 30 8 14 30 8 14 30 8 14 30 8 14 30 8 14 30 8 14 30 8 14 30 8 14 30 8 14 30 8 14 30 8 14 30 8 14 30 8 14 30 8 14 30 8 14 30 8 14 30 8 14 30 8 14 30 8 14 30 8 14 30 8 14 30 8 14 30 8 14 30 8 14 30 8 14 30 8 14 30 8 14 30 8 14 30 8 14 30 8 14 30 8 14 30 8 14 30 8 14 30 8 14 30 8 14 30 8 14 30 8 14 30 8 14 30 8 14 30 8 14 30 8 14 30 8 14 30 8 14 30 8 14 30 8 14 30 8 14 30 8 14 30 8 14 30 8 14 30 8 14 30 8 14 30 8 14 30 8 14 30 8 14 30 8 14 30 8 14 30 8 14 30 8 14 30 8 14 30 8 14 30 8 14 30 8 14 30 8 14 30 8 14 30 8 14 30 8 14 30 8 14 30 8 14 30 8 14 30 8 14 30 8 14 30 8 14 30 8 14 30 8 14 30 8 14 30 8 14 30 8 14 30 8 14 30 8 14 30 8 14 30 8 14 30 8 14 30 8 14 30 8 14 30 8 14 30 8 14 30 8 14 30 8 14 30 8 14 30 8 14 30 8 14 30 8 14 30 8 14 30 8 14 30 8 14 30 8 14 30 8 14 30 8 14 30 8 14 30
8 14 30 8 14 30 8 14 30 8 14 30 8 14 30 8 14 30 8 14 30 8 14 30 8 14 30 8 14 30 8 14 30 8 14 30 8 14 30 8 14 30 8 14 30 8 14 30 8 14 30 8 14 30 8 14 30 8 14 30 8 14 30 8 14 30 8 14 30 8 14 30 8 14 30 8 14 30 8 14 30 8 14 30 8 14 30 8 14 30 8 14 30 8 14 30 8 14 30 8 14 30 8 14 30 8 14 30 8 14 30 8 14 30 8 14 30 8 14 30 8 14 30 8 14 30 8 14 30 8 14 30 8 14 30 8 14 30 8 14 30 8 14 30 8 14 30 8 14 30 8 14 30 8 14 30 8 14 30 8 14 30 8 14 30 8 14 30 8 14 30 8 14 30 8 14 30 8 14 30 8 14 30 8 14 30 8 14 30 8 14 30 8 14 30 8 14 30 8 14 30 8 14 30 8 14 30 8 14 30 8 14 30 8 14 30 8 14 30 8 14 30 8 14 30 8 14 30 8 14 30 8 14 30 8 14 30 8 14 30 8 14 30 8 14 30 8 14 30 8 14 30 8 14 30 8 14 30 8 14 30 8 14 30 8 14 30 8 14 30 8 14 30 8 14 30 8 14 30 8 14 30 8 14 30 8 14 30 8 14 30 8 14 30 8 14 30 8 14 30 8 14 30 8 14 30 8 14 30 8 14 30 8 14 30 8 14 30 8 14 30 8 14 30 8 14 30 8 14 30 8 14 30 8 14 30 8 14 30 8 14 30 8 14 30 8 14 30 8 14 30 8 14 30 8 14 30 8 14 30 8 14 30 8 14 30 8 14 30 8 14 30 8 14 30 8 14 30 8 14 30 8 14 30 8 14 30 8 14 30 8 14 30 8 14 30 8 14 30 8 14 30 8 14 30 8 14 30 8 14 30 8 14 30 8 14 30 8 14 30 8 14 30 8 14 30 8 14 30 8 14 30 8 14 30 8 14 30 8 14 30 8 14 30 8 14 30 8 14 30 8 14 30 8 14 30 8 14 30 8 14 30 8 14 30 8 14 30 8 14 30 8 14 30 8 14 30 8 14 30 8 14 30 8 14 30 8 14 30 8 14 30 8 14 30 8 14 30 8 14 30 8 14 30 8 14 30 8 14 30 8 14 30 8 14 30 8 14 30 8 14 30 8 14 30 8 14 30 8 14 30 8 14 30 8 14 30 8 14 30 8 14 30 8 14 30 8 14 30 8 14 30 8 14 30 8 14 30 8 14 30 8 14 30 8 14 30 8 14 30 8 14 30 8 14 30 8 14 30 8 14 30 8 14 30 8 14 30 8 14 30 8 14 30 8 14 30 8 14 30 8 14 30 8 14 30 8 14 30 8 14 30 8 14 30 8 14 30 8 14 30 8 14 30 8 14 30 8 14 30 8 14 30 8 14 30 8 14 30 8 14 30 8 14 30 8 14 30 8 14 30 8 14 30 8 14 30 8 14 30 8 14 30 8 14 30 8 14 30 8 14 30 8 14 30 8 14 30 8 14 30 8 14 30 8 14 30 8 14 30 8 14 30 8 14 30 8 14 30 8 14 30 8 14 30 8 14 30 8 14 30 8 14 30 8 14 30 8 14 30
8 14 30 8 14 30 8 14 30 8 14 30 8 14 30 8 14 30 8 14 30 8 14 30 8 14 30 8 14 30 8 14 30 8 14 30 8 14 30 8 14 30 8 14 30 8 14 30 8 14 30 8 14 30 8 14 30 8 14 30 8 14 30 8 14 30 8 14 30 8 14 30 8 14 30 8 14 30 8 14 30 8 14 30 8 14 30 8 14 30 8 14 30 8 14 30 8 14 30 8 14 30 8 14 30 8 14 30 8 14 30 8 14 30 8 14 30 8 14 30 8 14 30 8 14 30 8 14 30 8 14 30 8 14 30 8 14 30 8 14 30 8 14 30 8 14 30 8 14 30 8 14 30 8 14 30 8 14 30 8 14 30 8 14 30 8 14 30 8 14 30 8 14 30 8 14 30 8 14 30 8 14 30 8 14 30 8 14 30 8 14 30 8 14 30 8 14 30 8 14 30 8 14 30 8 14 30 8 14 30 8 14 30 8 14 30 8 14 30 8 14 30 8 14 30 8 14 30 8 14 30 8 14 30 8 14 30 8 14 30 8 14 30 8 14 30 8 14 30 8 14 30 8 14 30 8 14 30 8 14 30 8 14 30 8 14 30 8 14 30 8 14 30 8 14 30 8 14 30 8 14 30 8 14 30 8 14 30 8 14 30 8 14 30 8 14 30 8 14 30 8 14 30 8 14 30 8 14 30 8 14 30 8 14 30 8 14 30 8 14 30 8 14 30 8 14 30 8 14 30 8 14 30 8 14 30 8 14 30 8 14 30 8 14 30 8 14 30 8 14 30 8 14 30 8 14 30 8 14 30 8 14 30 8 14 30 8 14 30 8 14 30 8 14 30 8 14 30 8 14 30 8 14 30 8 14 30 8 14 30 8 14 30 8 14 30 8 14 30 8 14 30 8 14 30 8 14 30 8 14 30 8 14 30 8 14 30 8 14 30 8 14 30 8 14 30 8 14 30 8 14 30 8 14 30 8 14 30 8 14 30 8 14 30 8 14 30 8 14 30 8 14 30 8 14 30 8 14 30 8 14 30 8 14 30 8 14 30 8 14 30 8 14 30 8 14 30 8 14 30 8 14 30 8 14 30 8 14 30 8 14 30 8 14 30 8 14 30 8 14 30 8 14 30 8 14 30 8 14 30 8 14 30 8 14 30 8 14 30 8 14 30 8 14 30 8 14 30 8 14 30 8 14 30 8 14 30 8 14 30 8 14 30 8 14 30 8 14 30 8 14 30 8 14 30 8 14 30 8 14 30 8 14 30 8 14 30 8 14 30 8 14 30 8 14 30 8 14 30 8 14 30 8 14 30 8 14 30 8 14 30 8 14 30 8 14 30 8 14 30 8 14 30 8 14 30 8 14 30 8 14 30 8 14 30 8 14 30 8 14 30 8 14 30 8 14 30 8 14 30 8 14 30 8 14 30 8 14 30 8 14 30 8 14 30 8 14 30 8 14 30 8 14 30 8 14 30 8 14 30 8 14 30 8 14 30 8 14 30 8 14 30 8 14 30 8 14 30 8 14 30 8 14 30 8 14 30 8 14 30 8 14 30 8 14 30 8 14 30 8 14 30 8 14 30 8 14 30 8 14 30 8 14 30 8 14 30 8 14 30
8 14 30 8 14 30 8 14 30 8 14 30 8 14 30 8 14 30 8 14 30 8 14 30 8 14 30 8 14 30 8 14 30 8 14 30 8 14 30 8 14 30 8 14 30 8 14 30 8 14 30 8 14 30 8 14 30 8 14 30 8 14 30 8 14 30 8 14 30 8 14 30 8 14 30 8 14 30 8 14 30 8 14 30 8 14 30 8 14 30 8 14 30 8 14 30 8 14 30 8 14 30 8 14 30 8 14 30 8 14 30 8 14 30 8 14 30 8 14 30 8 14 30 8 14 30 8 14 30 8 14 30 8 14 30 8 14 30 8 14 30 8 14 30 8 14 30 8 14 30 8 14 30 8 14 30 8 14 30 8 14 30 8 14 30 8 14 30 8 14 30 8 14 30 8 14 30 8 14 30 8 14 30 8 14 30 8 14 30 8 14 30 8 14 30 8 14 30 8 14 30 8 14 30 8 14 30 8 14 30 8 14 30 8 14 30 8 14 30 8 14 30 8 14 30 8 14 30 8 14 30 8 14 30 8 14 30 8 14 30 8 14 30 8 14 30 8 14 30 8 14 30 8 14 30 8 14 30 8 14 30 8 14 30 8 14 30 8 14 30 8 14 30 8 14 30 8 14 30 8 14 30 8 14 30 8 14 30 8 14 30 8 14 30 8 14 30 8 14 30 8 14 30 8 14 30 8 14 30 8 14 30 8 14 30 8 14 30 8 14 30 8 14 30 8 14 30 8 14 30 8 14 30 8 14 30 8 14 30 8 14 30 8 14 30 8 14 30 8 14 30 8 14 30 8 14 30 8 14 30 8 14 30 8 14 30 8 14 30 8 14 30 8 14 30 8 14 30 8 14 30 8 14 30 8 14 30 8 14 30 8 14 30 8 14 30 8 14 30 8 14 30 8 14 30 8 14 30 8 14 30 8 14 30 8 14 30 8 14 30 8 14 30 8 14 30 8 14 30 8 14 30 8 14 30 8 14 30 8 14 30 8 14 30 8 14 30 8 14 30 8 14 30 8 14 30 8 14 30 8 14 30 8 14 30 8 14 30 8 14 30 8 14 30 8 14 30 8 14 30 8 14 30 8 14 30 8 14 30 8 14 30 8 14 30 8 14 30 8 14 30 8 14 30 8 14 30 8 14 30 8 14 30 8 14 30 8 14 30 8 14 30 8 14 30 8 14 30 8 14 30 8 14 30 8 14 30 8 14 30 8 14 30 8 14 30 8 14 30 8 14 30 8 14 30 8 14 30 8 14 30 8 14 30 8 14 30 8 14 30 8 14 30 8 14 30 8 14 30 8 14 30 8 14 30 8 14 30 8 14 30 8 14 30 8 14 30 8 14 30 8 14 30 8 14 30 8 14 30 8 14 30 8 14 30 8 14 30 8 14 30 8 14 30 8 14 30 8 14 30 8 14 30 8 14 30 8 14 30 8 14 30 8 14 30 8 14 30 8 14 30 8 14 30 8 14 30 8 14 30 8 14 30 8 14 30 8 14 30 8 14 30 8 14 30 8 14 30 8 14 30 8 14 30 8 14 30 8 14 30 8 14 30 8 14 30 8 14 30 8 14 30 8 14 30 8 14 30 8 14 30 8 14 30 8 14 30 8 14 30
8 14 30 8 14 30 8 14 30 8 14 30 8 14 30 8 14 30 8 14 30 8 14 30 8 14 30 8 14 30 8 14 30 8 14 30 8 14 30 8 14 30 8 14 30 8 14 30 8 14 30 8 14 30 8 14 30 8 14 30 8 14 30 8 14 30 8 14 30 8 14 30 8 14 30 8 14 30 8 14 30 8 14 30 8 14 30 8 14 30 8 14 30 8 14 30 8 14 30 8 14 30 8 14 30 8 14 30 8 14 30 8 14 30 8 14 30 8 14 30 8 14 30 8 14 30 8 14 30 8 14 30 8 14 30 8 14 30 8 14 30 8 14 30 8 14 30 8 14 30 8 14 30 8 14 30 8 14 30 8 14 30 8 14 30 8 14 30 8 14 30 8 14 30 8 14 30 8 14 30 8 14 30 8 14 30 8 14 30 8 14 30 8 14 30 8 14 30 8 14 30 8 14 30 8 14 30 8 14 30 8 14 30 8 14 30 8 14 30 8 14 30 8 14 30 8 14 30 8 14 30 8 14 30 8 14 30 8 14 30 8 14 30 8 14 30 8 14 30 8 14 30 8 14 30 8 14 30 8 14 30 8 14 30 8 14 30 8 14 30 8 14 30 8 14 30 8 14 30 8 14 30 8 14 30 8 14 30 8 14 30 8 14 30 8 14 30 8 14 30 8 14 30 8 14 30 8 14 30 8 14 30 8 14 30 8 14 30 8 14 30 8 14 30 8 14 30 8 14 30 8 14 30 8 14 30 8 14 30 8 14 30 8 14 30 8 14 30 8 14 30 8 14 30 8 14 30 8 14 30 8 14 30 8 14 30 8 14 30 8 14 30 8 14 30 8 14 30 8 14 30 8 14 30 8 14 30 8 14 30 8 14 30 8 14 30 8 14 30 8 14 30 8 14 30 8 14 30 8 14 30 8 14 30 8 14 30 8 14 30 8 14 30 8 14 30 8 14 30 8 14 30 8 14 30 8 14 30 8 14 30 8 14 30 8 14 30 8 14 30 8 14 30 8 14 30 8 14 30 8 14 30 8 14 30 8 14 30 8 14 30 8 14 30 8 14 30 8 14 30 8 14 30 8 14 30 8 14 30 8 14 30 8 14 30 8 14 30 8 14 30 8 14 30 8 14 30 8 14 30 8 14 30 8 14 30 8 14 30 8 14 30 8 14 30 8 14 30 8 14 30 8 14 30 8 14 30 8 14 30 8 14 30 8 14 30 8 14 30 8 14 30 8 14 30 8 14 30 8 14 30 8 14 30 8 14 30 8 14 30 8 14 30 8 14 30 8 14 30 8 14 30 8 14 30 8 14 30 8 14 30 8 14 30 8 14 30 8 14 30 8 14 30 8 14 30 8 14 30 8 14 30 8 14 30 8 14 30 8 14 30 8 14 30 8 14 30 8 14 30 8 14 30 8 14 30 8 14 30 8 14 30 8 14 30 8 14 30 8 14 30 8 14 30 8 14 30 8 14 30 8 14 30 8 14 30 8 14 30 8 14 30 8 14 30 8 14 30 8 14 30 8 14 30 8 14 30 8 14 30 8 14 30 8 14 30 8 14 30 8 14 30 8 14 30 8 14 30 8 14 30 8 14 30 8 14 30 8 14 30
8 14 30 8 14 30 8 14 30 8 14 30 8 14 30 8 14 30 8 14 30 8 14 30 8 14 30 8 14 30 8 14 30 8 14 30 8 14 30 8 14 30 8 14 30 8 14 30 8 14 30 8 14 30 8 14 30 8 14 30 8 14 30 8 14 30 8 14 30 8 14 30 8 14 30 8 14 30 8 14 30 8 14 30 8 14 30 8 14 30 8 14 30 8 14 30 8 14 30 8 14 30 8 14 30 8 14 30 8 14 30 8 14 30 8 14 30 8 14 30 8 14 30 8 14 30 8 14 30 8 14 30 8 14 30 8 14 30 8 14 30 8 14 30 8 14 30 8 14 30 8 14 30 8 14 30 8 14 30 8 14 30 8 14 30 8 14 30 8 14 30 8 14 30 8 14 30 8 14 30 8 14 30 8 14 30 8 14 30 8 14 30 8 14 30 8 14 30 8 14 30 8 14 30 8 14 30 8 14 30 8 14 30 8 14 30 8 14 30 8 14 30 8 14 30 8 14 30 8 14 30 8 14 30 8 14 30 8 14 30 8 14 30 8 14 30 8 14 30 8 14 30 8 14 30 8 14 30 8 14 30 8 14 30 8 14 30 8 14 30 8 14 30 8 14 30 8 14 30 8 14 30 8 14 30 8 14 30 8 14 30 8 14 30 8 14 30 8 14 30 8 14 30 8 14 30 8 14 30 8 14 30 8 14 30 8 14 30 8 14 30 8 14 30 8 14 30 8 14 30 8 14 30 8 14 30 8 14 30 8 14 30 8 14 30 8 14 30 8 14 30 8 14 30 8 14 30 8 14 30 8 14 30 8 14 30 8 14 30 8 14 30 8 14 30 8 14 30 8 14 30 8 14 30 8 14 30 8 14 30 8 14 30 8 14 30 8 14 30 8 14 30 8 14 30 8 14 30 8 14 30 8 14 30 8 14 30 8 14 30 8 14 30 8 14 30 8 14 30 8 14 30 8 14 30 8 14 30 8 14 30 8 14 30 8 14 30 8 14 30 8 14 30 8 14 30 8 14 30 8 14 30 8 14 30 8 14 30 8 14 30 8 14 30 8 14 30 8 14 30 8 14 30 8 14 30 8 14 30 8 14 30 8 14 30 8 14 30 8 14 30 8 14 30 8 14 30 8 14 30 8 14 30 8 14 30 8 14 30 8 14 30 8 14 30 8 14 30 8 14 30 8 14 30 8 14 30 8 14 30 8 14 30 8 14 30 8 14 30 8 14 30 8 14 30 8 14 30 8 14 30 8 14 30 8 14 30 8 14 30 8 14 30 8 14 30 8 14 30 8 14 30 8 14 30 8 14 30 8 14 30 8 14 30 8 14 30 8 14 30 8 14 30 8 14 30 8 14 30 8 14 30 8 14 30 8 14 30 8 14 30 8 14 30 8 14 30 8 14 30 8 14 30 8 14 30 8 14 30 8 14 30 8 14 30 8 14 30 8 14 30 8 14 30 8 14 30 8 14 30 8 14 30 8 14 30 8 14 30 8 14 30 8 14 30 8 14 30 8 14 30 8 14 30 8 14 30 8 14 30 8 14 30 8 14 30 8 14 30 8 14 30 8 14 30 8 14 30 8 14 30 8 14 30 8 14 30 8 14 30
8 14 30 8 14 30 8 14 30 8 14 30 8 14 30 8 14 30 8 14 30 8 14 30 8 14 30 8 14 30 8 14 30 8 14 30 8 14 30 8 14 30 8 14 30 8 14 30 8 14 30 8 14 30 8 14 30 8 14 30 8 14 30 8 14 30 8 14 30 8 14 30 8 14 30 8 14 30 8 14 30 8 14 30 8 14 30 8 14 30 8 14 30 8 14 30 8 14 30 8 14 30 8 14 30 8 14 30 8 14 30 8 14 30 8 14 30 8 14 30 8 14 30 8 14 30 8 14 30 8 14 30 8 14 30 8 14 30 8 14 30 8 14 30 8 14 30 8 14 30 8 14 30 8 14 30 8 14 30 8 14 30 8 14 30 8 14 30 8 14 30 8 14 30 8 14 30 8 14 30 8 14 30 8 14 30 8 14 30 8 14 30 8 14 30 8 14 30 8 14 30 8 14 30 8 14 30 8 14 30 8 14 30 8 14 30 8 14 30 8 14 30 8 14 30 8 14 30 8 14 30 8 14 30 8 14 30 8 14 30 8 14 30 8 14 30 8 14 30 8 14 30 8 14 30 8 14 30 8 14 30 8 14 30 8 14 30 8 14 30 8 14 30 8 14 30 8 14 30 8 14 30 8 14 30 8 14 30 8 14 30 8 14 30 8 14 30 8 14 30 8 14 30 8 14 30 8 14 30 8 14 30 8 14 30 8 14 30 8 14 30 8 14 30 8 14 30 8 14 30 8 14 30 8 14 30 8 14 30 8 14 30 8 14 30 8 14 30 8 14 30 8 14 30 8 14 30 8 14 30 8 14 30 8 14 30 8 14 30 8 14 30 8 14 30 8 14 30 8 14 30 8 14 30 8 14 30 8 14 30 8 14 30 8 14 30 8 14 30 8 14 30 8 14 30 8 14 30 8 14 30 8 14 30 8 14 30 8 14 30 8 14 30 8 14 30 8 14 30 8 14 30 8 14 30 8 14 30 8 14 30 8 14 30 8 14 30 8 14 30 8 14 30 8 14 30 8 14 30 8 14 30 8 14 30 8 14 30 8 14 30 8 14 30 8 14 30 8 14 30 8 14 30 8 14 30 8 14 30 8 14 30 8 14 30 8 14 30 8 14 30 8 14 30 8 14 30 8 14 30 8 14 30 8 14 30 8 14 30 8 14 30 8 14 30 8 14 30 8 14 30 8 14 30 8 14 30 8 14 30 8 14 30 8 14 30 8 14 30 8 14 30 8 14 30 8 14 30 8 14 30 8 14 30 8 14 30 8 14 30 8 14 30 8 14 30 8 14 30 8 14 30 8 14 30 8 14 30 8 14 30 8 14 30 8 14 30 8 14 30 8 14 30 8 14 30 8 14 30 8 14 30 8 14 30 8 14 30 8 14 30 8 14 30 8 14 30 8 14 30 8 14 30 8 14 30 8 14 30 8 14 30 8 14 30 8 14 30 8 14 30 8 14 30 8 14 30 8 14 30 8 14 30 8 14 30 8 14 30 8 14 30 8 14 30 8 14 30 8 14 30 8 14 30 8 14 30 8 14 30 8 14 30 8 14 30 8 14 30 8 14 30 8 14 30 8 14 30 8 14 30 8 14 30 8 14 30 8 14 30
8 14 30 8 14 30 8 14 30 8 14 30 8 14 30 8 14 30 8 14 30 8 14 30 8 14 30 8 14 30 8 14 30 8 14 30 8 14 30 8 14 30 8 14 30 8 14 30 8 14 30 8 14 30 8 14 30 8 14 30 8 14 30 8 14 30 8 14 30 8 14 30 8 14 30 8 14 30 8 14 30 8 14 30 8 14 30 8 14 30 8 14 30 8 14 30 8 14 30 8 14 30 8 14 30 8 14 30 8 14 30 8 14 30 8 14 30 8 14 30 8 14 30 8 14 30 8 14 30 8 14 30 8 14 30 8 14 30 8 14 30 8 14 30 8 14 30 8 14 30 8 14 30 8 14 30 8 14 30 8 14 30 8 14 30 8 14 30 8 14 30 8 14 30 8 14 30 8 14 30 8 14 30 8 14 30 8 14 30 8 14 30 8 14 30 8 14 30 8 14 30 8 14 30 8 14 30 8 14 30 8 14 30 8 14 30 8 14 30 8 14 30 8 14 30 8 14 30 8 14 30 8 14 30 8 14 30 8 14 30 8 14 30 8 14 30 8 14 30 8 14 30 8 14 30 8 14 30 8 14 30 8 14 30 8 14 30 8 14 30 8 14 30 8 14 30 8 14 30 8 14 30 8 14 30 8 14 30 8 14 30 8 14 30 8 14 30 8 14 30 8 14 30 8 14 30 8 14 30 8 14 30 8 14 30 8 14 30 8 14 30 8 14 30 8 14 30 8 14 30 8 14 30 8 14 30 8 14 30 8 14 30 8 14 30 8 14 30 8 14 30 8 14 30 8 14 30 8 14 30 8 14 30 8 14 30 8 14 30 8 14 30 8 14 30 8 14 30 8 14 30 8 14 30 8 14 30 8 14 30 8 14 30 8 14 30 8 14 30 8 14 30 8 14 30 8 14 30 8 14 30 8 14 30 8 14 30 8 14 30 8 14 30 8 14 30 8 14 30 8 14 30 8 14 30 8 14 30 8 14 30 8 14 30 8 14 30 8 14 30 8 14 30 8 14 30 8 14 30 8 14 30 8 14 30 8 14 30 8 14 30 8 14 30 8 14 30 8 14 30 8 14 30 8 14 30 8 14 30 8 14 30 8 14 30 8 14 30 8 14 30 8 14 30 8 14 30 8 14 30 8 14 30 8 14 30 8 14 30 8 14 30 8 14 30 8 14 30 8 14 30 8 14 30 8 14 30 8 14 30 8 14 30 8 14 30 8 14 30 8 14 30 8 14 30 8 14 30 8 14 30 8 14 30 8 14 30 8 14 30 8 14 30 8 14 30 8 14 30 8 14 30 8 14 30 8 14 30 8 14 30 8 14 30 8 14 30 8 14 30 8 14 30 8 14 30 8 14 30 8 14 30 8 14 30 8 14 30 8 14 30 8 14 30 8 14 30 8 14 30 8 14 30 8 14 30 8 14 30 8 14 30 8 14 30 8 14 30 8 14 30 8 14 30 8 14 30 8 14 30 8 14 30 8 14 30 8 14 30 8 14 30 8 14 30 8 14 30 8 14 30 8 14 30 8 14 30 8 14 30 8 14 30 8 14 30 8 14 30 8 14 30 8 14 30 8 14 30 8 14 30 8 14 30 8 14 30 8 14 30
8 14 30 8 14 30 8 14 30 8 14 30 8 14 30 8 14 30 8 14 30 8 14 30 8 14 30 8 14 30 8 14 30 8 14 30 8 14 30 8 14 30 8 14 30 8 14 30 8 14 30 8 14 30 8 14 30 8 14 30 8 14 30 8 14 30 8 14 30 8 14 30 8 14 30 8 14 30 8 14 30 8 14 30 8 14 30 8 14 30 8 14 30 8 14 30 8 14 30 8 14 30 8 14 30 8 14 30 8 14 30 8 14 30 8 14 30 8 14 30 8 14 30 8 14 30 8 14 30 8 14 30 8 14 30 8 14 30 8 14 30 8 14 30 8 14 30 8 14 30 8 14 30 8 14 30 8 14 30 8 14 30 8 14 30 8 14 30 8 14 30 8 14 30 8 14 30 8 14 30 8 14 30 8 14 30 8 14 30 8 14 30 8 14 30 8 14 30 8 14 30 8 14 30 8 14 30 8 14 30 8 14 30 8 14 30 8 14 30 8 14 30 8 14 30 8 14 30 8 14 30 8 14 30 8 14 30 8 14 30 8 14 30 8 14 30 8 14 30 8 14 30 8 14 30 8 14 30 8 14 30 8 14 30 8 14 30 8 14 30 8 14 30 8 14 30 8 14 30 8 14 30 8 14 30 8 14 30 8 14 30 8 14 30 8 14 30 8 14 30 8 14 30 8 14 30 8 14 30 8 14 30 8 14 30 8 14 30 8 14 30 8 14 30 8 14 30 8 14 30 8 14 30 8 14 30 8 14 30 8 14 30 8 14 30 8 14 30 8 14 30 8 14 30 8 14 30 8 14 30 8 14 30 8 14 30 8 14 30 8 14 30 8 14 30 8 14 30 8 14 30 8 14 30 8 14 30 8 14 30 8 14 30 8 14 30 8 14 30 8 14 30 8 14 30 8 14 30 8 14 30 8 14 30 8 14 30 8 14 30 8 14 30 8 14 30 8 14 30 8 14 30 8 14 30 8 14 30 8 14 30 8 14 30 8 14 30 8 14 30 8 14 30 8 14 30 8 14 30 8 14 30 8 14 30 8 14 30 8 14 30 8 14 30 8 14 30 8 14 30 8 14 30 8 14 30 8 14 30 8 14 30 8 14 30 8 14 30 8 14 30 8 14 30 8 14 30 8 14 30 8 14 30 8 14 30 8 14 30 8 14 30 8 14 30 8 14 30 8 14 30 8 14 30 8 14 30 8 14 30 8 14 30 8 14 30 8 14 30 8 14 30 8 14 30 8 14 30 8 14 30 8 14 30 8 14 30 8 14 30 8 14 30 8 14 30 8 14 30 8 14 30 8 14 30 8 14 30 8 14 30 8 14 30 8 14 30 8 14 30 8 14 30 8 14 30 8 14 30 8 14 30 8 14 30 8 14 30 8 14 30 8 14 30 8 14 30 8 14 30 8 14 30 8 14 30 8 14 30 8 14 30 8 14 30 8 14 30 8 14 30 8 14 30 8 14 30 8 14 30 8 14 30 8 14 30 8 14 30 8 14 30 8 14 30 8 14 30 8 14 30 8 14 30 8 14 30 8 14 30 8 14 30 8 14 30 8 14 30 8 14 30 8 14 30 8 14 30 8 14 30 8 14 30 8 14 30 8 14 30
8 14 30 8 14 30 8 14 30 8 14 30 8 14 30 8 14 30 8 14 30 8 14 30 8 14 30 8 14 30 8 14 30 8 14 30 8 14 30 8 14 30 8 14 30 8 14 30 8 14 30 8 14 30 8 14 30 8 14 30 8 14 30 8 14 30 8 14 30 8 14 30 8 14 30 8 14 30 8 14 30 8 14 30 8 14 30 8 14 30 8 14 30 8 14 30 8 14 30 8 14 30 8 14 30 8 14 30 8 14 30 8 14 30 8 14 30 8 14 30 8 14 30 8 14 30 8 14 30 8 14 30 8 14 30 8 14 30 8 14 30 8 14 30 8 14 30 8 14 30 8 14 30 8 14 30 8 14 30 8 14 30 8 14 30 8 14 30 8 14 30 8 14 30 8 14 30 8 14 30 8 14 30 8 14 30 8 14 30 8 14 30 8 14 30 8 14 30 8 14 30 8 14 30 8 14 30 8 14 30 8 14 30 8 14 30 8 14 30 8 14 30 8 14 30 8 14 30 8 14 30 8 14 30 8 14 30 8 14 30 8 14 30 8 14 30 8 14 30 8 14 30 8 14 30 8 14 30 8 14 30 8 14 30 8 14 30 8 14 30 8 14 30 8 14 30 8 14 30 8 14 30 8 14 30 8 14 30 8 14 30 8 14 30 8 14 30 8 14 30 8 14 30 8 14 30 8 14 30 8 14 30 8 14 30 8 14 30 8 14 30 8 14 30 8 14 30 8 14 30 8 14 30 8 14 30 8 14 30 8 14 30 8 14 30 8 14 30 8 14 30 8 14 30 8 14 30 8 14 30 8 14 30 8 14 30 8 14 30 8 14 30 8 14 30 8 14 30 8 14 30 8 14 30 8 14 30 8 14 30 8 14 30 8 14 30 8 14 30 8 14 30 8 14 30 8 14 30 8 14 30 8 14 30 8 14 30 8 14 30 8 14 30 8 14 30 8 14 30 8 14 30 8 14 30 8 14 30 8 14 30 8 14 30 8 14 30 8 14 30 8 14 30 8 14 30 8 14 30 8 14 30 8 14 30 8 14 30 8 14 30 8 14 30 8 14 30 8 14 30 8 14 30 8 14 30 8 14 30 8 14 30 8 14 30 8 14 30 8 14 30 8 14 30 8 14 30 8 14 30 8 14 30 8 14 30 8 14 30 8 14 30 8 14 30 8 14 30 8 14 30 8 14 30 8 14 30 8 14 30 8 14 30 8 14 30 8 14 30 8 14 30 8 14 30 8 14 30 8 14 30 8 14 30 8 14 30 8 14 30 8 14 30 8 14 30 8 14 30 8 14 30 8 14 30 8 14 30 8 14 30 8 14 30 8 14 30 8 14 30 8 14 30 8 14 30 8 14 30 8 14 30 8 14 30 8 14 30 8 14 30 8 14 30 8 14 30 8 14 30 8 14 30 8 14 30 8 14 30 8 14 30 8 14 30 8 14 30 8 14 30 8 14 30 8 14 30 8 14 30 8 14 30 8 14 30 8 14 30 8 14 30 8 14 30 8 14 30 8 14 30 8 14 30 8 14 30 8 14 30 8 14 30 8 14 30 8 14 30 8 14 30 8 14 30 8 14 30 8 14 30 8 14 30 8 14 30 8 14 30
8 14 30 8 14 30 8 14 30 8 14 30 8 14 30 8 14 30 8 14 30 8 14 30 8 14 30 8 14 30 8 14 30 8 14 30 8 14 30 8 14 30 8 14 30 8 14 30 8 14 30 8 14 30 8 14 30 8 14 30 8 14 30 8 14 30 8 14 30 8 14 30 8 14 30 8 14 30 8 14 30 8 14 30 8 14 30 8 14 30 8 14 30 8 14 30 8 14 30 8 14 30 8 14 30 8 14 30 8 14 30 8 14 30 8 14 30 8 14 30 8 14 30 8 14 30 8 14 30 8 14 30 8 14 30 8 14 30 8 14 30 8 14 30 8 14 30 8 14 30 8 14 30 8 14 30 8 14 30 8 14 30 8 14 30 8 14 30 8 14 30 8 14 30 8 14 30 8 14 30 8 14 30 8 14 30 8 14 30 8 14 30 8 14 30 8 14 30 8 14 30 8 14 30 8 14 30 8 14 30 8 14 30 8 14 30 8 14 30 8 14 30 8 14 30 8 14 30 8 14 30 8 14 30 8 14 30 8 14 30 8 14 30 8 14 30 8 14 30 8 14 30 8 14 30 8 14 30 8 14 30 8 14 30 8 14 30 8 14 30 8 14 30 8 14 30 8 14 30 8 14 30 8 14 30 8 14 30 8 14 30 8 14 30 8 14 30 8 14 30 8 14 30 8 14 30 8 14 30 8 14 30 8 14 30 8 14 30 8 14 30 8 14 30 8 14 30 8 14 30 8 14 30 8 14 30 8 14 30 8 14 30 8 14 30 8 14 30 8 14 30 8 14 30 8 14 30 8 14 30 8 14 30 8 14 30 8 14 30 8 14 30 8 14 30 8 14 30 8 14 30 8 14 30 8 14 30 8 14 30 8 14 30 8 14 30 8 14 30 8 14 30 8 14 30 8 14 30 8 14 30 8 14 30 8 14 30 8 14 30 8 14 30 8 14 30 8 14 30 8 14 30 8 14 30 8 14 30 8 14 30 8 14 30 8 14 30 8 14 30 8 14 30 8 14 30 8 14 30 8 14 30 8 14 30 8 14 30 8 14 30 8 14 30 8 14 30 8 14 30 8 14 30 8 14 30 8 14 30 8 14 30 8 14 30 8 14 30 8 14 30 8 14 30 8 14 30 8 14 30 8 14 30 8 14 30 8 14 30 8 14 30 8 14 30 8 14 30 8 14 30 8 14 30 8 14 30 8 14 30 8 14 30 8 14 30 8 14 30 8 14 30 8 14 30 8 14 30 8 14 30 8 14 30 8 14 30 8 14 30 8 14 30 8 14 30 8 14 30 8 14 30 8 14 30 8 14 30 8 14 30 8 14 30 8 14 30 8 14 30 8 14 30 8 14 30 8 14 30 8 14 30 8 14 30 8 14 30 8 14 30 8 14 30 8 14 30 8 14 30 8 14 30 8 14 30 8 14 30 8 14 30 8 14 30 8 14 30 8 14 30 8 14 30 8 14 30 8 14 30 8 14 30 8 14 30 8 14 30 8 14 30 8 14 30 8 14 30 8 14 30 8 14 30 8 14 30 8 14 30 8 14 30 8 14 30 8 14 30 8 14 30 8 14 30 8 14 30 8 14 30 8 14 30 8 14 30 8 14 30
8 14 30 8 14 30 8 14 30 8 14 30 8 14 30 8 14 30 8 14 30 8 14 30 8 14 30 8 14 30 8 14 30 8 14 30 8 14 30 8 14 30 8 14 30 8 14 30 8 14 30 8 14 30 8 14 30 8 14 30 8 14 30 8 14 30 8 14 30 8 14 30 8 14 30 8 14 30 8 14 30 8 14 30 8 14 30 8 14 30 8 14 30 8 14 30 8 14 30 8 14 30 8 14 30 8 14 30 8 14 30 8 14 30 8 14 30 8 14 30 8 14 30 8 14 30 8 14 30 8 14 30 8 14 30 8 14 30 8 14 30 8 14 30 8 14 30 8 14 30 8 14 30 8 14 30 8 14 30 8 14 30 8 14 30 8 14 30 8 14 30 8 14 30 8 14 30 8 14 30 8 14 30 8 14 30 8 14 30 8 14 30 8 14 30 8 14 30 8 14 30 8 14 30 8 14 30 8 14 30 8 14 30 8 14 30 8 14 30 8 14 30 8 14 30 8 14 30 8 14 30 8 14 30 8 14 30 8 14 30 8 14 30 8 14 30 8 14 30 8 14 30 8 14 30 8 14 30 8 14 30 8 14 30 8 14 30 8 14 30 8 14 30 8 14 30 8 14 30 8 14 30 8 14 30 8 14 30 8 14 30 8 14 30 8 14 30 8 14 30 8 14 30 8 14 30 8 14 30 8 14 30 8 14 30 8 14 30 8 14 30 8 14 30 8 14 30 8 14 30 8 14 30 8 14 30 8 14 30 8 14 30 8 14 30 8 14 30 8 14 30 8 14 30 8 14 30 8 14 30 8 14 30 8 14 30 8 14 30 8 14 30 8 14 30 8 14 30 8 14 30 8 14 30 8 14 30 8 14 30 8 14 30 8 14 30 8 14 30 8 14 30 8 14 30 8 14 30 8 14 30 8 14 30 8 14 30 8 14 30 8 14 30 8 14 30 8 14 30 8 14 30 8 14 30 8 14 30 8 14 30 8 14 30 8 14 30 8 14 30 8 14 30 8 14 30 8 14 30 8 14 30 8 14 30 8 14 30 8 14 30 8 14 30 8 14 30 8 14 30 8 14 30 8 14 30 8 14 30 8 14 30 8 14 30 8 14 30 8 14 30 8 14 30 8 14 30 8 14 30 8 14 30 8 14 30 8 14 30 8 14 30 8 14 30 8 14 30 8 14 30 8 14 30 8 14 30 8 14 30 8 14 30 8 14 30 8 14 30 8 14 30 8 14 30 8 14 30 8 14 30 8 14 30 8 14 30 8 14 30 8 14 30 8 14 30 8 14 30 8 14 30 8 14 30 8 14 30 8 14 30 8 14 30 8 14 30 8 14 30 8 14 30 8 14 30 8 14 30 8 14 30 8 14 30 8 14 30 8 14 30 8 14 30 8 14 30 8 14 30 8 14 30 8 14 30 8 14 30 8 14 30 8 14 30 8 14 30 8 14 30 8 14 30 8 14 30 8 14 30 8 14 30 8 14 30 8 14 30 8 14 30 8 14 30 8 14 30 8 14 30 8 14 30 8 14 30 8 14 30 8 14 30 8 14 30 8 14 30 8 14 30 8 14 30 8 14 30 8 14 30 8 14 30 8 14 30 8 14 30
8 14 30 8 14 30 8 14 30 8 14 30 8 14 30 8 14 30 8 14 30 8 14 30 8 14 30 8 14 30 8 14 30 8 14 30 8 14 30 8 14 30 8 14 30 8 14 30 8 14 30 8 14 30 8 14 30 8 14 30 8 14 30 8 14 30 8 14 30 8 14 30 8 14 30 8 14 30 8 14 30 8 14 30 8 14 30 8 14 30 8 14 30 8 14 30 8 14 30 8 14 30 8 14 30 8 14 30 8 14 30 8 14 30 8 14 30 8 14 30 8 14 30 8 14 30 8 14 30 8 14 30 8 14 30 8 14 30 8 14 30 8 14 30 8 14 30 8 14 30 8 14 30 8 14 30 8 14 30 8 14 30 8 14 30 8 14 30 8 14 30 8 14 30 8 14 30 8 14 30 8 14 30 8 14 30 8 14 30 8 14 30 8 14 30 8 14 30 8 14 30 8 14 30 8 14 30 8 14 30 8 14 30 8 14 30 8 14 30 8 14 30 8 14 30 8 14 30 8 14 30 8 14 30 8 14 30 8 14 30 8 14 30 8 14 30 8 14 30 8 14 30 8 14 30 8 14 30 8 14 30 8 14 30 8 14 30 8 14 30 8 14 30 8 14 30 8 14 30 8 14 30 8 14 30 8 14 30 8 14 30 8 14 30 8 14 30 8 14 30 8 14 30 8 14 30 8 14 30 8 14 30 8 14 30 8 14 30 8 14 30 8 14 30 8 14 30 8 14 30 8 14 30 8 14 30 8 14 30 8 14 30 8 14 30 8 14 30 8 14 30 8 14 30 8 14 30 8 14 30 8 14 30 8 14 30 8 14 30 8 14 30 8 14 30 8 14 30 8 14 30 8 14 30 8 14 30 8 14 30 8 14 30 8 14 30 8 14 30 8 14 30 8 14 30 8 14 30 8 14 30 8 14 30 8 14 30 8 14 30 8 14 30 8 14 30 8 14 30 8 14 30 8 14 30 8 14 30 8 14 30 8 14 30 8 14 30 8 14 30 8 14 30 8 14 30 8 14 30 8 14 30 8 14 30 8 14 30 8 14 30 8 14 30 8 14 30 8 14 30 8 14 30 8 14 30 8 14 30 8 14 30 8 14 30 8 14 30 8 14 30 8 14 30 8 14 30 8 14 30 8 14 30 8 14 30 8 14 30 8 14 30 8 14 30 8 14 30 8 14 30 8 14 30 8 14 30 8 14 30 8 14 30 8 14 30 8 14 30 8 14 30 8 14 30 8 14 30 8 14 30 8 14 30 8 14 30 8 14 30 8 14 30 8 14 30 8 14 30 8 14 30 8 14 30 8 14 30 8 14 30 8 14 30 8 14 30 8 14 30 8 14 30 8 14 30 8 14 30 8 14 30 8 14 30 8 14 30 8 14 30 8 14 30 8 14 30 8 14 30 8 14 30 8 14 30 8 14 30 8 14 30 8 14 30 8 14 30 8 14 30 8 14 30 8 14 30 8 14 30 8 14 30 8 14 30 8 14 30 8 14 30 8 14 30 8 14 30 8 14 30 8 14 30 8 14 30 8 14 30 8 14 30 8 14 30 8 14 30 8 14 30 8 14 30 8 14 30 8 14 30 8 14 30 8 14 30 8 14 30
8 14 30 8 14 30 8 14 30 8 14 30 8 14 30 8 14 30 8 14 30 8 14 30 8 14 30 8 14 30 8 14 30 8 14 30 8 14 30 8 14 30 8 14 30 8 14 30 8 14 30 8 14 30 8 14 30 8 14 30 8 14 30 8 14 30 8 14 30 8 14 30 8 14 30 8 14 30 8 14 30 8 14 30 8 14 30 8 14 30 8 14 30 8 14 30 8 14 30 8 14 30 8 14 30 8 14 30 8 14 30 8 14 30 8 14 30 8 14 30 8 14 30 8 14 30 8 14 30 8 14 30 8 14 30 8 14 30 8 14 30 8 14 30 8 14 30 8 14 30 8 14 30 8 14 30 8 14 30 8 14 30 8 14 30 8 14 30 8 14 30 8 14 30 8 14 30 8 14 30 8 14 30 8 14 30 8 14 30 8 14 30 8 14 30 8 14 30 8 14 30 8 14 30 8 14 30 8 14 30 8 14 30 8 14 30 8 14 30 8 14 30 8 14 30 8 14 30 8 14 30 8 14 30 8 14 30 8 14 30 8 14 30 8 14 30 8 14 30 8 14 30 8 14 30 8 14 30 8 14 30 8 14 30 8 14 30 8 14 30 8 14 30 8 14 30 8 14 30 8 14 30 8 14 30 8 14 30 8 14 30 8 14 30 8 14 30 8 14 30 8 14 30 8 14 30 8 14 30 8 14 30 8 14 30 8 14 30 8 14 30 8 14 30 8 14 30 8 14 30 8 14 30 8 14 30 8 14 30 8 14 30 8 14 30 8 14 30 8 14 30 8 14 30 8 14 30 8 14 30 8 14 30 8 14 30 8 14 30 8 14 30 8 14 30 8 14 30 8 14 30 8 14 30 8 14 30 8 14 30 8 14 30 8 14 30 8 14 30 8 14 30 8 14 30 8 14 30 8 14 30 8 14 30 8 14 30 8 14 30 8 14 30 8 14 30 8 14 30 8 14 30 8 14 30 8 14 30 8 14 30 8 14 30 8 14 30 8 14 30 8 14 30 8 14 30 8 14 30 8 14 30 8 14 30 8 14 30 8 14 30 8 14 30 8 14 30 8 14 30 8 14 30 8 14 30 8 14 30 8 14 30 8 14 30 8 14 30 8 14 30 8 14 30 8 14 30 8 14 30 8 14 30 8 14 30 8 14 30 8 14 30 8 14 30 8 14 30 8 14 30 8 14 30 8 14 30 8 14 30 8 14 30 8 14 30 8 14 30 8 14 30 8 14 30 8 14 30 8 14 30 8 14 30 8 14 30 8 14 30 8 14 30 8 14 30 8 14 30 8 14 30 8 14 30 8 14 30 8 14 30 8 14 30 8 14 30 8 14 30 8 14 30 8 14 30 8 14 30 8 14 30 8 14 30 8 14 30 8 14 30 8 14 30 8 14 30 8 14 30 8 14 30 8 14 30 8 14 30 8 14 30 8 14 30 8 14 30 8 14 30 8 14 30 8 14 30 8 14 30 8 14 30 8 14 30 8 14 30 8 14 30 8 14 30 8 14 30 8 14 30 8 14 30 8 14 30 8 14 30 8 14 30 8 14 30 8 14 30 8 14 30 8 14 30 8 14 30 8 14 30 8 14 30 8 14 30 8 14 30
8 14 30 8 14 30 8 14 30 8 14 30 8 14 30 8 14 30 8 14 30 8 14 30 8 14 30 8 14 30 8 14 30 8 14 30 8 14 30 8 14 30 8 14 30 8 14 30 8 14 30 8 14 30 8 14 30 8 14 30 8 14 30 8 14 30 8 14 30 8 14 30 8 14 30 8 14 30 8 14 30 8 14 30 8 14 30 8 14 30 8 14 30 8 14 30 8 14 30 8 14 30 8 14 30 8 14 30 8 14 30 8 14 30 8 14 30 8 14 30 8 14 30 8 14 30 8 14 30 8 14 30 8 14 30 8 14 30 8 14 30 8 14 30 8 14 30 8 14 30 8 14 30 8 14 30 8 14 30 8 14 30 8 14 30 8 14 30 8 14 30 8 14 30 8 14 30 8 14 30 8 14 30 8 14 30 8 14 30 8 14 30 8 14 30 8 14 30 8 14 30 8 14 30 8 14 30 8 14 30 8 14 30 8 14 30 8 14 30 8 14 30 8 14 30 8 14 30 8 14 30 8 14 30 8 14 30 8 14 30 8 14 30 8 14 30 8 14 30 8 14 30 8 14 30 8 14 30 8 14 30 8 14 30 8 14 30 8 14 30 8 14 30 8 14 30 8 14 30 8 14 30 8 14 30 8 14 30 8 14 30 8 14 30 8 14 30 8 14 30 8 14 30 8 14 30 8 14 30 8 14 30 8 14 30 8 14 30 8 14 30 8 14 30 8 14 30 8 14 30 8 14 30 8 14 30 8 14 30 8 14 30 8 14 30 8 14 30 8 14 30 8 14 30 8 14 30 8 14 30 8 14 30 8 14 30 8 14 30 8 14 30 8 14 30 8 14 30 8 14 30 8 14 30 8 14 30 8 14 30 8 14 30 8 14 30 8 14 30 8 14 30 8 14 30 8 14 30 8 14 30 8 14 30 8 14 30 8 14 30 8 14 30 8 14 30 8 14 30 8 14 30 8 14 30 8 14 30 8 14 30 8 14 30 8 14 30 8 14 30 8 14 30 8 14 30 8 14 30 8 14 30 8 14 30 8 14 30 8 14 30 8 14 30 8 14 30 8 14 30 8 14 30 8 14 30 8 14 30 8 14 30 8 14 30 8 14 30 8 14 30 8 14 30 8 14 30 8 14 30 8 14 30 8 14 30 8 14 30 8 14 30 8 14 30 8 14 30 8 14 30 8 14 30 8 14 30 8 14 30 8 14 30 8 14 30 8 14 30 8 14 30 8 14 30 8 14 30 8 14 30 8 14 30 8 14 30 8 14 30 8 14 30 8 14 30 8 14 30 8 14 30 8 14 30 8 14 30 8 14 30 8 14 30 8 14 30 8 14 30 8 14 30 8 14 30 8 14 30 8 14 30 8 14 30 8 14 30 8 14 30 8 14 30 8 14 30 8 14 30 8 14 30 8 14 30 8 14 30 8 14 30 8 14 30 8 14 30 8 14 30 8 14 30 8 14 30 8 14 30 8 14 30 8 14 30 8 14 30 8 14 30 8 14 30 8 14 30 8 14 30 8 14 30 8 14 30 8 14 30 8 14 30 8 14 30 8 14 30 8 14 30 8 14 30 8 14 30 8 14 30 8 14 30 8 14 30 8 14 30
8 14 30 8 14 30 8 14 30 8 14 30 8 14 30 8 14 30 8 14 30 8 14 30 8 14 30 8 14 30 8 14 30 8 14 30 8 14 30 8 14 30 8 14 30 8 14 30 8 14 30 8 14 30 8 14 30 8 14 30 8 14 30 8 14 30 8 14 30 8 14 30 8 14 30 8 14 30 8 14 30 8 14 30 8 14 30 8 14 30 8 14 30 8 14 30 8 14 30 8 14 30 8 14 30 8 14 30 8 14 30 8 14 30 8 14 30 8 14 30 8 14 30 8 14 30 8 14 30 8 14 30 8 14 30 8 14 30 8 14 30 8 14 30 8 14 30 8 14 30 8 14 30 8 14 30 8 14 30 8 14 30 8 14 30 8 14 30 8 14 30 8 14 30 8 14 30 8 14 30 8 14 30 8 14 30 8 14 30 8 14 30 8 14 30 8 14 30 8 14 30 8 14 30 8 14 30 8 14 30 8 14 30 8 14 30 8 14 30 8 14 30 8 14 30 8 14 30 8 14 30 8 14 30 8 14 30 8 14 30 8 14 30 8 14 30 8 14 30 8 14 30 8 14 30 8 14 30 8 14 30 8 14 30 8 14 30 8 14 30 8 14 30 8 14 30 8 14 30 8 14 30 8 14 30 8 14 30 8 14 30 8 14 30 8 14 30 8 14 30 8 14 30 8 14 30 8 14 30 8 14 30 8 14 30 8 14 30 8 14 30 8 14 30 8 14 30 8 14 30 8 14 30 8 14 30 8 14 30 8 14 30 8 14 30 8 14 30 8 14 30 8 14 30 8 14 30 8 14 30 8 14 30 8 14 30 8 14 30 8 14 30 8 14 30 8 14 30 8 14 30 8 14 30 8 14 30 8 14 30 8 14 30 8 14 30 8 14 30 8 14 30 8 14 30 8 14 30 8 14 30 8 14 30 8 14 30 8 14 30 8 14 30 8 14 30 8 14 30 8 14 30 8 14 30 8 14 30 8 14 30 8 14 30 8 14 30 8 14 30 8 14 30 8 14 30 8 14 30 8 14 30 8 14 30 8 14 30 8 14 30 8 14 30 8 14 30 8 14 30 8 14 30 8 14 30 8 14 30 8 14 30 8 14 30 8 14 30 8 14 30 8 14 30 8 14 30 8 14 30 8 14 30 8 14 30 8 14 30 8 14 30 8 14 30 8 14 30 8 14 30 8 14 30 8 14 30 8 14 30 8 14 30 8 14 30 8 14 30 8 14 30 8 14 30 8 14 30 8 14 30 8 14 30 8 14 30 8 14 30 8 14 30 8 14 30 8 14 30 8 14 30 8 14 30 8 14 30 8 14 30 8 14 30 8 14 30 8 14 30 8 14 30 8 14 30 8 14 30 8 14 30 8 14 30 8 14 30 8 14 30 8 14 30 8 14 30 8 14 30 8 14 30 8 14 30 8 14 30 8 14 30 8 14 30 8 14 30 8 14 30 8 14 30 8 14 30 8 14 30 8 14 30 8 14 30 8 14 30 8 14 30 8 14 30 8 14 30 8 14 30 8 14 30 8 14 30 8 14 30 8 14 30 8 14 30 8 14 30 8 14 30 8 14 30 8 14 30 8 14 30 8 14 30 8 14 30 8 14 30
8 14 30 8 14 30 8 14 30 8 14 30 8 14 30 8 14 30 8 14 30 8 14 30 8 14 30 8 14 30 8 14 30 8 14 30 8 14 30 8 14 30 8 14 30 8 14 30 8 14 30 8 14 30 8 14 30 8 14 30 8 14 30 8 14 30 8 14 30 8 14 30 8 14 30 8 14 30 8 14 30 8 14 30 8 14 30 8 14 30 8 14 30 8 14 30 8 14 30 8 14 30 8 14 30 8 14 30 8 14 30 8 14 30 8 14 30 8 14 30 8 14 30 8 14 30 8 14 30 8 14 30 8 14 30 8 14 30 8 14 30 8 14 30 8 14 30 8 14 30 8 14 30 8 14 30 8 14 30 8 14 30 8 14 30 8 14 30 8 14 30 8 14 30 8 14 30 8 14 30 8 14 30 8 14 30 8 14 30 8 14 30 8 14 30 8 14 30 8 14 30 8 14 30 8 14 30 8 14 30 8 14 30 8 14 30 8 14 30 8 14 30 8 14 30 8 14 30 8 14 30 8 14 30 8 14 30 8 14 30 8 14 30 8 14 30 8 14 30 8 14 30 8 14 30 8 14 30 8 14 30 8 14 30 8 14 30 8 14 30 8 14 30 8 14 30 8 14 30 8 14 30 8 14 30 8 14 30 8 14 30 8 14 30 8 14 30 8 14 30 8 14 30 8 14 30 8 14 30 8 14 30 8 14 30 8 14 30 8 14 30 8 14 30 8 14 30 8 14 30 8 14 30 8 14 30 8 14 30 8 14 30 8 14 30 8 14 30 8 14 30 8 14 30 8 14 30 8 14 30 8 14 30 8 14 30 8 14 30 8 14 30 8 14 30 8 14 30 8 14 30 8 14 30 8 14 30 8 14 30 8 14 30 8 14 30 8 14 30 8 14 30 8 14 30 8 14 30 8 14 30 8 14 30 8 14 30 8 14 30 8 14 30 8 14 30 8 14 30 8 14 30 8 14 30 8 14 30 8 14 30 8 14 30 8 14 30 8 14 30 8 14 30 8 14 30 8 14 30 8 14 30 8 14 30 8 14 30 8 14 30 8 14 30 8 14 30 8 14 30 8 14 30 8 14 30 8 14 30 8 14 30 8 14 30 8 14 30 8 14 30 8 14 30 8 14 30 8 14 30 8 14 30 8 14 30 8 14 30 8 14 30 8 14 30 8 14 30 8 14 30 8 14 30 8 14 30 8 14 30 8 14 30 8 14 30 8 14 30 8 14 30 8 14 30 8 14 30 8 14 30 8 14 30 8 14 30 8 14 30 8 14 30 8 14 30 8 14 30 8 14 30 8 14 30 8 14 30 8 14 30 8 14 30 8 14 30 8 14 30 8 14 30 8 14 30 8 14 30 8 14 30 8 14 30 8 14 30 8 14 30 8 14 30 8 14 30 8 14 30 8 14 30 8 14 30 8 14 30 8 14 30 8 14 30 8 14 30 8 14 30 8 14 30 8 14 30 8 14 30 8 14 30 8 14 30 8 14 30 8 14 30 8 14 30 8 14 30 8 14 30 8 14 30 8 14 30 8 14 30 8 14 30 8 14 30 8 14 30 8 14 30 8 14 30 8 14 30 8 14 30 8 14 30 8 14 30 8 14 30
8 14 30 8 14 30 8 14 30 8 14 30 8 14 30 8 14 30 8 14 30 8 14 30 8 14 30 8 14 30 8 14 30 8 14 30 8 14 30 8 14 30 8 14 30 8 14 30 8 14 30 8 14 30 8 14 30 8 14 30 8 14 30 8 14 30 8 14 30 8 14 30 8 14 30 8 14 30 8 14 30 8 14 30 8 14 30 8 14 30 8 14 30 8 14 30 8 14 30 8 14 30 8 14 30 8 14 30 8 14 30 8 14 30 8 14 30 8 14 30 8 14 30 8 14 30 8 14 30 8 14 30 8 14 30 8 14 30 8 14 30 8 14 30 8 14 30 8 14 30 8 14 30 8 14 30 8 14 30 8 14 30 8 14 30 8 14 30 8 14 30 8 14 30 8 14 30 8 14 30 8 14 30 8 14 30 8 14 30 8 14 30 8 14 30 8 14 30 8 14 30 8 14 30 8 14 30 8 14 30 8 14 30 8 14 30 8 14 30 8 14 30 8 14 30 8 14 30 8 14 30 8 14 30 8 14 30 8 14 30 8 14 30 8 14 30 8 14 30 8 14 30 8 14 30 8 14 30 8 14 30 8 14 30 8 14 30 8 14 30 8 14 30 8 14 30 8 14 30 8 14 30 8 14 30 8 14 30 8 14 30 8 14 30 8 14 30 8 14 30 8 14 30 8 14 30 8 14 30 8 14 30 8 14 30 8 14 30 8 14 30 8 14 30 8 14 30 8 14 30 8 14 30 8 14 30 8 14 30 8 14 30 8 14 30 8 14 30 8 14 30 8 14 30 8 14 30 8 14 30 8 14 30 8 14 30 8 14 30 8 14 30 8 14 30 8 14 30 8 14 30 8 14 30 8 14 30 8 14 30 8 14 30 8 14 30 8 14 30 8 14 30 8 14 30 8 14 30 8 14 30 8 14 30 8 14 30 8 14 30 8 14 30 8 14 30 8 14 30 8 14 30 8 14 30 8 14 30 8 14 30 8 14 30 8 14 30 8 14 30 8 14 30 8 14 30 8 14 30 8 14 30 8 14 30 8 14 30 8 14 30 8 14 30 8 14 30 8 14 30 8 14 30 8 14 30 8 14 30 8 14 30 8 14 30 8 14 30 8 14 30 8 14 30 8 14 30 8 14 30 8 14 30 8 14 30 8 14 30 8 14 30 8 14 30 8 14 30 8 14 30 8 14 30 8 14 30 8 14 30 8 14 30 8 14 30 8 14 30 8 14 30 8 14 30 8 14 30 8 14 30 8 14 30 8 14 30 8 14 30 8 14 30 8 14 30 8 14 30 8 14 30 8 14 30 8 14 30 8 14 30 8 14 30 8 14 30 8 14 30 8 14 30 8 14 30 8 14 30 8 14 30 8 14 30 8 14 30 8 14 30 8 14 30 8 14 30 8 14 30 8 14 30 8 14 30 8 14 30 8 14 30 8 14 30 8 14 30 8 14 30 8 14 30 8 14 30 8 14 30 8 14 30 8 14 30 8 14 30 8 14 30 8 14 30 8 14 30 8 14 30 8 14 30 8 14 30 8 14 30 8 14 30 8 14 30 8 14 30 8 14 30 8 14 30 8 14 30 8 14 30 8 14 30 8 14 30 8 14 30
253 239 183 253 239 183 253 239 183 253 239 183 253 239 183 253 239 183 253 239 183 253 239 183 253 239 183 253 239 183 253 239 183 253 239 183 253 239 183 253 239 183 253 239 183 253 239 183 253 239 183 253 239 183 253 239 183 253 239 183 253 239 183 253 239 183 253 239 183 253 239 183 253 239 183 253 239 183 253 239 183 253 239 183 253 239 183 253 239 183 253 239 183 253 239 183 253 239 183 253 239 183 253 239 183 253 239 183 253 239 183 253 239 183 253 239 183 253 239 183 253 239 183 253 239 183 253 239 183 253 239 183 253 239 183 253 239 183 253 239 183 253 239 183 253 239 183 253 239 183 253 239 183 253 239 183 253 239 183 253 239 183 253 239 183 253 239 183 253 239 183 253 239 183 253 239 183 253 239 183 253 239 183 253 239 183 253 239 183 253 239 183 253 239 183 253 239 183 253 239 183 253 239 183 253 239 183 253 239 183 253 239 183 253 239 183 253 239 183 253 239 183 253 239 183 253 239 183 253 239 183 253 239 183 253 239 183 253 239 183 253 239 183 253 239 183 253 239 183 253 239 183 253 239 183 253 239 183 253 239 183 253 239 183 253 239 183 253 239 183 253 239 183 253 239 183 253 239 183 253 239 183 253 239 183 253 239 183 253 239 183 253 239 183 253 239 183 253 239 183 253 239 183 253 239 183 253 239 183 253 239 183 253 239 183 253 239 183 253 239 183 253 239 183 253 239 183 253 239 183 253 239 183 253 239 183 253 239 183 253 239 183 253 239 183 253 239 183 253 239 183 253 239 183 253 239 183 253 239 183 253 239 183 253 239 183 253 239 183 253 239 183 253 239 183 253 239 183 253 239 183 253 239 183 253 239 183 253 239 183 253 239 183 253 239 183 253 239 183 253 239 183 253 239 183 253 239 183 253 239 183 253 239 183 253 239 183 253 239 183 253 239 183 253 239 183 253 239 183 253 239 183 253 239 183 253 239 183 253 239 183 253 239 183 253 239 183 253 239 183 253 239 183 253 239 183 253 239 183 253 239 183 253 239 183 253 239 183 253 239 183 253 239 183 253 239 183 253 239 183 253 239 183 253 239 183 253 239 183 253 239 183 253 239 183 253 239 183 253 239 183 253 239 183 253 239 183 253 239 183 253 239 183 253 239 183 253 239 183 253 239 183 253 239 183 253 239 183 253 239 183 253 239 183 253 239 183 253 239 183 253 239 183 253 239 183 253 239 183 253 239 183 253 239 183 253 239 183 253 239 183 253 239 183 253 239 183 253 239 183 253 239 183 253 239 183 253 239 183 253 239 183 253 239 183 253 239 183 253 239 183 253 239 183 253 239 183 253 239 183 253 239 183 253 239 183 253 239 183 253 239 183 253 239 183 253 239 183 253 239 183 253 239 183 253 239 183 253 239 183 253 239 183 253 239 183 253 239 183 253 239 183 253 239 183 253 239 183 253 239 183 253 239 183 253 239 183 253 239 183 253 239 183 253 239 183 253 239 183 253 239 183 253 239 183 253 239 183 253 239 183 253 239 183 253 239 183 253 239 183 253 239 183 253 239 183 253 239 183 253 239 183 253 239 183 253 239 183 253 239 183 253 239 183 253 239 183 253 239 183
253 239 183 253 239 183 253 239 183 253 239 183 253 239 183 253 239 183 253 239 183 253 239 183 253 239 183 253 239 183 253 239 183 253 239 183 253 239 183 253 239 183 253 239 183 253 239 183 253 239 183 253 239 183 253 239 183 253 239 183 253 239 183 253 239 183 253 239 183 253 239 183 253 239 183 253 239 183 253 239 183 253 239 183 253 239 183 253 239 183 253 239 183 253 239 183 253 239 183 253 239 183 253 239 183 253 239 183 253 239 183 253 239 183 253 239 183 253 239 183 253 239 183 253 239 183 253 239 183 253 239 183 253 239 183 253 239 183 253 239 183 253 239 183 253 239 183 253 239 183 253 239 183 253 239 183 253 239 183 253 239 183 253 239 183 253 239 183 253 239 183 253 239 183 253 239 183 253 239 183 253 239 183 253 239 183 253 239 183 253 239 183 253 239 183 253 239 183 253 239 183 253 239 183 253 239 183 253 239 183 253 239 183 253 239 183 253 239 183 253 239 183 253 239 183 253 239 183 253 239 183 253 239 183 253 239 183 253 239 183 253 239 183 253 239 183 253 239 183 253 239 183 253 239 183 253 239 183 253 239 183 253 239 183 253 239 183 253 239 183 253 239 183 253 239 183 253 239 183 253 239 183 253 239 183 253 239 183 253 239 183 253 239 183 253 239 183 253 239 183 253 239 183 253 239 183 253 239 183 253 239 183 253 239 183 253 239 183 253 239 183 253 239 183 253 239 183 253 239 183 253 239 183 253 239 183 253 239 183 253 239 183 253 239 183 253 239 183 253 239 183 253 239 183 253 239 183 253 239 183 253 239 183 253 239 183 253 239 183 253 239 183 253 239 183 253 239 183 253 239 183 253 239 183 253 239 183 253 239 183 253 239 183 253 239 183 253 239 183 253 239 183 253 239 183 253 239 183 253 239 183 253 239 183 253 239 183 253 239 183 253 239 183 253 239 183 253 239 183 253 239 183 253 239 183 253 239 183 253 239 183 253 239 183 253 239 183 253 239 183 253 239 183 253 239 183 253 239 183 253 239 183 253 239 183 253 239 183 253 239 183 253 239 183 253 239 183 253 239 183 253 239 183 253 239 183 253 239 183 253 239 183 253 239 183 253 239 183 253 239 183 253 239 183 253 239 183 253 239 183 253 239 183 253 239 183 253 239 183 253 239 183 253 239 183 253 239 183 253 239 183 253 239 183 253 239 183 253 239 183 253 239 183 253 239 183 253 239 183 253 239 183 253 239 183 253 239 183 253 239 183 253 239 183 253 239 183 253 239 183 253 239 183 253 239 183 253 239 183 253 239 183 253 239 183 253 239 183 253 239 183 253 239 183 253 239 183 253 239 183 253 239 183 253 239 183 253 239 183 253 239 183 253 239 183 253 239 183 253 239 183 253 239 183 253 239 183 253 239 183 253 239 183 253 239 183 253 239 183 253 239 183 253 239 183 253 239 183 253 239 183 253 239 183 253 239 183 253 239 183 253 239 183 253 239 183 253 239 183 253 239 183 253 239 183 253 239 183 253 239 183 253 239 183 253 239 183 253 239 183 253 239 183 253 239 183 253 239 183 253 239 183 253 239 183 253 239 183 253 239 183 253 239 183 253 239 183 253 239 183
253 239 183 253 239 183 253 239 183 253 239 183 253 239 183 253 239 183 253 239 183 253 239 183 253 239 183 253 239 183 253 239 183 253 239 183 253 239 183 253 239 183 253 239 183 253 239 183 253 239 183 253 239 183 253 239 183 253 239 183 253 239 183 253 239 183 253 239 183 253 239 183 253 239 183 253 239 183 253 239 183 253 239 183 253 239 183 253 239 183 253 239 183 253 239 183 253 239 183 253 239 183 253 239 183 253 239 183 253 239 183 253 239 183 253 239 183 253 239 183 253 239 183 253 239 183 253 239 183 253 239 183 253 239 183 253 239 183 253 239 183 253 239 183 253 239 183 253 239 183 253 239 183 253 239 183 253 239 183 253 239 183 253 239 183 253 239 183 253 239 183 253 239 183 253 239 183 253 239 183 253 239 183 253 239 183 253 239 183 253 239 183 253 239 183 253 239 183 253 239 183 253 239 183 253 239 183 253 239 183 253 239 183 253 239 183 253 239 183 253 239 183 253 239 183 253 239 183 253 239 183 253 239 183 253 239 183 253 239 183 253 239 183 253 239 183 253 239 183 253 239 183 253 239 183 253 239 183 253 239 183 253 239 183 253 239 183 253 239 183 253 239 183 253 239 183 253 239 183 253 239 183 253 239 183 253 239 183 253 239 183 253 239 183 253 239 183 253 239 183 253 239 183 253 239 183 253 239 183 253 239 183 253 239 183 253 239 183 253 239 183 253 239 183 253 239 183 253 239 183 253 239 183 253 239 183 253 239 183 253 239 183 253 239 183 253 239 183 253 239 183 253 239 183 253 239 183 253 239 183 253 239 183 253 239 183 253 239 183 253 239 183 253 239 183 253 239 183 253 239 183 253 239 183 253 239 183 253 239 183 253 239 183 253 239 183 253 239 183 253 239 183 253 239 183 253 239 183 253 239 183 253 239 183 253 239 183 253 239 183 253 239 183 253 239 183 253 239 183 253 239 183 253 239 183 253 239 183 253 239 183 253 239 183 253 239 183 253 239 183 253 239 183 253 239 183 253 239 183 253 239 183 253 239 183 253 239 183 253 239 183 253 239 183 253 239 183 253 239 183 253 239 183 253 239 183 253 239 183 253 239 183 253 239 183 253 239 183 253 239 183 253 239 183 253 239 183 253 239 183 253 239 183 253 239 183 253 239 183 253 239 183 253 239 183 253 239 183 253 239 183 253 239 183 253 239 183 253 239 183 253 239 183 253 239 183 253 239 183 253 239 183 253 239 183 253 239 183 253 239 183 253 239 183 253 239 183 253 239 183 253 239 183 253 239 183 253 239 183 253 239 183 253 239 183 253 239 183 253 239 183 253 239 183 253 239 183 253 239 183 253 239 183 253 239 183 253 239 183 253 239 183 253 239 183 253 239 183 253 239 183 253 239 183 253 239 183 253 239 183 253 239 183 253 239 183 253 239 183 253 239 183 253 239 183 253 239 183 253 239 183 253 239 183 253 239 183 253 239 183 253 239 183 253 239 183 253 239 183 253 239 183 253 239 183 253 239 183 253 239 183 253 239 183 253 239 183 253 239 183 253 239 183 253 239 183 253 239 183 253 239 183 253 239 183 253 239 183 253 239 183 253 239 183 253 239 183 253 239 183
253 239 183 253 239 183 253 239 183 253 239 183 253 239 183 253 239 183 253 239 183 253 239 183 253 239 183 253 239 183 253 239 183 253 239 183 253 239 183 253 239 183 253 239 183 253 239 183 253 239 183 253 239 183 253 239 183 253 239 183 253 239 183 253 239 183 253 239 183 253 239 183 253 239 183 253 239 183 253 239 183 253 239 183 253 239 183 253 239 183 253 239 183 253 239 183 253 239 183 253 239 183 253 239 183 253 239 183 253 239 183 253 239 183 253 239 183 253 239 183 253 239 183 253 239 183 253 239 183 253 239 183 253 239 183 253 239 183 253 239 183 253 239 183 253 239 183 253 239 183 253 239 183 253 239 183 253 239 183 253 239 183 253 239 183 253 239 183 253 239 183 253 239 183 253 239 183 253 239 183 253 239 183 253 239 183 253 239 183 253 239 183 253 239 183 253 239 183 253 239 183 253 239 183 253 239 183 253 239 183 253 239 183 253 239 183 253 239 183 253 239 183 253 239 183 253 239 183 253 239 183 253 239 183 253 239 183 253 239 183 253 239 183 253 239 183 253 239 183 253 239 183 253 239 183 253 239 183 253 239 183 253 239 183 253 239 183 253 239 183 253 239 183 253 239 183 253 239 183 253 239 183 253 239 183 253 239 183 253 239 183 253 239 183 253 239 183 253 239 183 253 239 183 253 239 183 253 239 183 253 239 183 253 239 183 253 239 183 253 239 183 253 239 183 253 239 183 253 239 183 253 239 183 253 239 183 253 239 183 253 239 183 253 239 183 253 239 183 253 239 183 253 239 183 253 239 183 253 239 183 253 239 183 253 239 183 253 239 183 253 239 183 253 239 183 253 239 183 253 239 183 253 239 183 253 239 183 253 239 183 253 239 183 253 239 183 253 239 183 253 239 183 253 239 183 253 239 183 253 239 183 253 239 183 253 239 183 253 239 183 253 239 183 253 239 183 253 239 183 253 239 183 253 239 183 253 239 183 253 239 183 253 239 183 253 239 183 253 239 183 253 239 183 253 239 183 253 239 183 253 239 183 253 239 183 253 239 183 253 239 183 253 239 183 253 239 183 253 239 183 253 239 183 253 239 183 253 239 183 253 239 183 253 239 183 253 239 183 253 239 183 253 239 183 253 239 183 253 239 183 253 239 183 253 239 183 253 239 183 253 239 183 253 239 183 253 239 183 253 239 183 253 239 183 253 239 183 253 239 183 253 239 183 253 239 183 253 239 183 253 239 183 253 239 183 253 239 183 253 239 183 253 239 183 253 239 183 253 239 183 253 239 183 253 239 183 253 239 183 253 239 183 253 239 183 253 239 183 253 239 183 253 239 183 253 239 183 253 239 183 253 239 183 253 239 183 253 239 183 253 239 183 253 239 183 253 239 183 253 239 183 253 239 183 253 239 183 253 239 183 253 239 183 253 239 183 253 239 183 253 239 183 253 239 183 253 239 183 253 239 183 253 239 183 253 239 183 253 239 183 253 239 183 253 239 183 253 239 183 253 239 183 253 239 183 253 239 183 253 239 183 253 239 183 253 239 183 253 239 183 253 239 183 253 239 183 253 239 183 253 239 183 253 239 183 253 239 183 253 239 183 253 239 183 253 239 183 253 239 183
253 239 183 253 239 183 253 239 183 253 239 183 253 239 183 253 239 183 253 239 183 253 239 183 253 239 183 253 239 183 253 239 183 253 239 183 253 239 183 253 239 183 253 239 183 253 239 183 253 239 183 253 239 183 253 239 183 253 239 183 253 239 183 253 239 183 253 239 183 253 239 183 253 239 183 253 239 183 253 239 183 253 239 183 253 239 183 253 239 183 253 239 183 253 239 183 253 239 183 253 239 183 253 239 183 253 239 183 253 239 183 253 239 183 253 239 183 253 239 183 253 239 183 253 239 183 253 239 183 253 239 183 253 239 183 253 239 183 253 239 183 253 239 183 253 239 183 253 239 183 253 239 183 253 239 183 253 239 183 253 239 183 253 239 183 253 239 183 253 239 183 253 239 183 253 239 183 253 239 183 253 239 183 253 239 183 253 239 183 253 239 183 253 239 183 253 239 183 253 239 183 253 239 183 253 239 183 253 239 183 253 239 183 253 239 183 253 239 183 253 239 183 253 239 183 253 239 183 253 239 183 253 239 183 253 239 183 253 239 183 253 239 183 253 239 183 253 239 183 253 239 183 253 239 183 253 239 183 253 239 183 253 239 183 253 239 183 253 239 183 253 239 183 253 239 183 253 239 183 253 239 183 253 239 183 253 239 183 253 239 183 253 239 183 253 239 183 253 239 183 253 239 183 253 239 183 253 239 183 253 239 183 253 239 183 253 239 183 253 239 183 253 239 183 253 239 183 253 239 183 253 239 183 253 239 183 253 239 183 253 239 183 253 239 183 253 239 183 253 239 183 253 239 183 253 239 183 253 239 183 253 239 183 253 239 183 253 239 183 253 239 183 253 239 183 253 239 183 253 239 183 253 239 183 253 239 183 253 239 183 253 239 183 253 239 183 253 239 183 253 239 183 253 239 183 253 239 183 253 239 183 253 239 183 253 239 183 253 239 183 253 239 183 253 239 183 253 239 183 253 239 183 253 239 183 253 239 183 253 239 183 253 239 183 253 239 183 253 239 183 253 239 183 253 239 183 253 239 183 253 239 183 253 239 183 253 239 183 253 239 183 253 239 183 253 239 183 253 239 183 253 239 183 253 239 183 253 239 183 253 239 183 253 239 183 253 239 183 253 239 183 253 239 183 253 239 183 253 239 183 253 239 183 253 239 183 253 239 183 253 239 183 253 239 183 253 239 183 253 239 183 253 239 183 253 239 183 253 239 183 253 239 183 253 239 183 253 239 183 253 239 183 253 239 183 253 239 183 253 239 183 253 239 183 253 239 183 253 239 183 253 239 183 253 239 183 253 239 183 253 239 183 253 239 183 253 239 183 253 239 183 253 239 183 253 239 183 253 239 183 253 239 183 253 239 183 253 239 183 253 239 183 253 239 183 253 239 183 253 239 183 253 239 183 253 239 183 253 239 183 253 239 183 253 239 183 253 239 183 253 239 183 253 239 183 253 239 183 253 239 183 253 239 183 253 239 183 253 239 183 253 239 183 253 239 183 253 239 183 253 239 183 253 239 183 253 239 183 253 239 183 253 239 183 253 239 183 253 239 183 253 239 183 253 239 183 253 239 183 253 239 183 253 239 183 253 239 183 253 239 183 253 239 183 253 239 183 253 239 183
253 239 183 253 239 183 253 239 183 253 239 183 253 239 183 253 239 183 253 239 183 253 239 183 253 239 183 253 239 183 253 239 183 253 239 183 253 239 183 253 239 183 253 239 183 253 239 183 253 239 183 253 239 183 253 239 183 253 239 183 253 239 183 253 239 183 253 239 183 253 239 183 253 239 183 253 239 183 253 239 183 253 239 183 253 239 183 253 239 183 253 239 183 253 239 183 253 239 183 253 239 183 253 239 183 253 239 183 253 239 183 253 239 183 253 239 183 253 239 183 253 239 183 253 239 183 253 239 183 253 239 183 253 239 183 253 239 183 253 239 183 253 239 183 253 239 183 253 239 183 253 239 183 253 239 183 253 239 183 253 239 183 253 239 183 253 239 183 253 239 183 253 239 183 253 239 183 253 239 183 253 239 183 253 239 183 253 239 183 253 239 183 253 239 183 253 239 183 253 239 183 253 239 183 253 239 183 253 239 183 253 239 183 253 239 183 253 239 183 253 239 183 253 239 183 253 239 183 253 239 183 253 239 183 253 239 183 253 239 183 253 239 183 253 239 183 253 239 183 253 239 183 253 239 183 253 239 183 253 239 183 253 239 183 253 239 183 253 239 183 253 239 183 253 239 183 253 239 183 253 239 183 253 239 183 253 239 183 253 239 183 253 239 183 253 239 183 253 239 183 253 239 183 253 239 183 253 239 183 253 239 183 253 239 183 253 239 183 253 239 183 253 239 183 253 239 183 253 239 183 253 239 183 253 239 183 253 239 183 253 239 183 253 239 183 253 239 183 253 239 183 253 239 183 253 239 183 253 239 183 253 239 183 253 239 183 253 239 183 253 239 183 253 239 183 253 239 183 253 239 183 253 239 183 253 239 183 253 239 183 253 239 183 253 239 183 253 239 183 253 239 183 253 239 183 253 239 183 253 239 183 253 239 183 253 239 183 253 239 183 253 239 183 253 239 183 253 239 183 253 239 183 253 239 183 253 239 183 253 239 183 253 239 183 253 239 183 253 239 183 253 239 183 253 239 183 253 239 183 253 239 183 253 239 183 253 239 183 253 239 183 253 239 183 253 239 183 253 239 183 253 239 183 253 239 183 253 239 183 253 239 183 253 239 183 253 239 183 253 239 183 253 239 183 253 239 183 253 239 183 253 239 183 253 239 183 253 239 183 253 239 183 253 239 183 253 239 183 253 239 183 253 239 183 253 239 183 253 239 183 253 239 183 253 239 183 253 239 183 253 239 183 253 239 183 253 239 183 253 239 183 253 239 183 253 239 183 253 239 183 253 239 183 253 239 183 253 239 183 253 239 183 253 239 183 253 239 183 253 239 183 253 239 183 253 239 183 253 239 183 253 239 183 253 239 183 253 239 183 253 239 183 253 239 183 253 239 183 253 239 183 253 239 183 253 239 183 253 239 183 253 239 183 253 239 183 253 239 183 253 239 183 253 239 183 253 239 183 253 239 183 253 239 183 253 239 183 253 239 183 253 239 183 253 239 183 253 239 183 253 239 183 253 239 183 253 239 183 253 239 183 253 239 183 253 239 183 253 239 183 253 239 183 253 239 183 253 239 183 253 239 183 253 239 183 253 239 183 253 239 183 253 239 183 253 239 183 253 239 183
253 239 183 253 239 183 253 239 183 253 239 183 253 239 183 253 239 183 253 239 183 253 239 183 253 239 183 253 239 183 253 239 183 253 239 183 253 239 183 253 239 183 253 239 183 253 239 183 253 239 183 253 239 183 253 239 183 253 239 183 253 239 183 253 239 183 253 239 183 253 239 183 253 239 183 253 239 183 253 239 183 253 239 183 253 239 183 253 239 183 253 239 183 253 239 183 253 239 183 253 239 183 253 239 183 253 239 183 253 239 183 253 239 183 253 239 183 253 239 183 253 239 183 253 239 183 253 239 183 253 239 183 253 239 183 253 239 183 253 239 183 253 239 183 253 239 183 253 239 183 253 239 183 253 239 183 253 239 183 253 239 183 253 239 183 253 239 183 253 239 183 253 239 183 253 239 183 253 239 183 253 239 183 253 239 183 253 239 183 253 239 183 253 239 183 253 239 183 253 239 183 253 239 183 253 239 183 253 239 183 253 239 183 253 239 183 253 239 183 253 239 183 253 239 183 253 239 183 253 239 183 253 239 183 253 239 183 253 239 183 253 239 183 253 239 183 253 239 183 253 239 183 253 239 183 253 239 183 253 239 183 253 239 183 253 239 183 253 239 183 253 239 183 253 239 183 253 239 183 253 239 183 253 239 183 253 239 183 253 239 183 253 239 183 253 239 183 253 239 183 253 239 183 253 239 183 253 239 183 253 239 183 253 239 183 253 239 183 253 239 183 253 239 183 253 239 183 253 239 183 253 239 183 253 239 183 253 239 183 253 239 183 253 239 183 253 239 183 253 239 183 253 239 183 253 239 183 253 239 183 253 239 183 253 239 183 253 239 183 253 239 183 253 239 183 253 239 183 253 239 183 253 239 183 253 239 183 253 239 183 253 239 183 253 239 183 253 239 183 253 239 183 253 239 183 253 239 183 253 239 183 253 239 183 253 239 183 253 239 183 253 239 183 253 239 183 253 239 183 253 239 183 253 239 183 253 239 183 253 239 183 253 239 183 253 239 183 253 239 183 253 239 183 253 239 183 253 239 183 253 239 183 253 239 183 253 239 183 253 239 183 253 239 183 253 239 183 253 239 183 253 239 183 253 239 183 253 239 183 253 239 183 253 239 183 253 239 183 253 239 183 253 239 183 253 239 183 253 239 183 253 239 183 253 239 183 253 239 183 253 239 183 253 239 183 253 239 183 253 239 183 253 239 183 253 239 183 253 239 183 253 239 183 253 239 183 253 239 183 253 239 183 253 239 183 253 239 183 253 239 183 253 239 183 253 239 183 253 239 183 253 239 183 253 239 183 253 239 183 253 239 183 253 239 183 253 239 183 253 239 183 253 239 183 253 239 183 253 239 183 253 239 183 253 239 183 253 239 183 253 239 183 253 239 183 253 239 183 253 239 183 253 239 183 253 239 183 253 239 183 253 239 183 253 239 183 253 239 183 253 239 183 253 239 183 253 239 183 253 239 183 253 239 183 253 239 183 253 239 183 253 239 183 253 239 183 253 239 183 253 239 183 253 239 183 253 239 183 253 239 183 253 239 183 253 239 183 253 239 183 253 239 183 253 239 183 253 239 183 253 239 183 253 239 183 253 239 183 253 239 183 253 239 183 253 239 183 253 239 183
253 239 183 253 239 183 253 239 183 253 239 183 253 239 183 253 239 183 253 239 183 253 239 183 253 239 183 253 239 183 253 239 183 253 239 183 253 239 183 253 239 183 253 239 183 253 239 183 253 239 183 253 239 183 253 239 183 253 239 183 253 239 183 253 239 183 253 239 183 253 239 183 253 239 183 253 239 183 253 239 183 253 239 183 253 239 183 253 239 183 253 239 183 253 239 183 253 239 183 253 239 183 253 239 183 253 239 183 253 239 183 253 239 183 253 239 183 253 239 183 253 239 183 253 239 183 253 239 183 253 239 183 253 239 183 253 239 183 253 239 183 253 239 183 253 239 183 253 239 183 253 239 183 253 239 183 253 239 183 253 239 183 253 239 183 253 239 183 253 239 183 253 239 183 253 239 183 253 239 183 253 239 183 253 239 183 253 239 183 253 239 183 253 239 183 253 239 183 253 239 183 253 239 183 253 239 183 253 239 183 253 239 183 253 239 183 253 239 183 253 239 183 253 239 183 253 239 183 253 239 183 253 239 183 253 239 183 253 239 183 253 239 183 253 239 183 253 239 183 253 239 183 253 239 183 253 239 183 253 239 183 253 239 183 253 239 183 253 239 183 253 239 183 253 239 183 253 239 183 253 239 183 253 239 183 253 239 183 253 239 183 253 239 183 253 239 183 253 239 183 253 239 183 253 239 183 253 239 183 253 239 183 253 239 183 253 239 183 253 239 183 253 239 183 253 239 183 253 239 183 253 239 183 253 239 183 253 239 183 253 239 183 253 239 183 253 239 183 253 239 183 253 239 183 253 239 183 253 239 183 253 239 183 253 239 183 253 239 183 253 239 183 253 239 183 253 239 183 253 239 183 253 239 183 253 239 183 253 239 183 253 239 183 253 239 183 253 239 183 253 239 183 253 239 183 253 239 183 253 239 183 253 239 183 253 239 183 253 239 183 253 239 183 253 239 183 253 239 183 253 239 183 253 239 183 253 239 183 253 239 183 253 239 183 253 239 183 253 239 183 253 239 183 253 239 183 253 239 183 253 239 183 253 239 183 253 239 183 253 239 183 253 239 183 253 239 183 253 239 183 253 239 183 253 239 183 253 239 183 253 239 183 253 239 183 253 239 183 253 239 183 253 239 183 253 239 183 253 239 183 253 239 183 253 239 183 253 239 183 253 239 183 253 239 183 253 239 183 253 239 183 253 239 183 253 239 183 253 239 183 253 239 183 253 239 183 253 239 183 253 239 183 253 239 183 253 239 183 253 239 183 253 239 183 253 239 183 253 239 183 253 239 183 253 239 183 253 239 183 253 239 183 253 239 183 253 239 183 253 239 183 253 239 183 253 239 183 253 239 183 253 239 183 253 239 183 253 239 183 253 239 183 253 239 183 253 239 183 253 239 183 253 239 183 253 239 183 253 239 183 253 239 183 253 239 183 253 239 183 253 239 183 253 239 183 253 239 183 253 239 183 253 239 183 253 239 183 253 239 183 253 239 183 253 239 183 253 239 183 253 239 183 253 239 183 253 239 183 253 239 183 253 239 183 253 239 183 253 239 183 253 239 183 253 239 183 253 239 183 253 239 183 253 239 183 253 239 183 253 239 183 253 239 183 253 239 183 253 239 183
253 239 183 253 239 183 253 239 183 253 239 183 253 239 183 253 239 183 253 239 183 253 239 183 253 239 183 253 239 183 253 239 183 253 239 183 253 239 183 253 239 183 253 239 183 253 239 183 253 239 183 253 239 183 253 239 183 253 239 183 253 239 183 253 239 183 253 239 183 253 239 183 253 239 183 253 239 183 253 239 183 253 239 183 253 239 183 253 239 183 253 239 183 253 239 183 253 239 183 253 239 183 253 239 183 253 239 183 253 239 183 253 239 183 253 239 183 253 239 183 253 239 183 253 239 183 253 239 183 253 239 183 253 239 183 253 239 183 253 239 183 253 239 183 253 239 183 253 239 183 253 239 183 253 239 183 253 239 183 253 239 183 253 239 183 253 239 183 253 239 183 253 239 183 253 239 183 253 239 183 253 239 183 253 239 183 253 239 183 253 239 183 253 239 183 253 239 183 253 239 183 253 239 183 253 239 183 253 239 183 253 239 183 253 239 183 253 239 183 253 239 183 253 239 183 253 239 183 253 239 183 253 239 183 253 239 183 253 239 183 253 239 183 253 239 183 253 239 183 253 239 183 253 239 183 253 239 183 253 239 183 253 239 183 253 239 183 253 239 183 253 239 183 253 239 183 253 239 183 253 239 183 253 239 183 253 239 183 253 239 183 253 239 183 253 239 183 253 239 183 253 239 183 253 239 183 253 239 183 253 239 183 253 239 183 253 239 183 253 239 183 253 239 183 253 239 183 253 239 183 253 239 183 253 239 183 253 239 183 253 239 183 253 239 183 253 239 183 253 239 183 253 239 183 253 239 183 253 239 183 253 239 183 253 239 183 253 239 183 253 239 183 253 239 183 253 239 183 253 239 183 253 239 183 253 239 183 253 239 183 253 239 183 253 239 183 253 239 183 253 239 183 253 239 183 253 239 183 253 239 183 253 239 183 253 239 183 253 239 183 253 239 183 253 239 183 253 239 183 253 239 183 253 239 183 253 239 183 253 239 183 253 239 183 253 239 183 253 239 183 253 239 183 253 239 183 253 239 183 253 239 183 253 239 183 253 239 183 253 239 183 253 239 183 253 239 183 253 239 183 253 239 183 253 239 183 253 239 183 253 239 183 253 239 183 253 239 183 253 239 183 253 239 183 253 239 183 253 239 183 253 239 183 253 239 183 253 239 183 253 239 183 253 239 183 253 239 183 253 239 183 253 239 183 253 239 183 253 239 183 253 239 183 253 239 183 253 239 183 253 239 183 253 239 183 253 239 183 253 239 183 253 239 183 253 239 183 253 239 183 253 239 183 253 239 183 253 239 183 253 239 183 253 239 183 253 239 183 253 239 183 253 239 183 253 239 183 253 239 183 253 239 183 253 239 183 253 239 183 253 239 183 253 239 183 253 239 183 253 239 183 253 239 183 253 239 183 253 239 183 253 239 183 253 239 183 253 239 183 253 239 183 253 239 183 253 239 183 253 239 183 253 239 183 253 239 183 253 239 183 253 239 183 253 239 183 253 239 183 253 239 183 253 239 183 253 239 183 253 239 183 253 239 183 253 239 183 253 239 183 253 239 183 253 239 183 253 239 183 253 239 183 253 239 183 253 239 183 253 239 183 253 239 183 253 239 183 253 239 183
253 239 183 253 239 183 253 239 183 253 239 183 253 239 183 253 239 183 253 239 183 253 239 183 253 239 183 253 239 183 253 239 183 253 239 183 253 239 183 253 239 183 253 239 183 253 239 183 253 239 183 253 239 183 253 239 183 253 239 183 253 239 183 253 239 183 253 239 183 253 239 183 253 239 183 253 239 183 253 239 183 253 239 183 253 239 183 253 239 183 253 239 183 253 239 183 253 239 183 253 239 183 253 239 183 253 239 183 253 239 183 253 239 183 253 239 183 253 239 183 253 239 183 253 239 183 253 239 183 253 239 183 253 239 183 253 239 183 253 239 183 253 239 183 253 239 183 253 239 183 253 239 183 253 239 183 253 239 183 253 239 183 253 239 183 253 239 183 253 239 183 253 239 183 253 239 183 253 239 183 253 239 183 253 239 183 253 239 183 253 239 183 253 239 183 253 239 183 253 239 183 253 239 183 253 239 183 253 239 183 253 239 183 253 239 183 253 239 183 253 239 183 253 239 183 253 239 183 253 239 183 253 239 183 253 239 183 253 239 183 253 239 183 253 239 183 253 239 183 253 239 183 253 239 183 253 239 183 253 239 183 253 239 183 253 239 183 253 239 183 253 239 183 253 239 183 253 239 183 253 239 183 253 239 183 253 239 183 253 239 183 253 239 183 253 239 183 253 239 183 253 239 183 253 239 183 253 239 183 253 239 183 253 239 183 253 239 183 253 239 183 253 239 183 253 239 183 253 239 183 253 239 183 253 239 183 253 239 183 253 239 183 253 239 183 253 239 183 253 239 183 253 239 183 253 239 183 253 239 183 253 239 183 253 239 183 253 239 183 253 239 183 253 239 183 253 239 183 253 239 183 253 239 183 253 239 183 253 239 183 253 239 183 253 239 183 253 239 183 253 239 183 253 239 183 253 239 183 253 239 183 253 239 183 253 239 183 253 239 183 253 239 183 253 239 183 253 239 183 253 239 183 253 239 183 253 239 183 253 239 183 253 239 183 253 239 183 253 239 183 253 239 183 253 239 183 253 239 183 253 239 183 253 239 183 253 239 183 253 239 183 253 239 183 253 239 183 253 239 183 253 239 183 253 239 183 253 239 183 253 239 183 253 239 183 253 239 183 253 239 183 253 239 183 253 239 183 253 239 183 253 239 183 253 239 183 253 239 183 253 239 183 253 239 183 253 239 183 253 239 183 253 239 183 253 239 183 253 239 183 253 239 183 253 239 183 253 239 183 253 239 183 253 239 183 253 239 183 253 239 183 253 239 183 253 239 183 253 239 183 253 239 183 253 239 183 253 239 183 253 239 183 253 239 183 253 239 183 253 239 183 253 239 183 253 239 183 253 239 183 253 239 183 253 239 183 253 239 183 253 239 183 253 239 183 253 239 183 253 239 183 253 239 183 253 239 183 253 239 183 253 239 183 253 239 183 253 239 183 253 239 183 253 239 183 253 239 183 253 239 183 253 239 183 253 239 183 253 239 183 253 239 183 253 239 183 253 239 183 253 239 183 253 239 183 253 239 183 253 239 183 253 239 183 253 239 183 253 239 183 253 239 183 253 239 183 253 239 183 253 239 183 253 239 183 253 239 183 253 239 183 253 239 183 253 239 183 253 239 183
253 239 183 253 239 183 253 239 183 253 239 183 253 239 183 253 239 183 253 239 183 253 239 183 253 239 183 253 239 183 253 239 183 253 239 183 253 239 183 253 239 183 253 239 183 253 239 183 253 239 183 253 239 183 253 239 183 253 239 183 253 239 183 253 239 183 253 239 183 253 239 183 253 239 183 253 239 183 253 239 183 253 239 183 253 239 183 253 239 183 253 239 183 253 239 183 253 239 183 253 239 183 253 239 183 253 239 183 253 239 183 253 239 183 253 239 183 253 239 183 253 239 183 253 239 183 253 239 183 253 239 183 253 239 183 253 239 183 253 239 183 253 239 183 253 239 183 253 239 183 253 239 183 253 239 183 253 239 183 253 239 183 253 239 183 253 239 183 253 239 183 253 239 183 253 239 183 253 239 183 253 239 183 253 239 183 253 239 183 253 239 183 253 239 183 253 239 183 253 239 183 253 239 183 253 239 183 253 239 183 253 239 183 253 239 183 253 239 183 253 239 183 253 239 183 253 239 183 253 239 183 253 239 183 253 239 183 253 239 183 253 239 183 253 239 183 253 239 183 253 239 183 253 239 183 253 239 183 253 239 183 253 239 183 253 239 183 253 239 183 253 239 183 253 239 183 253 239 183 253 239 183 253 239 183 253 239 183 253 239 183 253 239 183 253 239 183 253 239 183 253 239 183 253 239 183 253 239 183 253 239 183 253 239 183 253 239 183 253 239 183 253 239 183 253 239 183 253 239 183 253 239 183 253 239 183 253 239 183 253 239 183 253 239 183 253 239 183 253 239 183 253 239 183 253 239 183 253 239 183 253 239 183 253 239 183 253 239 183 253 239 183 253 239 183 253 239 183 253 239 183 253 239 183 253 239 183 253 239 183 253 239 183 253 239 183 253 239 183 253 239 183 253 239 183 253 239 183 253 239 183 253 239 183 253 239 183 253 239 183 253 239 183 253 239 183 253 239 183 253 239 183 253 239 183 253 239 183 253 239 183 253 239 183 253 239 183 253 239 183 253 239 183 253 239 183 253 239 183 253 239 183 253 239 183 253 239 183 253 239 183 253 239 183 253 239 183 253 239 183 253 239 183 253 239 183 253 239 183 253 239 183 253 239 183 253 239 183 253 239 183 253 239 183 253 239 183 253 239 183 253 239 183 253 239 183 253 239 183 253 239 183 253 239 183 253 239 183 253 239 183 253 239 183 253 239 183 253 239 183 253 239 183 253 239 183 253 239 183 253 239 183 253 239 183 253 239 183 253 239 183 253 239 183 253 239 183 253 239 183 253 239 183 253 239 183 253 239 183 253 239 183 253 239 183 253 239 183 253 239 183 253 239 183 253 239 183 253 239 183 253 239 183 253 239 183 253 239 183 253 239 183 253 239 183 253 239 183 253 239 183 253 239 183 253 239 183 253 239 183 253 239 183 253 239 183 253 239 183 253 239 183 253 239 183 253 239 183 253 239 183 253 239 183 253 239 183 253 239 183 253 239 183 253 239 183 253 239 183 253 239 183 253 239 183 253 239 183 253 239 183 253 239 183 253 239 183 253 239 183 253 239 183 253 239 183 253 239 183 253 239 183 253 239 183 253 239 183 253 239 183 253 239 183 253 239 183 253 239 183
253 239 183 253 239 183 253 239 183 253 239 183 253 239 183 253 239 183 253 239 183 253 239 183 253 239 183 253 239 183 253 239 183 253 239 183 253 239 183 253 239 183 253 239 183 253 239 183 253 239 183 253 239 183 253 239 183 253 239 183 253 239 183 253 239 183 253 239 183 253 239 183 253 239 183 253 239 183 253 239 183 253 239 183 253 239 183 253 239 183 253 239 183 253 239 183 253 239 183 253 239 183 253 239 183 253 239 183 253 239 183 253 239 183 253 239 183 253 239 183 253 239 183 253 239 183 253 239 183 253 239 183 253 239 183 253 239 183 253 239 183 253 239 183 253 239 183 253 239 183 253 239 183 253 239 183 253 239 183 253 239 183 253 239 183 253 239 183 253 239 183 253 239 183 253 239 183 253 239 183 253 239 183 253 239 183 253 239 183 253 239 183 253 239 183 253 239 183 253 239 183 253 239 183 253 239 183 253 239 183 253 239 183 253 239 183 253 239 183 253 239 183 253 239 183 253 239 183 253 239 183 253 239 183 253 239 183 253 239 183 253 239 183 253 239 183 253 239 183 253 239 183 253 239 183 253 239 183 253 239 183 253 239 183 253 239 183 253 239 183 253 239 183 253 239 183 253 239 183 253 239 183 253 239 183 253 239 183 253 239 183 253 239 183 253 239 183 253 239 183 253 239 183 253 239 183 253 239 183 253 239 183 253 239 183 253 239 183 253 239 183 253 239 183 253 239 183 253 239 183 253 239 183 253 239 183 253 239 183 253 239 183 253 239 183 253 239 183 253 239 183 253 239 183 253 239 183 253 239 183 253 239 183 253 239 183 253 239 183 253 239 183 253 239 183 253 239 183 253 239 183 253 239 183 253 239 183 253 239 183 253 239 183 253 239 183 253 239 183 253 239 183 253 239 183 253 239 183 253 239 183 253 239 183 253 239 183 253 239 183 253 239 183 253 239 183 253 239 183 253 239 183 253 239 183 253 239 183 253 239 183 253 239 183 253 239 183 253 239 183 253 239 183 253 239 183 253 239 183 253 239 183 253 239 183 253 239 183 253 239 183 253 239 183 253 239 183 253 239 183 253 239 183 253 239 183 253 239 183 253 239 183 253 239 183 253 239 183 253 239 183 253 239 183 253 239 183 253 239 183 253 239 183 253 239 183 253 239 183 253 239 183 253 239 183 253 239 183 253 239 183 253 239 183 253 239 183 253 239 183 253 239 183 253 239 183 253 239 183 253 239 183 253 239 183 253 239 183 253 239 183 253 239 183 253 239 183 253 239 183 253 239 183 253 239 183 253 239 183 253 239 183 253 239 183 253 239 183 253 239 183 253 239 183 253 239 183 253 239 183 253 239 183 253 239 183 253 239 183 253 239 183 253 239 183 253 239 183 253 239 183 253 239 183 253 239 183 253 239 183 253 239 183 253 239 183 253 239 183 253 239 183 253 239 183 253 239 183 253 239 183 253 239 183 253 239 183 253 239 183 253 239 183 253 239 183 253 239 183 253 239 183 253 239 183 253 239 183 253 239 183 253 239 183 253 239 183 253 239 183 253 239 183 253 239 183 253 239 183 253 239 183 253 239 183 253 239 183 253 239 183 253 239 183 253 239 183 253 239 183
253 239 183 253 239 183 253 239 183 253 239 183 253 239 183 253 239 183 253 239 183 253 239 183 253 239 183 253 239 183 253 239 183 253 239 183 253 239 183 253 239 183 253 239 183 253 239 183 253 239 183 253 239 183 253 239 183 253 239 183 253 239 183 253 239 183 253 239 183 253 239 183 253 239 183 253 239 183 253 239 183 253 239 183 253 239 183 253 239 183 253 239 183 253 239 183 253 239 183 253 239 183 253 239 183 253 239 183 253 239 183 253 239 183 253 239 183 253 239 183 253 239 183 253 239 183 253 239 183 253 239 183 253 239 183 253 239 183 253 239 183 253 239 183 253 239 183 253 239 183 253 239 183 253 239 183 253 239 183 253 239 183 253 239 183 253 239 183 253 239 183 253 239 183 253 239 183 253 239 183 253 239 183 253 239 183 253 239 183 253 239 183 253 239 183 253 239 183 253 239 183 253 239 183 253 239 183 253 239 183 253 239 183 253 239 183 253 239 183 253 239 183 253 239 183 253 239 183 253 239 183 253 239 183 253 239 183 253 239 183 253 239 183 253 239 183 253 239 183 253 239 183 253 239 183 253 239 183 253 239 183 253 239 183 253 239 183 253 239 183 253 239 183 253 239 183 253 239 183 253 239 183 253 239 183 253 239 183 253 239 183 253 239 183 253 239 183 253 239 183 253 239 183 253 239 183 253 239 183 253 239 183 253 239 183 253 239 183 253 239 183 253 239 183 253 239 183 253 239 183 253 239 183 253 239 183 253 239 183 253 239 183 253 239 183 253 239 183 253 239 183 253 239 183 253 239 183 253 239 183 253 239 183 253 239 183 253 239 183 253 239 183 253 239 183 253 239 183 253 239 183 253 239 183 253 239 183 253 239 183 253 239 183 253 239 183 253 239 183 253 239 183 253 239 183 253 239 183 253 239 183 253 239 183 253 239 183 253 239 183 253 239 183 253 239 183 253 239 183 253 239 183 253 239 183 253 239 183 253 239 183 253 239 183 253 239 183 253 239 183 253 239 183 253 239 183 253 239 183 253 239 183 253 239 183 253 239 183 253 239 183 253 239 183 253 239 183 253 239 183 253 239 183 253 239 183 253 239 183 253 239 183 253 239 183 253 239 183 253 239 183 253 239 183 253 239 183 253 239 183 253 239 183 253 239 183 253 239 183 253 239 183 253 239 183 253 239 183 253 239 183 253 239 183 253 239 183 253 239 183 253 239 183 253 239 183 253 239 183 253 239 183 253 239 183 253 239 183 253 239 183 253 239 183 253 239 183 253 239 183 253 239 183 253 239 183 253 239 183 253 239 183 253 239 183 253 239 183 253 239 183 253 239 183 253 239 183 253 239 183 253 239 183 253 239 183 253 239 183 253 239 183 253 239 183 253 239 183 253 239 183 253 239 183 253 239 183 253 239 183 253 239 183 253 239 183 253 239 183 253 239 183 253 239 183 253 239 183 253 239 183 253 239 183 253 239 183 253 239 183 253 239 183 253 239 183 253 239 183 253 239 183 253 239 183 253 239 183 253 239 183 253 239 183 253 239 183 253 239 183 253 239 183 253 239 183 253 239 183 253 239 183 253 239 183 253 239 183 253 239 183 253 239 183 253 239 183 253 239 183
253 239 183 253 239 183 253 239 183 253 239 183 253 239 183 253 239 183 253 239 183 253 239 183 253 239 183 253 239 183 253 239 183 253 239 183 253 239 183 253 239 183 253 239 183 253 239 183 253 239 183 253 239 183 253 239 183 253 239 183 253 239 183 253 239 183 253 239 183 253 239 183 253 239 183 253 239 183 253 239 183 253 239 183 253 239 183 253 239 183 253 239 183 253 239 183 253 239 183 253 239 183 253 239 183 253 239 183 253 239 183 253 239 183 253 239 183 253 239 183 253 239 183 253 239 183 253 239 183 253 239 183 253 239 183 253 239 183 253 239 183 253 239 183 253 239 183 253 239 183 253 239 183 253 239 183 253 239 183 253 239 183 253 239 183 253 239 183 253 239 183 253 239 183 253 239 183 253 239 183 253 239 183 253 239 183 253 239 183 253 239 183 253 239 183 253 239 183 253 239 183 253 239 183 253 239 183 253 239 183 253 239 183 253 239 183 253 239 183 253 239 183 253 239 183 253 239 183 253 239 183 253 239 183 253 239 183 253 239 183 253 239 183 253 239 183 253 239 183 253 239 183 253 239 183 253 239 183 253 239 183 253 239 183 253 239 183 253 239 183 253 239 183 253 239 183 253 239 183 253 239 183 253 239 183 253 239 183 253 239 183 253 239 183 253 239 183 253 239 183 253 239 183 253 239 183 253 239 183 253 239 183 253 239 183 253 239 183 253 239 183 253 239 183 253 239 183 253 239 183 253 239 183 253 239 183 253 239 183 253 239 183 253 239 183 253 239 183 253 239 183 253 239 183 253 239 183 253 239 183 253 239 183 253 239 183 253 239 183 253 239 183 253 239 183 253 239 183 253 239 183 253 239 183 253 239 183 253 239 183 253 239 183 253 239 183 253 239 183 253 239 183 253 239 183 253 239 183 253 239 183 253 239 183 253 239 183 253 239 183 253 239 183 253 239 183 253 239 183 253 239 183 253 239 183 253 239 183 253 239 183 253 239 183 253 239 183 253 239 183 253 239 183 253 239 183 253 239 183 253 239 183 253 239 183 253 239 183 253 239 183 253 239 183 253 239 183 253 239 183 253 239 183 253 239 183 253 239 183 253 239 183 253 239 183 253 239 183 253 239 183 253 239 183 253 239 183 253 239 183 253 239 183 253 239 183 253 239 183 253 239 183 253 239 183 253 239 183 253 239 183 253 239 183 253 239 183 253 239 183 253 239 183 253 239 183 253 239 183 253 239 183 253 239 183 253 239 183 253 239 183 253 239 183 253 239 183 253 239 183 253 239 183 253 239 183 253 239 183 253 239 183 253 239 183 253 239 183 253 239 183 253 239 183 253 239 183 253 239 183 253 239 183 253 239 183 253 239 183 253 239 183 253 239 183 253 239 183 253 239 183 253 239 183 253 239 183 253 239 183 253 239 183 253 239 183 253 239 183 253 239 183 253 239 183 253 239 183 253 239 183 253 239 183 253 239 183 253 239 183 253 239 183 253 239 183 253 239 183 253 239 183 253 239 183 253 239 183 253 239 183 253 239 183 253 239 183 253 239 183 253 239 183 253 239 183 253 239 183 253 239 183 253 239 183 253 239 183 253 239 183 253 239 183 253 239 183 253 239 183
253 239 183 253 239 183 253 239 183 253 239 183 253 239 183 253 239 183 253 239 183 253 239 183 253 239 183 253 239 183 253 239 183 253 239 183 253 239 183 253 239 183 253 239 183 253 239 183 253 239 183 253 239 183 253 239 183 253 239 183 253 239 183 253 239 183 253 239 183 253 239 183 253 239 183 253 239 183 253 239 183 253 239 183 253 239 183 253 239 183 253 239 183 253 239 183 253 239 183 253 239 183 253 239 183 253 239 183 253 239 183 253 239 183 253 239 183 253 239 183 253 239 183 253 239 183 253 239 183 253 239 183 253 239 183 253 239 183 253 239 183 253 239 183 253 239 183 253 239 183 253 239 183 253 239 183 253 239 183 253 239 183 253 239 183 253 239 183 253 239 183 253 239 183 253 239 183 253 239 183 253 239 183 253 239 183 253 239 183 253 239 183 253 239 183 253 239 183 253 239 183 253 239 183 253 239 183 253 239 183 253 239 183 253 239 183 253 239 183 253 239 183 253 239 183 253 239 183 253 239 183 253 239 183 253 239 183 253 239 183 253 239 183 253 239 183 253 239 183 253 239 183 253 239 183 253 239 183 253 239 183 253 239 183 253 239 183 253 239 183 253 239 183 253 239 183 253 239 183 253 239 183 253 239 183 253 239 183 253 239 183 253 239 183 253 239 183 253 239 183 253 239 183 253 239 183 253 239 183 253 239 183 253 239 183 253 239 183 253 239 183 253 239 183 253 239 183 253 239 183 253 239 183 253 239 183 253 239 183 253 239 183 253 239 183 253 239 183 253 239 183 253 239 183 253 239 183 253 239 183 253 239 183 253 239 183 253 239 183 253 239 183 253 239 183 253 239 183 253 239 183 253 239 183 253 239 183 253 239 183 253 239 183 253 239 183 253 239 183 253 239 183 253 239 183 253 239 183 253 239 183 253 239 183 253 239 183 253 239 183 253 239 183 253 239 183 253 239 183 253 239 183 253 239 183 253 239 183 253 239 183 253 239 183 253 239 183 253 239 183 253 239 183 253 239 183 253 239 183 253 239 183 253 239 183 253 239 183 253 239 183 253 239 183 253 239 183 253 239 183 253 239 183 253 239 183 253 239 183 253 239 183 253 239 183 253 239 183 253 239 183 253 239 183 253 239 183 253 239 183 253 239 183 253 239 183 253 239 183 253 239 183 253 239 183 253 239 183 253 239 183 253 239 183 253 239 183 253 239 183 253 239 183 253 239 183 253 239 183 253 239 183 253 239 183 253 239 183 253 239 183 253 239 183 253 239 183 253 239 183 253 239 183 253 239 183 253 239 183 253 239 183 253 239 183 253 239 183 253 239 183 253 239 183 253 239 183 253 239 183 253 239 183 253 239 183 253 239 183 253 239 183 253 239 183 253 239 183 253 239 183 253 239 183 253 239 183 253 239 183 253 239 183 253 239 183 253 239 183 253 239 183 253 239 183 253 239 183 253 239 183 253 239 183 253 239 183 253 239 183 253 239 183 253 239 183 253 239 183 253 239 183 253 239 183 253 239 183 253 239 183 253 239 183 253 239 183 253 239 183 253 239 183 253 239 183 253 239 183 253 239 183 253 239 183 253 239 183 253 239 183 253 239 183 253 239 183 253 239 183
253 239 183 253 239 183 253 239 183 253 239 183 253 239 183 253 239 183 253 239 183 253 239 183 253 239 183 253 239 183 253 239 183 253 239 183 253 239 183 253 239 183 253 239 183 253 239 183 253 239 183 253 239 183 253 239 183 253 239 183 253 239 183 253 239 183 253 239 183 253 239 183 253 239 183 253 239 183 253 239 183 253 239 183 253 239 183 253 239 183 253 239 183 253 239 183 253 239 183 253 239 183 253 239 183 253 239 183 253 239 183 253 239 183 253 239 183 253 239 183 253 239 183 253 239 183 253 239 183 253 239 183 253 239 183 253 239 183 253 239 183 253 239 183 253 239 183 253 239 183 253 239 183 253 239 183 253 239 183 253 239 183 253 239 183 253 239 183 253 239 183 253 239 183 253 239 183 253 239 183 253 239 183 253 239 183 253 239 183 253 239 183 253 239 183 253 239 183 253 239 183 253 239 183 253 239 183 253 239 183 253 239 183 253 239 183 253 239 183 253 239 183 253 239 183 253 239 183 253 239 183 253 239 183 253 239 183 253 239 183 253 239 183 253 239 183 253 239 183 253 239 183 253 239 183 253 239 183 253 239 183 253 239 183 253 239 183 253 239 183 253 239 183 253 239 183 253 239 183 253 239 183 253 239 183 253 239 183 253 239 183 253 239 183 253 239 183 253 239 183 253 239 183 253 239 183 253 239 183 253 239 183 253 239 183 253 239 183 253 239 183 253 239 183 253 239 183 253 239 183 253 239 183 253 239 183 253 239 183 253 239 183 253 239 183 253 239 183 253 239 183 253 239 183 253 239 183 253 239 183 253 239 183 253 239 183 253 239 183 253 239 183 253 239 183 253 239 183 253 239 183 253 239 183 253 239 183 253 239 183 253 239 183 253 239 183 253 239 183 253 239 183 253 239 183 253 239 183 253 239 183 253 239 183 253 239 183 253 239 183 253 239 183 253 239 183 253 239 183 253 239 183 253 239 183 253 239 183 253 239 183 253 239 183 253 239 183 253 239 183 253 239 183 253 239 183 253 239 183 253 239 183 253 239 183 253 239 183 253 239 183 253 239 183 253 239 183 253 239 183 253 239 183 253 239 183 253 239 183 253 239 183 253 239 183 253 239 183 253 239 183 253 239 183 253 239 183 253 239 183 253 239 183 253 239 183 253 239 183 253 239 183 253 239 183 253 239 183 253 239 183 253 239 183 253 239 183 253 239 183 253 239 183 253 239 183 253 239 183 253 239 183 253 239 183 253 239 183 253 239 183 253 239 183 253 239 183 253 239 183 253 239 183 253 239 183 253 239 183 253 239 183 253 239 183 253 239 183 253 239 183 253 239 183 253 239 183 253 239 183 253 239 183 253 239 183 253 239 183 253 239 183 253 239 183 253 239 183 253 239 183 253 239 183 253 239 183 253 239 183 253 239 183 253 239 183 253 239 183 253 239 183 253 239 183 253 239 183 253 239 183 253 239 183 253 239 183 253 239 183 253 239 183 253 239 183 253 239 183 253 239 183 253 239 183 253 239 183 253 239 183 253 239 183 253 239 183 253 239 183 253 239 183 253 239 183 253 239 183 253 239 183 253 239 183 253 239 183 253 239 183 253 239 183 253 239 183 253 239 183
253 239 183 253 239 183 253 239 183 253 239 183 253 239 183 253 239 183 253 239 183 253 239 183 253 239 183 253 239 183 253 239 183 253 239 183 253 239 183 253 239 183 253 239 183 253 239 183 253 239 183 253 239 183 253 239 183 253 239 183 253 239 183 253 239 183 253 239 183 253 239 183 253 239 183 253 239 183 253 239 183 253 239 183 253 239 183 253 239 183 253 239 183 253 239 183 253 239 183 253 239 183 253 239 183 253 239 183 253 239 183 253 239 183 253 239 183 253 239 183 253 239 183 253 239 183 253 239 183 253 239 183 253 239 183 253 239 183 253 239 183 253 239 183 253 239 183 253 239 183 253 239 183 253 239 183 253 239 183 253 239 183 253 239 183 253 239 183 253 239 183 253 239 183 253 239 183 253 239 183 253 239 183 253 239 183 253 239 183 253 239 183 253 239 183 253 239 183 253 239 183 253 239 183 253 239 183 253 239 183 253 239 183 253 239 183 253 239 183 253 239 183 253 239 183 253 239 183 253 239 183 253 239 183 253 239 183 253 239 183 253 239 183 253 239 183 253 239 183 253 239 183 253 239 183 253 239 183 253 239 183 253 239 183 253 239 183 253 239 183 253 239 183 253 239 183 253 239 183 253 239 183 253 239 183 253 239 183 253 239 183 253 239 183 253 239 183 253 239 183 253 239 183 253 239 183 253 239 183 253 239 183 253 239 183 253 239 183 253 239 183 253 239 183 253 239 183 253 239 183 253 239 183 253 239 183 253 239 183 253 239 183 253 239 183 253 239 183 253 239 183 253 239 183 253 239 183 253 239 183 253 239 183 253 239 183 253 239 183 253 239 183 253 239 183 253 239 183 253 239 183 253 239 183 253 239 183 253 239 183 253 239 183 253 239 183 253 239 183 253 239 183 253 239 183 253 239 183 253 239 183 253 239 183 253 239 183 253 239 183 253 239 183 253 239 183 253 239 183 253 239 183 253 239 183 253 239 183 253 239 183 253 239 183 253 239 183 253 239 183 253 239 183 253 239 183 253 239 183 253 239 183 253 239 183 253 239 183 253 239 183 253 239 183 253 239 183 253 239 183 253 239 183 253 239 183 253 239 183 253 239 183 253 239 183 253 239 183 253 239 183 253 239 183 253 239 183 253 239 183 253 239 183 253 239 183 253 239 183 253 239 183 253 239 183 253 239 183 253 239 183 253 239 183 253 239 183 253 239 183 253 239 183 253 239 183 253 239 183 253 239 183 253 239 183 253 239 183 253 239 183 253 239 183 253 239 183 253 239 183 253 239 183 253 239 183 253 239 183 253 239 183 253 239 183 253 239 183 253 239 183 253 239 183 253 239 183 253 239 183 253 239 183 253 239 183 253 239 183 253 239 183 253 239 183 253 239 183 253 239 183 253 239 183 253 239 183 253 239 183 253 239 183 253 239 183 253 239 183 253 239 183 253 239 183 253 239 183 253 239 183 253 239 183 253 239 183 253 239 183 253 239 183 253 239 183 253 239 183 253 239 183 253 239 183 253 239 183 253 239 183 253 239 183 253 239 183 253 239 183 253 239 183 253 239 183 253 239 183 253 239 183 253 239 183 253 239 183 253 239 183 253 239 183 253 239 183 253 239 183
253 239 183 253 239 183 253 239 183 253 239 183 253 239 183 253 239 183 253 239 183 253 239 183 253 239 183 253 239 183 253 239 183 253 239 183 253 239 183 253 239 183 253 239 183 253 239 183 253 239 183 253 239 183 253 239 183 253 239 183 253 239 183 253 239 183 253 239 183 253 239 183 253 239 183 253 239 183 253 239 183 253 239 183 253 239 183 253 239 183 253 239 183 253 239 183 253 239 183 253 239 183 253 239 183 253 239 183 253 239 183 253 239 183 253 239 183 253 239 183 253 239 183 253 239 183 253 239 183 253 239 183 253 239 183 253 239 183 253 239 183 253 239 183 253 239 183 253 239 183 253 239 183 253 239 183 253 239 183 253 239 183 253 239 183 253 239 183 253 239 183 253 239 183 253 239 183 253 239 183 253 239 183 253 239 183 253 239 183 253 239 183 253 239 183 253 239 183 253 239 183 253 239 183 253 239 183 253 239 183 253 239 183 253 239 183 253 239 183 253 239 183 253 239 183 253 239 183 253 239 183 253 239 183 253 239 183 253 239 183 253 239 183 253 239 183 253 239 183 253 239 183 253 239 183 253 239 183 253 239 183 253 239 183 253 239 183 253 239 183 253 239 183 253 239 183 253 239 183 253 239 183 253 239 183 253 239 183 253 239 183 253 239 183 253 239 183 253 239 183 253 239 183 253 239 183 253 239 183 253 239 183 253 239 183 253 239 183 253 239 183 253 239 183 253 239 183 253 239 183 253 239 183 253 239 183 253 239 183 253 239 183 253 239 183 253 239 183 253 239 183 253 239 183 253 239 183 253 239 183 253 239 183 253 239 183 253 239 183 253 239 183 253 239 183 253 239 183 253 239 183 253 239 183 253 239 183 253 239 183 253 239 183 253 239 183 253 239 183 253 239 183 253 239 183 253 239 183 253 239 183 253 239 183 253 239 183 253 239 183 253 239 183 253 239 183 253 239 183 253 239 183 253 239 183 253 239 183 253 239 183 253 239 183 253 239 183 253 239 183 253 239 183 253 239 183 253 239 183 253 239 183 253 239 183 253 239 183 253 239 183 253 239 183 253 239 183 253 239 183 253 239 183 253 239 183 253 239 183 253 239 183 253 239 183 253 239 183 253 239 183 253 239 183 253 239 183 253 239 183 253 239 183 253 239 183 253 239 183 253 239 183 253 239 183 253 239 183 253 239 183 253 239 183 253 239 183 253 239 183 253 239 183 253 239 183 253 239 183 253 239 183 253 239 183 253 239 183 253 239 183 253 239 183 253 239 183 253 239 183 253 239 183 253 239 183 253 239 183 253 239 183 253 239 183 253 239 183 253 239 183 253 239 183 253 239 183 253 239 183 253 239 183 253 239 183 253 239 183 253 239 183 253 239 183 253 239 183 253 239 183 253 239 183 253 239 183 253 239 183 253 239 183 253 239 183 253 239 183 253 239 183 253 239 183 253 239 183 253 239 183 253 239 183 253 239 183 253 239 183 253 239 183 253 239 183 253 239 183 253 239 183 253 239 183 253 239 183 253 239 183 253 239 183 253 239 183 253 239 183 253 239 183 253 239 183 253 239 183 253 239 183 253 239 183 253 239 183 253 239 183 253 239 183 253 239 183 253 239 183
253 239 183 253 239 183 253 239 183 253 239 183 253 239 183 253 239 183 253 239 183 253 239 183 253 239 183 253 239 183 253 239 183 253 239 183 253 239 183 253 239 183 253 239 183 253 239 183 253 239 183 253 239 183 253 239 183 253 239 183 253 239 183 253 239 183 253 239 183 253 239 183 253 239 183 253 239 183 253 239 183 253 239 183 253 239 183 253 239 183 253 239 183 253 239 183 253 239 183 253 239 183 253 239 183 253 239 183 253 239 183 253 239 183 253 239 183 253 239 183 253 239 183 253 239 183 253 239 183 253 239 183 253 239 183 253 239 183 253 239 183 253 239 183 253 239 183 253 239 183 253 239 183 253 239 183 253 239 183 253 239 183 253 239 183 253 239 183 253 239 183 253 239 183 253 239 183 253 239 183 253 239 183 253 239 183 253 239 183 253 239 183 253 239 183 253 239 183 253 239 183 253 239 183 253 239 183 253 239 183 253 239 183 253 239 183 253 239 183 253 239 183 253 239 183 253 239 183 253 239 183 253 239 183 253 239 183 253 239 183 253 239 183 253 239 183 253 239 183 253 239 183 253 239 183 253 239 183 253 239 183 253 239 183 253 239 183 253 239 183 253 239 183 253 239 183 253 239 183 253 239 183 253 239 183 253 239 183 253 239 183 253 239 183 253 239 183 253 239 183 253 239 183 253 239 183 253 239 183 253 239 183 253 239 183 253 239 183 253 239 183 253 239 183 253 239 183 253 239 183 253 239 183 253 239 183 253 239 183 253 239 183 253 239 183 253 239 183 253 239 183 253 239 183 253 239 183 253 239 183 253 239 183 253 239 183 253 239 183 253 239 183 253 239 183 253 239 183 253 239 183 253 239 183 253 239 183 253 239 183 253 239 183 253 239 183 253 239 183 253 239 183 253 239 183 253 239 183 253 239 183 253 239 183 253 239 183 253 239 183 253 239 183 253 239 183 253 239 183 253 239 183 253 239 183 253 239 183 253 239 183 253 239 183 253 239 183 253 239 183 253 239 183 253 239 183 253 239 183 253 239 183 253 239 183 253 239 183 253 239 183 253 239 183 253 239 183 253 239 183 253 239 183 253 239 183 253 239 183 253 239 183 253 239 183 253 239 183 253 239 183 253 239 183 253 239 183 253 239 183 253 239 183 253 239 183 253 239 183 253 239 183 253 239 183 253 239 183 253 239 183 253 239 183 253 239 183 253 239 183 253 239 183 253 239 183 253 239 183 253 239 183 253 239 183 253 239 183 253 239 183 253 239 183 253 239 183 253 239 183 253 239 183 253 239 183 253 239 183 253 239 183 253 239 183 253 239 183 253 239 183 253 239 183 253 239 183 253 239 183 253 239 183 253 239 183 253 239 183 253 239 183 253 239 183 253 239 183 253 239 183 253 239 183 253 239 183 253 239 183 253 239 183 253 239 183 253 239 183 253 239 183 253 239 183 253 239 183 253 239 183 253 239 183 253 239 183 253 239 183 253 239 183 253 239 183 253 239 183 253 239 183 253 239 183 253 239 183 253 239 183 253 239 183 253 239 183 253 239 183 253 239 183 253 239 183 253 239 183 253 239 183 253 239 183 253 239 183 253 239 183 253 239 183 253 239 183 253 239 183
253 239 183 253 239 183 253 239 183 253 239 183 253 239 183 253 239 183 253 239 183 253 239 183 253 239 183 253 239 183 253 239 183 253 239 183 253 239 183 253 239 183 253 239 183 253 239 183 253 239 183 253 239 183 253 239 183 253 239 183 253 239 183 253 239 183 253 239 183 253 239 183 253 239 183 253 239 183 253 239 183 253 239 183 253 239 183 253 239 183 253 239 183 253 239 183 253 239 183 253 239 183 253 239 183 253 239 183 253 239 183 253 239 183 253 239 183 253 239 183 253 239 183 253 239 183 253 239 183 253 239 183 253 239 183 253 239 183 253 239 183 253 239 183 253 239 183 253 239 183 253 239 183 253 239 183 253 239 183 253 239 183 253 239 183 253 239 183 253 239 183 253 239 183 253 239 183 253 239 183 253 239 183 253 239 183 253 239 183 253 239 183 253 239 183 253 239 183 253 239 183 253 239 183 253 239 183 253 239 183 253 239 183 253 239 183 253 239 183 253 239 183 253 239 183 253 239 183 253 239 183 253 239 183 253 239 183 253 239 183 253 239 183 253 239 183 253 239 183 253 239 183 253 239 183 253 239 183 253 239 183 253 239 183 253 239 183 253 239 183 253 239 183 253 239 183 253 239 183 253 239 183 253 239 183 253 239 183 253 239 183 253 239 183 253 239 183 253 239 183 253 239 183 253 239 183 253 239 183 253 239 183 253 239 183 253 239 183 253 239 183 253 239 183 253 239 183 253 239 183 253 239 183 253 239 183 253 239 183 253 239 183 253 239 183 253 239 183 253 239 183 253 239 183 253 239 183 253 239 183 253 239 183 253 239 183 253 239 183 253 239 183 253 239 183 253 239 183 253 239 183 253 239 183 253 239 183 253 239 183 253 239 183 253 239 183 253 239 183 253 239 183 253 239 183 253 239 183 253 239 183 253 239 183 253 239 183 253 239 183 253 239 183 253 239 183 253 239 183 253 239 183 253 239 183 253 239 183 253 239 183 253 239 183 253 239 183 253 239 183 253 239 183 253 239 183 253 239 183 253 239 183 253 239 183 253 239 183 253 239 183 253 239 183 253 239 183 253 239 183 253 239 183 253 239 183 253 239 183 253 239 183 253 239 183 253 239 183 253 239 183 253 239 183 253 239 183 253 239 183 253 239 183 253 239 183 253 239 183 253 239 183 253 239 183 253 239 183 253 239 183 253 239 183 253 239 183 253 239 183 253 239 183 253 239 183 253 239 183 253 239 183 253 239 183 253 239 183 253 239 183 253 239 183 253 239 183 253 239 183 253 239 183 253 239 183 253 239 183 253 239 183 253 239 183 253 239 183 253 239 183 253 239 183 253 239 183 253 239 183 253 239 183 253 239 183 253 239 183 253 239 183 253 239 183 253 239 183 253 239 183 253 239 183 253 239 183 253 239 183 253 239 183 253 239 183 253 239 183 253 239 183 253 239 183 253 239 183 253 239 183 253 239 183 253 239 183 253 239 183 253 239 183 253 239 183 253 239 183 253 239 183 253 239 183 253 239 183 253 239 183 253 239 183 253 239 183 253 239 183 253 239 183 253 239 183 253 239 183 253 239 183 253 239 183 253 239 183 253 239 183 253 239 183 253 239 183 253 239 183
253 239 183 253 239 183 253 239 183 253 239 183 253 239 183 253 239 183 253 239 183 253 239 183 253 239 183 253 239 183 253 239 183 253 239 183 253 239 183 253 239 183 253 239 183 253 239 183 253 239 183 253 239 183 253 239 183 253 239 183 253 239 183 253 239 183 253 239 183 253 239 183 253 239 183 253 239 183 253 239 183 253 239 183 253 239 183 253 239 183 253 239 183 253 239 183 253 239 183 253 239 183 253 239 183 253 239 183 253 239 183 253 239 183 253 239 183 253 239 183 253 239 183 253 239 183 253 239 183 253 239 183 253 239 183 253 239 183 253 239 183 253 239 183 253 239 183 253 239 183 253 239 183 253 239 183 253 239 183 253 239 183 253 239 183 253 239 183 253 239 183 253 239 183 253 239 183 253 239 183 253 239 183 253 239 183 253 239 183 253 239 183 253 239 183 253 239 183 253 239 183 253 239 183 253 239 183 253 239 183 253 239 183 253 239 183 253 239 183 253 239 183 253 239 183 253 239 183 253 239 183 253 239 183 253 239 183 253 239 183 253 239 183 253 239 183 253 239 183 253 239 183 253 239 183 253 239 183 253 239 183 253 239 183 253 239 183 253 239 183 253 239 183 253 239 183 253 239 183 253 239 183 253 239 183 253 239 183 253 239 183 253 239 183 253 239 183 253 239 183 253 239 183 253 239 183 253 239 183 253 239 183 253 239 183 253 239 183 253 239 183 253 239 183 253 239 183 253 239 183 253 239 183 253 239 183 253 239 183 253 239 183 253 239 183 253 239 183 253 239 183 253 239 183 253 239 183 253 239 183 253 239 183 253 239 183 253 239 183 253 239 183 253 239 183 253 239 183 253 239 183 253 239 183 253 239 183 253 239 183 253 239 183 253 239 183 253 239 183 253 239 183 253 239 183 253 239 183 253 239 183 253 239 183 253 239 183 253 239 183 253 239 183 253 239 183 253 239 183 253 239 183 253 239 183 253 239 183 253 239 183 253 239 183 253 239 183 253 239 183 253 239 183 253 239 183 253 239 183 253 239 183 253 239 183 253 239 183 253 239 183 253 239 183 253 239 183 253 239 183 253 239 183 253 239 183 253 239 183 253 239 183 253 239 183 253 239 183 253 239 183 253 239 183 253 239 183 253 239 183 253 239 183 253 239 183 253 239 183 253 239 183 253 239 183 253 239 183 253 239 183 253 239 183 253 239 183 253 239 183 253 239 183 253 239 183 253 239 183 253 239 183 253 239 183 253 239 183 253 239 183 253 239 183 253 239 183 253 239 183 253 239 183 253 239 183 253 239 183 253 239 183 253 239 183 253 239 183 253 239 183 253 239 183 253 239 183 253 239 183 253 239 183 253 239 183 253 239 183 253 239 183 253 239 183 253 239 183 253 239 183 253 239 183 253 239 183 253 239 183 253 239 183 253 239 183 253 239 183 253 239 183 253 239 183 253 239 183 253 239 183 253 239 183 253 239 183 253 239 183 253 239 183 253 239 183 253 239 183 253 239 183 253 239 183 253 239 183 253 239 183 253 239 183 253 239 183 253 239 183 253 239 183 253 239 183 253 239 183 253 239 183 253 239 183 253 239 183 253 239 183 253 239 183 253 239 183 253 239 183
253 239 183 253 239 183 253 239 183 253 239 183 253 239 183 253 239 183 253 239 183 253 239 183 253 239 183 253 239 183 253 239 183 253 239 183 253 239 183 253 239 183 253 239 183 253 239 183 253 239 183 253 239 183 253 239 183 253 239 183 253 239 183 253 239 183 253 239 183 253 239 183 253 239 183 253 239 183 253 239 183 253 239 183 253 239 183 253 239 183 253 239 183 253 239 183 253 239 183 253 239 183 253 239 183 253 239 183 253 239 183 253 239 183 253 239 183 253 239 183 253 239 183 253 239 183 253 239 183 253 239 183 253 239 183 253 239 183 253 239 183 253 239 183 253 239 183 253 239 183 253 239 183 253 239 183 253 239 183 253 239 183 253 239 183 253 239 183 253 239 183 253 239 183 253 239 183 253 239 183 253 239 183 253 239 183 253 239 183 253 239 183 253 239 183 253 239 183 253 239 183 253 239 183 253 239 183 253 239 183 253 239 183 253 239 183 253 239 183 253 239 183 253 239 183 253 239 183 253 239 183 253 239 183 253 239 183 253 239 183 253 239 183 253 239 183 253 239 183 253 239 183 253 239 183 253 239 183 253 239 183 253 239 183 253 239 183 253 239 183 253 239 183 253 239 183 253 239 183 253 239 183 253 239 183 253 239 183 253 239 183 253 239 183 253 239 183 253 239 183 253 239 183 253 239 183 253 239 183 253 239 183 253 239 183 253 239 183 253 239 183 253 239 183 253 239 183 253 239 183 253 239 183 253 239 183 253 239 183 253 239 183 253 239 183 253 239 183 253 239 183 253 239 183 253 239 183 253 239 183 253 239 183 253 239 183 253 239 183 253 239 183 253 239 183 253 239 183 253 239 183 253 239 183 253 239 183 253 239 183 253 239 183 253 239 183 253 239 183 253 239 183 253 239 183 253 239 183 253 239 183 253 239 183 253 239 183 253 239 183 253 239 183 253 239 183 253 239 183 253 239 183 253 239 183 253 239 183 253 239 183 253 239 183 253 239 183 253 239 183 253 239 183 253 239 183 253 239 183 253 239 183 253 239 183 253 239 183 253 239 183 253 239 183 253 239 183 253 239 183 253 239 183 253 239 183 253 239 183 253 239 183 253 239 183 253 239 183 253 239 183 253 239 183 253 239 183 253 239 183 253 239 183 253 239 183 253 239 183 253 239 183 253 239 183 253 239 183 253 239 183 253 239 183 253 239 183 253 239 183 253 239 183 253 239 183 253 239 183 253 239 183 253 239 183 253 239 183 253 239 183 253 239 183 253 239 183 253 239 183 253 239 183 253 239 183 253 239 183 253 239 183 253 239 183 253 239 183 253 239 183 253 239 183 253 239 183 253 239 183 253 239 183 253 239 183 253 239 183 253 239 183 253 239 183 253 239 183 253 239 183 253 239 183 253 239 183 253 239 183 253 239 183 253 239 183 253 239 183 253 239 183 253 239 183 253 239 183 253 239 183 253 239 183 253 239 183 253 239 183 253 239 183 253 239 183 253 239 183 253 239 183 253 239 183 253 239 183 253 239 183 253 239 183 253 239 183 253 239 183 253 239 183 253 239 183 253 239 183 253 239 183 253 239 183 253 239 183 253 239 183 253 239 183 253 239 183 253 239 183
253 239 183 253 239 183 253 239 183 253 239 183 253 239 183 253 239 183 253 239 183 253 239 183 253 239 183 253 239 183 253 239 183 253 239 183 253 239 183 253 239 183 253 239 183 253 239 183 253 239 183 253 239 183 253 239 183 253 239 183 253 239 183 253 239 183 253 239 183 253 239 183 253 239 183 253 239 183 253 239 183 253 239 183 253 239 183 253 239 183 253 239 183 253 239 183 253 239 183 253 239 183 253 239 183 253 239 183 253 239 183 253 239 183 253 239 183 253 239 183 253 239 183 253 239 183 253 239 183 253 239 183 253 239 183 253 239 183 253 239 183 253 239 183 253 239 183 253 239 183 253 239 183 253 239 183 253 239 183 253 239 183 253 239 183 253 239 183 253 239 183 253 239 183 253 239 183 253 239 183 253 239 183 253 239 183 253 239 183 253 239 183 253 239 183 253 239 183 253 239 183 253 239 183 253 239 183 253 239 183 253 239 183 253 239 183 253 239 183 253 239 183 253 239 183 253 239 183 253 239 183 253 239 183 253 239 183 253 239 183 253 239 183 253 239 183 253 239 183 253 239 183 253 239 183 253 239 183 253 239 183 253 239 183 253 239 183 253 239 183 253 239 183 253 239 183 253 239 183 253 239 183 253 239 183 253 239 183 253 239 183 253 239 183 253 239 183 253 239 183 253 239 183 253 239 183 253 239 183 253 239 183 253 239 183 253 239 183 253 239 183 253 239 183 253 239 183 253 239 183 253 239 183 253 239 183 253 239 183 253 239 183 253 239 183 253 239 183 253 239 183 253 239 183 253 239 183 253 239 183 253 239 183 253 239 183 253 239 183 253 239 183 253 239 183 253 239 183 253 239 183 253 239 183 253 239 183 253 239 183 253 239 183 253 239 183 253 239 183 253 239 183 253 239 183 253 239 183 253 239 183 253 239 183 253 239 183 253 239 183 253 239 183 253 239 183 253 239 183 253 239 183 253 239 183 253 239 183 253 239 183 253 239 183 253 239 183 253 239 183 253 239 183 253 239 183 253 239 183 253 239 183 253 239 183 253 239 183 253 239 183 253 239 183 253 239 183 253 239 183 253 239 183 253 239 183 253 239 183 253 239 183 253 239 183 253 239 183 253 239 183 253 239 183 253 239 183 253 239 183 253 239 183 253 239 183 253 239 183 253 239 183 253 239 183 253 239 183 253 239 183 253 239 183 253 239 183 253 239 183 253 239 183 253 239 183 253 239 183 253 239 183 253 239 183 253 239 183 253 239 183 253 239 183 253 239 183 253 239 183 253 239 183 253 239 183 253 239 183 253 239 183 253 239 183 253 239 183 253 239 183 253 239 183 253 239 183 253 239 183 253 239 183 253 239 183 253 239 183 253 239 183 253 239 183 253 239 183 253 239 183 253 239 183 253 239 183 253 239 183 253 239 183 253 239 183 253 239 183 253 239 183 253 239 183 253 239 183 253 239 183 253 239 183 253 239 183 253 239 183 253 239 183 253 239 183 253 239 183 253 239 183 253 239 183 253 239 183 253 239 183 253 239 183 253 239 183 253 239 183 253 239 183 253 239 183 253 239 183 253 239 183 253 239 183 253 239 183 253 239 183 253 239 183 253 239 183 253 239 183
253 239 183 253 239 183 253 239 183 253 239 183 253 239 183 253 239 183 253 239 183 253 239 183 253 239 183 253 239 183 253 239 183 253 239 183 253 239 183 253 239 183 253 239 183 253 239 183 253 239 183 253 239 183 253 239 183 253 239 183 253 239 183 253 239 183 253 239 183 253 239 183 253 239 183 253 239 183 253 239 183 253 239 183 253 239 183 253 239 183 253 239 183 253 239 183 253 239 183 253 239 183 253 239 183 253 239 183 253 239 183 253 239 183 253 239 183 253 239 183 253 239 183 253 239 183 253 239 183 253 239 183 253 239 183 253 239 183 253 239 183 253 239 183 253 239 183 253 239 183 253 239 183 253 239 183 253 239 183 253 239 183 253 239 183 253 239 183 253 239 183 253 239 183 253 239 183 253 239 183 253 239 183 253 239 183 253 239 183 253 239 183 253 239 183 253 239 183 253 239 183 253 239 183 253 239 183 253 239 183 253 239 183 253 239 183 253 239 183 253 239 183 253 239 183 253 239 183 253 239 183 253 239 183 253 239 183 253 239 183 253 239 183 253 239 183 253 239 183 253 239 183 253 239 183 253 239 183 253 239 183 253 239 183 253 239 183 253 239 183 253 239 183 253 239 183 253 239 183 253 239 183 253 239 183 253 239 183 253 239 183 253 239 183 253 239 183 253 239 183 253 239 183 253 239 183 253 239 183 253 239 183 253 239 183 253 239 183 253 239 183 253 239 183 253 239 183 253 239 183 253 239 183 253 239 183 253 239 183 253 239 183 253 239 183 253 239 183 253 239 183 253 239 183 253 239 183 253 239 183 253 239 183 253 239 183 253 239 183 253 239 183 253 239 183 253 239 183 253 239 183 253 239 183 253 239 183 253 239 183 253 239 183 253 239 183 253 239 183 253 239 183 253 239 183 253 239 183 253 239 183 253 239 183 253 239 183 253 239 183 253 239 183 253 239 183 253 239 183 253 239 183 253 239 183 253 239 183 253 239 183 253 239 183 253 239 183 253 239 183 253 239 183 253 239 183 253 239 183 253 239 183 253 239 183 253 239 183 253 239 183 253 239 183 253 239 183 253 239 183 253 239 183 253 239 183 253 239 183 253 239 183 253 239 183 253 239 183 253 239 183 253 239 183 253 239 183 253 239 183 253 239 183 253 239 183 253 239 183 253 239 183 253 239 183 253 239 183 253 239 183 253 239 183 253 239 183 253 239 183 253 239 183 253 239 183 253 239 183 253 239 183 253 239 183 253 239 183 253 239 183 253 239 183 253 239 183 253 239 183 253 239 183 253 239 183 253 239 183 253 239 183 253 239 183 253 239 183 253 239 183 253 239 183 253 239 183 253 239 183 253 239 183 253 239 183 253 239 183 253 239 183 253 239 183 253 239 183 253 239 183 253 239 183 253 239 183 253 239 183 253 239 183 253 239 183 253 239 183 253 239 183 253 239 183 253 239 183 253 239 183 253 239 183 253 239 183 253 239 183 253 239 183 253 239 183 253 239 183 253 239 183 253 239 183 253 239 183 253 239 183 253 239 183 253 239 183 253 239 183 253 239 183 253 239 183 253 239 183 253 239 183 253 239 183 253 239 183 253 239 183 253 239 183 253 239 183 253 239 183
253 239 183 253 239 183 253 239 183 253 239 183 253 239 183 253 239 183 253 239 183 253 239 183 253 239 183 253 239 183 253 239 183 253 239 183 253 239 183 253 239 183 253 239 183 253 239 183 253 239 183 253 239 183 253 239 183 253 239 183 253 239 183 253 239 183 253 239 183 253 239 183 253 239 183 253 239 183 253 239 183 253 239 183 253 239 183 253 239 183 253 239 183 253 239 183 253 239 183 253 239 183 253 239 183 253 239 183 253 239 183 253 239 183 253 239 183 253 239 183 253 239 183 253 239 183 253 239 183 253 239 183 253 239 183 253 239 183 253 239 183 253 239 183 253 239 183 253 239 183 253 239 183 253 239 183 253 239 183 253 239 183 253 239 183 253 239 183 253 239 183 253 239 183 253 239 183 253 239 183 253 239 183 253 239 183 253 239 183 253 239 183 253 239 183 253 239 183 253 239 183 253 239 183 253 239 183 253 239 183 253 239 183 253 239 183 253 239 183 253 239 183 253 239 183 253 239 183 253 239 183 253 239 183 253 239 183 253 239 183 253 239 183 253 239 183 253 239 183 253 239 183 253 239 183 253 239 183 253 239 183 253 239 183 253 239 183 253 239 183 253 239 183 253 239 183 253 239 183 253 239 183 253 239 183 253 239 183 253 239 183 253 239 183 253 239 183 253 239 183 253 239 183 253 239 183 253 239 183 253 239 183 253 239 183 253 239 183 253 239 183 253 239 183 253 239 183 253 239 183 253 239 183 253 239 183 253 239 183 253 239 183 253 239 183 253 239 183 253 239 183 253 239 183 253 239 183 253 239 183 253 239 183 253 239 183 253 239 183 253 239 183 253 239 183 253 239 183 253 239 183 253 239 183 253 239 183 253 239 183 253 239 183 253 239 183 253 239 183 253 239 183 253 239 183 253 239 183 253 239 183 253 239 183 253 239 183 253 239 183 253 239 183 253 239 183 253 239 183 253 239 183 253 239 183 253 239 183 253 239 183 253 239 183 253 239 183 253 239 183 253 239 183 253 239 183 253 239 183 253 239 183 253 239 183 253 239 183 253 239 183 253 239 183 253 239 183 253 239 183 253 239 183 253 239 183 253 239 183 253 239 183 253 239 183 253 239 183 253 239 183 253 239 183 253 239 183 253 239 183 253 239 183 253 239 183 253 239 183 253 239 183 253 239 183 253 239 183 253 239 183 253 239 183 253 239 183 253 239 183 253 239 183 253 239 183 253 239 183 253 239 183 253 239 183 253 239 183 253 239 183 253 239 183 253 239 183 253 239 183 253 239 183 253 239 183 253 239 183 253 239 183 253 239 183 253 239 183 253 239 183 253 239 183 253 239 183 253 239 183 253 239 183 253 239 183 253 239 183 253 239 183 253 239 183 253 239 183 253 239 183 253 239 183 253 239 183 253 239 183 253 239 183 253 239 183 253 239 183 253 239 183 253 239 183 253 239 183 253 239 183 253 239 183 253 239 183 253 239 183 253 239 183 253 239 183 253 239 183 253 239 183 253 239 183 253 239 183 253 239 183 253 239 183 253 239 183 253 239 183 253 239 183 253 239 183 253 239 183 253 239 183 253 239 183 253 239 183 253 239 183 253 239 183 253 239 183 253 239 183
253 239 183 253 239 183 253 239 183 253 239 183 253 239 183 253 239 183 253 239 183 253 239 183 253 239 183 253 239 183 253 239 183 253 239 183 253 239 183 253 239 183 253 239 183 253 239 183 253 239 183 253 239 183 253 239 183 253 239 183 253 239 183 253 239 183 253 239 183 253 239 183 253 239 183 253 239 183 253 239 183 253 239 183 253 239 183 253 239 183 253 239 183 253 239 183 253 239 183 253 239 183 253 239 183 253 239 183 253 239 183 253 239 183 253 239 183 253 239 183 253 239 183 253 239 183 253 239 183 253 239 183 253 239 183 253 239 183 253 239 183 253 239 183 253 239 183 253 239 183 253 239 183 253 239 183 253 239 183 253 239 183 253 239 183 253 239 183 253 239 183 253 239 183 253 239 183 253 239 183 253 239 183 253 239 183 253 239 183 253 239 183 253 239 183 253 239 183 253 239 183 253 239 183 253 239 183 253 239 183 253 239 183 253 239 183 253 239 183 253 239 183 253 239 183 253 239 183 253 239 183 253 239 183 253 239 183 253 239 183 253 239 183 253 239 183 253 239 183 253 239 183 253 239 183 253 239 183 253 239 183 253 239 183 253 239 183 253 239 183 253 239 183 253 239 183 253 239 183 253 239 183 253 239 183 253 239 183 253 239 183 253 239 183 253 239 183 253 239 183 253 239 183 253 239 183 253 239 183 253 239 183 253 239 183 253 239 183 253 239 183 253 239 183 253 239 183 253 239 183 253 239 183 253 239 183 253 239 183 253 239 183 253 239 183 253 239 183 253 239 183 253 239 183 253 239 183 253 239 183 253 239 183 253 239 183 253 239 183 253 239 183 253 239 183 253 239 183 253 239 183 253 239 183 253 239 183 253 239 183 253 239 183 253 239 183 253 239 183 253 239 183 253 239 183 253 239 183 253 239 183 253 239 183 253 239 183 253 239 183 253 239 183 253 239 183 253 239 183 253 239 183 253 239 183 253 239 183 253 239 183 253 239 183 253 239 183 253 239 183 253 239 183 253 239 183 253 239 183 253 239 183 253 239 183 253 239 183 253 239 183 253 239 183 253 239 183 253 239 183 253 239 183 253 239 183 253 239 183 253 239 183 253 239 183 253 239 183 253 239 183 253 239 183 253 239 183 253 239 183 253 239 183 253 239 183 253 239 183 253 239 183 253 239 183 253 239 183 253 239 183 253 239 183 253 239 183 253 239 183 253 239 183 253 239 183 253 239 183 253 239 183 253 239 183 253 239 183 253 239 183 253 239 183 253 239 183 253 239 183 253 239 183 253 239 183 253 239 183 253 239 183 253 239 183 253 239 183 253 239 183 253 239 183 253 239 183 253 239 183 253 239 183 253 239 183 253 239 183 253 239 183 253 239 183 253 239 183 253 239 183 253 239 183 253 239 183 253 239 183 253 239 183 253 239 183 253 239 183 253 239 183 253 239 183 253 239 183 253 239 183 253 239 183 253 239 183 253 239 183 253 239 183 253 239 183 253 239 183 253 239 183 253 239 183 253 239 183 253 239 183 253 239 183 253 239 183 253 239 183 253 239 183 253 239 183 253 239 183 253 239 183 253 239 183 253 239 183 253 239 183 253 239 183 253 239 183 253 239 183
253 239 183 253 239 183 253 239 183 253 239 183 253 239 183 253 239 183 253 239 183 253 239 183 253 239 183 253 239 183 253 239 183 253 239 183 253 239 183 253 239 183 253 239 183 253 239 183 253 239 183 253 239 183 253 239 183 253 239 183 253 239 183 253 239 183 253 239 183 253 239 183 253 239 183 253 239 183 253 239 183 253 239 183 253 239 183 253 239 183 253 239 183 253 239 183 253 239 183 253 239 183 253 239 183 253 239 183 253 239 183 253 239 183 253 239 183 253 239 183 253 239 183 253 239 183 253 239 183 253 239 183 253 239 183 253 239 183 253 239 183 253 239 183 253 239 183 253 239 183 253 239 183 253 239 183 253 239 183 253 239 183 253 239 183 253 239 183 253 239 183 253 239 183 253 239 183 253 239 183 253 239 183 253 239 183 253 239 183 253 239 183 253 239 183 253 239 183 253 239 183 253 239 183 253 239 183 253 239 183 253 239 183 253 239 183 253 239 183 253 239 183 253 239 183 253 239 183 253 239 183 253 239 183 253 239 183 253 239 183 253 239 183 253 239 183 253 239 183 253 239 183 253 239 183 253 239 183 253 239 183 253 239 183 253 239 183 253 239 183 253 239 183 253 239 183 253 239 183 253 239 183 253 239 183 253 239 183 253 239 183 253 239 183 253 239 183 253 239 183 253 239 183 253 239 183 253 239 183 253 239 183 253 239 183 253 239 183 253 239 183 253 239 183 253 239 183 253 239 183 253 239 183 253 239 183 253 239 183 253 239 183 253 239 183 253 239 183 253 239 183 253 239 183 253 239 183 253 239 183 253 239 183 253 239 183 253 239 183 253 239 183 253 239 183 253 239 183 253 239 183 253 239 183 253 239 183 253 239 183 253 239 183 253 239 183 253 239 183 253 239 183 253 239 183 253 239 183 253 239 183 253 239 183 253 239 183 253 239 183 253 239 183 253 239 183 253 239 183 253 239 183 253 239 183 253 239 183 253 239 183 253 239 183 253 239 183 253 239 183 253 239 183 253 239 183 253 239 183 253 239 183 253 239 183 253 239 183 253 239 183 253 239 183 253 239 183 253 239 183 253 239 183 253 239 183 253 239 183 253 239 183 253 239 183 253 239 183 253 239 183 253 239 183 253 239 183 253 239 183 253 239 183 253 239 183 253 239 183 253 239 183 253 239 183 253 239 183 253 239 183 253 239 183 253 239 183 253 239 183 253 239 183 253 239 183 253 239 183 253 239 183 253 239 183 253 239 183 253 239 183 253 239 183 253 239 183 253 239 183 253 239 183 253 239 183 253 239 183 253 239 183 253 239 183 253 239 183 253 239 183 253 239 183 253 239 183 253 239 183 253 239 183 253 239 183 253 239 183 253 239 183 253 239 183 253 239 183 253 239 183 253 239 183 253 239 183 253 239 183 253 239 183 253 239 183 253 239 183 253 239 183 253 239 183 253 239 183 253 239 183 253 239 183 253 239 183 253 239 183 253 239 183 253 239 183 253 239 183 253 239 183 253 239 183 253 239 183 253 239 183 253 239 183 253 239 183 253 239 183 253 239 183 253 239 183 253 239 183 253 239 183 253 239 183 253 239 183 253 239 183 253 239 183 253 239 183 253 239 183
253 239 183 253 239 183 253 239 183 253 239 183 253 239 183 253 239 183 253 239 183 253 239 183 253 239 183 253 239 183 253 239 183 253 239 183 253 239 183 253 239 183 253 239 183 253 239 183 253 239 183 253 239 183 253 239 183 253 239 183 253 239 183 253 239 183 253 239 183 253 239 183 253 239 183 253 239 183 253 239 183 253 239 183 253 239 183 253 239 183 253 239 183 253 239 183 253 239 183 253 239 183 253 239 183 253 239 183 253 239 183 253 239 183 253 239 183 253 239 183 253 239 183 253 239 183 253 239 183 253 239 183 253 239 183 253 239 183 253 239 183 253 239 183 253 239 183 253 239 183 253 239 183 253 239 183 253 239 183 253 239 183 253 239 183 253 239 183 253 239 183 253 239 183 253 239 183 253 239 183 253 239 183 253 239 183 253 239 183 253 239 183 253 239 183 253 239 183 253 239 183 253 239 183 253 239 183 253 239 183 253 239 183 253 239 183 253 239 183 253 239 183 253 239 183 253 239 183 253 239 183 253 239 183 253 239 183 253 239 183 253 239 183 253 239 183 253 239 183 253 239 183 253 239 183 253 239 183 253 239 183 253 239 183 253 239 183 253 239 183 253 239 183 253 239 183 253 239 183 253 239 183 253 239 183 253 239 183 253 239 183 253 239 183 253 239 183 253 239 183 253 239 183 253 239 183 253 239 183 253 239 183 253 239 183 253 239 183 253 239 183 253 239 183 253 239 183 253 239 183 253 239 183 253 239 183 253 239 183 253 239 183 253 239 183 253 239 183 253 239 183 253 239 183 253 239 183 253 239 183 253 239 183 253 239 183 253 239 183 253 239 183 253 239 183 253 239 183 253 239 183 253 239 183 253 239 183 253 239 183 253 239 183 253 239 183 253 239 183 253 239 183 253 239 183 253 239 183 253 239 183 253 239 183 253 239 183 253 239 183 253 239 183 253 239 183 253 239 183 253 239 183 253 239 183 253 239 183 253 239 183 253 239 183 253 239 183 253 239 183 253 239 183 253 239 183 253 239 183 253 239 183 253 239 183 253 239 183 253 239 183 253 239 183 253 239 183 253 239 183 253 239 183 253 239 183 253 239 183 253 239 183 253 239 183 253 239 183 253 239 183 253 239 183 253 239 183 253 239 183 253 239 183 253 239 183 253 239 183 253 239 183 253 239 183 253 239 183 253 239 183 253 239 183 253 239 183 253 239 183 253 239 183 253 239 183 253 239 183 253 239 183 253 239 183 253 239 183 253 239 183 253 239 183 253 239 183 253 239 183 253 239 183 253 239 183 253 239 183 253 239 183 253 239 183 253 239 183 253 239 183 253 239 183 253 239 183 253 239 183 253 239 183 253 239 183 253 239 183 253 239 183 253 239 183 253 239 183 253 239 183 253 239 183 253 239 183 253 239 183 253 239 183 253 239 183 253 239 183 253 239 183 253 239 183 253 239 183 253 239 183 253 239 183 253 239 183 253 239 183 253 239 183 253 239 183 253 239 183 253 239 183 253 239 183 253 239 183 253 239 183 253 239 183 253 239 183 253 239 183 253 239 183 253 239 183 253 239 183 253 239 183 253 239 183 253 239 183 253 239 183 253 239 183 253 239 183 253 239 183
253 239 183 253 239 183 253 239 183 253 239 183 253 239 183 253 239 183 253 239 183 253 239 183 253 239 183 253 239 183 253 239 183 253 239 183 253 239 183 253 239 183 253 239 183 253 239 183 253 239 183 253 239 183 253 239 183 253 239 183 253 239 183 253 239 183 253 239 183 253 239 183 253 239 183 253 239 183 253 239 183 253 239 183 253 239 183 253 239 183 253 239 183 253 239 183 253 239 183 253 239 183 253 239 183 253 239 183 253 239 183 253 239 183 253 239 183 253 239 183 253 239 183 253 239 183 253 239 183 253 239 183 253 239 183 253 239 183 253 239 183 253 239 183 253 239 183 253 239 183 253 239 183 253 239 183 253 239 183 253 239 183 253 239 183 253 239 183 253 239 183 253 239 183 253 239 183 253 239 183 253 239 183 253 239 183 253 239 183 253 239 183 253 239 183 253 239 183 253 239 183 253 239 183 253 239 183 253 239 183 253 239 183 253 239 183 253 239 183 253 239 183 253 239 183 253 239 183 253 239 183 253 239 183 253 239 183 253 239 183 253 239 183 253 239 183 253 239 183 253 239 183 253 239 183 253 239 183 253 239 183 253 239 183 253 239 183 253 239 183 253 239 183 253 239 183 253 239 183 253 239 183 253 239 183 253 239 183 253 239 183 253 239 183 253 239 183 253 239 183 253 239 183 253 239 183 253 239 183 253 239 183 253 239 183 253 239 183 253 239 183 253 239 183 253 239 183 253 239 183 253 239 183 253 239 183 253 239 183 253 239 183 253 239 183 253 239 183 253 239 183 253 239 183 253 239 183 253 239 183 253 239 183 253 239 183 253 239 183 253 239 183 253 239 183 253 239 183 253 239 183 253 239 183 253 239 183 253 239 183 253 239 183 253 239 183 253 239 183 253 239 183 253 239 183 253 239 183 253 239 183 253 239 183 253 239 183 253 239 183 253 239 183 253 239 183 253 239 183 253 239 183 253 239 183 253 239 183 253 239 183 253 239 183 253 239 183 253 239 183 253 239 183 253 239 183 253 239 183 253 239 183 253 239 183 253 239 183 253 239 183 253 239 183 253 239 183 253 239 183 253 239 183 253 239 183 253 239 183 253 239 183 253 239 183 253 239 183 253 239 183 253 239 183 253 239 183 253 239 183 253 239 183 253 239 183 253 239 183 253 239 183 253 239 183 253 239 183 253 239 183 253 239 183 253 239 183 253 239 183 253 239 183 253 239 183 253 239 183 253 239 183 253 239 183 253 239 183 253 239 183 253 239 183 253 239 183 253 239 183 253 239 183 253 239 183 253 239 183 253 239 183 253 239 183 253 239 183 253 239 183 253 239 183 253 239 183 253 239 183 253 239 183 253 239 183 253 239 183 253 239 183 253 239 183 253 239 183 253 239 183 253 239 183 253 239 183 253 239 183 253 239 183 253 239 183 253 239 183 253 239 183 253 239 183 253 239 183 253 239 183 253 239 183 253 239 183 253 239 183 253 239 183 253 239 183 253 239 183 253 239 183 253 239 183 253 239 183 253 239 183 253 239 183 253 239 183 253 239 183 253 239 183 253 239 183 253 239 183 253 239 183 253 239 183 253 239 183 253 239 183 253 239 183 253 239 183 253 239 183
253 239 183 253 239 183 253 239 183 253 239 183 253 239 183 253 239 183 253 239 183 253 239 183 253 239 183 253 239 183 253 239 183 253 239 183 253 239 183 253 239 183 253 239 183 253 239 183 253 239 183 253 239 183 253 239 183 253 239 183 253 239 183 253 239 183 253 239 183 253 239 183 253 239 183 253 239 183 253 239 183 253 239 183 253 239 183 253 239 183 253 239 183 253 239 183 253 239 183 253 239 183 253 239 183 253 239 183 253 239 183 253 239 183 253 239 183 253 239 183 253 239 183 253 239 183 253 239 183 253 239 183 253 239 183 253 239 183 253 239 183 253 239 183 253 239 183 253 239 183 253 239 183 253 239 183 253 239 183 253 239 183 253 239 183 253 239 183 253 239 183 253 239 183 253 239 183 253 239 183 253 239 183 253 239 183 253 239 183 253 239 183 253 239 183 253 239 183 253 239 183 253 239 183 253 239 183 253 239 183 253 239 183 253 239 183 253 239 183 253 239 183 253 239 183 253 239 183 253 239 183 253 239 183 253 239 183 253 239 183 253 239 183 253 239 183 253 239 183 253 239 183 253 239 183 253 239 183 253 239 183 253 239 183 253 239 183 253 239 183 253 239 183 253 239 183 253 239 183 253 239 183 253 239 183 253 239 183 253 239 183 253 239 183 253 239 183 253 239 183 253 239 183 253 239 183 253 239 183 253 239 183 253 239 183 253 239 183 253 239 183 253 239 183 253 239 183 253 239 183 253 239 183 253 239 183 253 239 183 253 239 183 253 239 183 253 239 183 253 239 183 253 239 183 253 239 183 253 239 183 253 239 183 253 239 183 253 239 183 253 239 183 253 239 183 253 239 183 253 239 183 253 239 183 253 239 183 253 239 183 253 239 183 253 239 183 253 239 183 253 239 183 253 239 183 253 239 183 253 239 183 253 239 183 253 239 183 253 239 183 253 239 183 253 239 183 253 239 183 253 239 183 253 239 183 253 239 183 253 239 183 253 239 183 253 239 183 253 239 183 253 239 183 253 239 183 253 239 183 253 239 183 253 239 183 253 239 183 253 239 183 253 239 183 253 239 183 253 239 183 253 239 183 253 239 183 253 239 183 253 239 183 253 239 183 253 239 183 253 239 183 253 239 183 253 239 183 253 239 183 253 239 183 253 239 183 253 239 183 253 239 183 253 239 183 253 239 183 253 239 183 253 239 183 253 239 183 253 239 183 253 239 183 253 239 183 253 239 183 253 239 183 253 239 183 253 239 183 253 239 183 253 239 183 253 239 183 253 239 183 253 239 183 253 239 183 253 239 183 253 239 183 253 239 183 253 239 183 253 239 183 253 239 183 253 239 183 253 239 183 253 239 183 253 239 183 253 239 183 253 239 183 253 239 183 253 239 183 253 239 183 253 239 183 253 239 183 253 239 183 253 239 183 253 239 183 253 239 183 253 239 183 253 239 183 253 239 183 253 239 183 253 239 183 253 239 183 253 239 183 253 239 183 253 239 183 253 239 183 253 239 183 253 239 183 253 239 183 253 239 183 253 239 183 253 239 183 253 239 183 253 239 183 253 239 183 253 239 183 253 239 183 253 239 183 253 239 183 253 239 183 253 239 183 253 239 183 253 239 183
153 139 114 153 139 114 153 139 114 153 139 114 153 139 114 153 139 114 153 139 114 153 139 114 153 139 114 153 139 114 153 139 114 153 139 114 153 139 114 153 139 114 153 139 114 153 139 114 153 139 114 153 139 114 153 139 114 153 139 114 153 139 114 153 139 114 153 139 114 153 139 114 153 139 114 153 139 114 153 139 114 153 139 114 153 139 114 153 139 114 153 139 114 153 139 114 153 139 114 153 139 114 153 139 114 153 139 114 153 139 114 153 139 114 153 139 114 153 139 114 153 139 114 153 139 114 153 139 114 153 139 114 153 139 114 153 139 114 153 139 114 153 139 114 153 139 114 153 139 114 153 139 114 153 139 114 153 139 114 153 139 114 153 139 114 153 139 114 153 139 114 153 139 114 153 139 114 153 139 114 153 139 114 153 139 114 153 139 114 153 139 114 153 139 114 153 139 114 153 139 114 153 139 114 153 139 114 153 139 114 153 139 114 153 139 114 153 139 114 153 139 114 153 139 114 153 139 114 153 139 114 153 139 114 153 139 114 153 139 114 153 139 114 153 139 114 153 139 114 153 139 114 153 139 114 153 139 114 153 139 114 153 139 114 153 139 114 153 139 114 153 139 114 153 139 114 153 139 114 153 139 114 153 139 114 153 139 114 153 139 114 153 139 114 153 139 114 153 139 114 153 139 114 153 139 114 153 139 114 153 139 114 153 139 114 153 139 114 153 139 114 153 139 114 153 139 114 153 139 114 153 139 114 153 139 114 153 139 114 153 139 114 153 139 114 153 139 114 153 139 114 153 139 114 153 139 114 153 139 114 153 139 114 153 139 114 153 139 114 153 139 114 153 139 114 153 139 114 153 139 114 153 139 114 153 139 114 153 139 114 153 139 114 153 139 114 153 139 114 153 139 114 153 139 114 153 139 114 153 139 114 153 139 114 153 139 114 153 139 114 153 139 114 153 139 114 153 139 114 153 139 114 153 139 114 153 139 114 153 139 114 153 139 114 153 139 114 153 139 114 153 139 114 153 139 114 153 139 114 153 139 114 153 139 114 153 139 114 153 139 114 153 139 114 153 139 114 153 139 114 153 139 114 153 139 114 153 139 114 153 139 114 153 139 114 153 139 114 153 139 114 153 139 114 153 139 114 153 139 114 153 139 114 153 139 114 153 139 114 153 139 114 153 139 114 153 139 114 153 139 114 153 139 114 153 139 114 153 139 114 153 139 114 153 139 114 153 139 114 153 139 114 153 139 114 153 139 114 153 139 114 153 139 114 153 139 114 153 139 114 153 139 114 153 139 114 153 139 114 153 139 114 153 139 114 153 139 114 153 139 114 153 139 114 153 139 114 153 139 114 153 139 114 153 139 114 153 139 114 153 139 114 153 139 114 153 139 114 153 139 114 153 139 114 153 139 114 153 139 114 153 139 114 153 139 114 153 139 114 153 139 114 153 139 114 153 139 114 153 139 114 153 139 114 153 139 114 153 139 114 153 139 114 153 139 114 153 139 114 153 139 114 153 139 114 153 139 114 153 139 114 153 139 114 153 139 114 153 139 114 153 139 114 153 139 114 153 139 114 153 139 114 153 139 114 153 139 114 153 139 114 153 139 114 153 139 114 153 139 114
153 139 114 153 139 114 153 139 114 153 139 114 153 139 114 153 139 114 153 139 114 153 139 114 153 139 114 153 139 114 153 139 114 153 139 114 153 139 114 153 139 114 153 139 114 153 139 114 153 139 114 153 139 114 153 139 114 153 139 114 153 139 114 153 139 114 153 139 114 153 139 114 153 139 114 153 139 114 153 139 114 153 139 114 153 139 114 153 139 114 153 139 114 153 139 114 153 139 114 153 139 114 153 139 114 153 139 114 153 139 114 153 139 114 153 139 114 153 139 114 153 139 114 153 139 114 153 139 114 153 139 114 153 139 114 153 139 114 153 139 114 153 139 114 153 139 114 153 139 114 153 139 114 153 139 114 153 139 114 153 139 114 153 139 114 153 139 114 153 139 114 153 139 114 153 139 114 153 139 114 153 139 114 153 139 114 153 139 114 153 139 114 153 139 114 153 139 114 153 139 114 153 139 114 153 139 114 153 139 114 153 139 114 153 139 114 153 139 114 153 139 114 153 139 114 153 139 114 153 139 114 153 139 114 153 139 114 153 139 114 153 139 114 153 139 114 153 139 114 153 139 114 153 139 114 153 139 114 153 139 114 153 139 114 153 139 114 153 139 114 153 139 114 153 139 114 153 139 114 153 139 114 153 139 114 153 139 114 153 139 114 153 139 114 153 139 114 153 139 114 153 139 114 153 139 114 153 139 114 153 139 114 153 139 114 153 139 114 153 139 114 153 139 114 153 139 114 153 139 114 153 139 114 153 139 114 153 139 114 153 139 114 153 139 114 153 139 114 153 139 114 153 139 114 153 139 114 153 139 114 153 139 114 153 139 114 153 139 114 153 139 114 153 139 114 153 139 114 153 139 114 153 139 114 153 139 114 153 139 114 153 139 114 153 139 114 153 139 114 153 139 114 153 139 114 153 139 114 153 139 114 153 139 114 153 139 114 153 139 114 153 139 114 153 139 114 153 139 114 153 139 114 153 139 114 153 139 114 153 139 114 153 139 114 153 139 114 153 139 114 153 139 114 153 139 114 153 139 114 153 139 114 153 139 114 153 139 114 153 139 114 153 139 114 153 139 114 153 139 114 153 139 114 153 139 114 153 139 114 153 139 114 153 139 114 153 139 114 153 139 114 153 139 114 153 139 114 153 139 114 153 139 114 153 139 114 153 139 114 153 139 114 153 139 114 153 139 114 153 139 114 153 139 114 153 139 114 153 139 114 153 139 114 153 139 114 153 139 114 153 139 114 153 139 114 153 139 114 153 139 114 153 139 114 153 139 114 153 139 114 153 139 114 153 139 114 153 139 114 153 139 114 153 139 114 153 139 114 153 139 114 153 139 114 153 139 114 153 139 114 153 139 114 153 139 114 153 139 114 153 139 114 153 139 114 153 139 114 153 139 114 153 139 114 153 139 114 153 139 114 153 139 114 153 139 114 153 139 114 153 139 114 153 139 114 153 139 114 153 139 114 153 139 114 153 139 114 153 139 114 153 139 114 153 139 114 153 139 114 153 139 114 153 139 114 153 139 114 153 139 114 153 139 114 153 139 114 153 139 114 153 139 114 153 139 114 153 139 114 153 139 114 153 139 114 153 139 114 153 139 114 153 139 114 153 139 114 153 139 114
153 139 114 153 139 114 153 139 114 153 139 114 153 139 114 153 139 114 153 139 114 153 139 114 153 139 114 153 139 114 153 139 114 153 139 114 153 139 114 153 139 114 153 139 114 153 139 114 153 139 114 153 139 114 153 139 114 153 139 114 153 139 114 153 139 114 153 139 114 153 139 114 153 139 114 153 139 114 153 139 114 153 139 114 153 139 114 153 139 114 153 139 114 153 139 114 153 139 114 153 139 114 153 139 114 153 139 114 153 139 114 153 139 114 153 139 114 153 139 114 153 139 114 153 139 114 153 139 114 153 139 114 153 139 114 153 139 114 153 139 114 153 139 114 153 139 114 153 139 114 153 139 114 153 139 114 153 139 114 153 139 114 153 139 114 153 139 114 153 139 114 153 139 114 153 139 114 153 139 114 153 139 114 153 139 114 153 139 114 153 139 114 153 139 114 153 139 114 153 139 114 153 139 114 153 139 114 153 139 114 153 139 114 153 139 114 153 139 114 153 139 114 153 139 114 153 139 114 153 139 114 153 139 114 153 139 114 153 139 114 153 139 114 153 139 114 153 139 114 153 139 114 153 139 114 153 139 114 153 139 114 153 139 114 153 139 114 153 139 114 153 139 114 153 139 114 153 139 114 153 139 114 153 139 114 153 139 114 153 139 114 153 139 114 153 139 114 153 139 114 153 139 114 153 139 114 153 139 114 153 139 114 153 139 114 153 139 114 153 139 114 153 139 114 153 139 114 153 139 114 153 139 114 153 139 114 153 139 114 153 139 114 153 139 114 153 139 114 153 139 114 153 139 114 153 139 114 153 139 114 153 139 114 153 139 114 153 139 114 153 139 114 153 139 114 153 139 114 153 139 114 153 139 114 153 139 114 153 139 114 153 139 114 153 139 114 153 139 114 153 139 114 153 139 114 153 139 114 153 139 114 153 139 114 153 139 114 153 139 114 153 139 114 153 139 114 153 139 114 153 139 114 153 139 114 153 139 114 153 139 114 153 139 114 153 139 114 153 139 114 153 139 114 153 139 114 153 139 114 153 139 114 153 139 114 153 139 114 153 139 114 153 139 114 153 139 114 153 139 114 153 139 114 153 139 114 153 139 114 153 139 114 153 139 114 153 139 114 153 139 114 153 139 114 153 139 114 153 139 114 153 139 114 153 139 114 153 139 114 153 139 114 153 139 114 153 139 114 153 139 114 153 139 114 153 139 114 153 139 114 153 139 114 153 139 114 153 139 114 153 139 114 153 139 114 153 139 114 153 139 114 153 139 114 153 139 114 153 139 114 153 139 114 153 139 114 153 139 114 153 139 114 153 139 114 153 139 114 153 139 114 153 139 114 153 139 114 153 139 114 153 139 114 153 139 114 153 139 114 153 139 114 153 139 114 153 139 114 153 139 114 153 139 114 153 139 114 153 139 114 153 139 114 153 139 114 153 139 114 153 139 114 153 139 114 153 139 114 153 139 114 153 139 114 153 139 114 153 139 114 153 139 114 153 139 114 153 139 114 153 139 114 153 139 114 153 139 114 153 139 114 153 139 114 153 139 114 153 139 114 153 139 114 153 139 114 153 139 114 153 139 114 153 139 114 153 139 114 153 139 114 153 139 114 153 139 114 153 139 114
153 139 114 153 139 114 153 139 114 153 139 114 153 139 114 153 139 114 153 139 114 153 139 114 153 139 114 153 139 114 153 139 114 153 139 114 153 139 114 153 139 114 153 139 114 153 139 114 153 139 114 153 139 114 153 139 114 153 139 114 153 139 114 153 139 114 153 139 114 153 139 114 153 139 114 153 139 114 153 139 114 153 139 114 153 139 114 153 139 114 153 139 114 153 139 114 153 139 114 153 139 114 153 139 114 153 139 114 153 139 114 153 139 114 153 139 114 153 139 114 153 139 114 153 139 114 153 139 114 153 139 114 153 139 114 153 139 114 153 139 114 153 139 114 153 139 114 153 139 114 153 139 114 153 139 114 153 139 114 153 139 114 153 139 114 153 139 114 153 139 114 153 139 114 153 139 114 153 139 114 153 139 114 153 139 114 153 139 114 153 139 114 153 139 114 153 139 114 153 139 114 153 139 114 153 139 114 153 139 114 153 139 114 153 139 114 153 139 114 153 139 114 153 139 114 153 139 114 153 139 114 153 139 114 153 139 114 153 139 114 153 139 114 153 139 114 153 139 114 153 139 114 153 139 114 153 139 114 153 139 114 153 139 114 153 139 114 153 139 114 153 139 114 153 139 114 153 139 114 153 139 114 153 139 114 153 139 114 153 139 114 153 139 114 153 139 114 153 139 114 153 139 114 153 139 114 153 139 114 153 139 114 153 139 114 153 139 114 153 139 114 153 139 114 153 139 114 153 139 114 153 139 114 153 139 114 153 139 114 153 139 114 153 139 114 153 139 114 153 139 114 153 139 114 153 139 114 153 139 114 153 139 114 153 139 114 153 139 114 153 139 114 153 139 114 153 139 114 153 139 114 153 139 114 153 139 114 153 139 114 153 139 114 153 139 114 153 139 114 153 139 114 153 139 114 153 139 114 153 139 114 153 139 114 153 139 114 153 139 114 153 139 114 153 139 114 153 139 114 153 139 114 153 139 114 153 139 114 153 139 114 153 139 114 153 139 114 153 139 114 153 139 114 153 139 114 153 139 114 153 139 114 153 139 114 153 139 114 153 139 114 153 139 114 153 139 114 153 139 114 153 139 114 153 139 114 153 139 114 153 139 114 153 139 114 153 139 114 153 139 114 153 139 114 153 139 114 153 139 114 153 139 114 153 139 114 153 139 114 153 139 114 153 139 114 153 139 114 153 139 114 153 139 114 153 139 114 153 139 114 153 139 114 153 139 114 153 139 114 153 139 114 153 139 114 153 139 114 153 139 114 153 139 114 153 139 114 153 139 114 153 139 114 153 139 114 153 139 114 153 139 114 153 139 114 153 139 114 153 139 114 153 139 114 153 139 114 153 139 114 153 139 114 153 139 114 153 139 114 153 139 114 153 139 114 153 139 114 153 139 114 153 139 114 153 139 114 153 139 114 153 139 114 153 139 114 153 139 114 153 139 114 153 139 114 153 139 114 153 139 114 153 139 114 153 139 114 153 139 114 153 139 114 153 139 114 153 139 114 153 139 114 153 139 114 153 139 114 153 139 114 153 139 114 153 139 114 153 139 114 153 139 114 153 139 114 153 139 114 153 139 114 153 139 114 153 139 114 153 139 114 153 139 114 153 139 114 153 139 114
153 139 114 153 139 114 153 139 114 153 139 114 153 139 114 153 139 114 153 139 114 153 139 114 153 139 114 153 139 114 153 139 114 153 139 114 153 139 114 153 139 114 153 139 114 153 139 114 153 139 114 153 139 114 153 139 114 153 139 114 153 139 114 153 139 114 153 139 114 153 139 114 153 139 114 153 139 114 153 139 114 153 139 114 153 139 114 153 139 114 153 139 114 153 139 114 153 139 114 153 139 114 153 139 114 153 139 114 153 139 114 153 139 114 153 139 114 153 139 114 153 139 114 153 139 114 153 139 114 153 139 114 153 139 114 153 139 114 153 139 114 153 139 114 153 139 114 153 139 114 153 139 114 153 139 114 153 139 114 153 139 114 153 139 114 153 139 114 153 139 114 153 139 114 153 139 114 153 139 114 153 139 114 153 139 114 153 139 114 153 139 114 153 139 114 153 139 114 153 139 114 153 139 114 153 139 114 153 139 114 153 139 114 153 139 114 153 139 114 153 139 114 153 139 114 153 139 114 153 139 114 153 139 114 153 139 114 153 139 114 153 139 114 153 139 114 153 139 114 153 139 114 153 139 114 153 139 114 153 139 114 153 139 114 153 139 114 153 139 114 153 139 114 153 139 114 153 139 114 153 139 114 153 139 114 153 139 114 153 139 114 153 139 114 153 139 114 153 139 114 153 139 114 153 139 114 153 139 114 153 139 114 153 139 114 153 139 114 153 139 114 153 139 114 153 139 114 153 139 114 153 139 114 153 139 114 153 139 114 153 139 114 153 139 114 153 139 114 153 139 114 153 139 114 153 139 114 153 139 114 153 139 114 153 139 114 153 139 114 153 139 114 153 139 114 153 139 114 153 139 114 153 139 114 153 139 114 153 139 114 153 139 114 153 139 114 153 139 114 153 139 114 153 139 114 153 139 114 153 139 114 153 139 114 153 139 114 153 139 114 153 139 114 153 139 114 153 139 114 153 139 114 153 139 114 153 139 114 153 139 114 153 139 114 153 139 114 153 139 114 153 139 114 153 139 114 153 139 114 153 139 114 153 139 114 153 139 114 153 139 114 153 139 114 153 139 114 153 139 114 153 139 114 153 139 114 153 139 114 153 139 114 153 139 114 153 139 114 153 139 114 153 139 114 153 139 114 153 139 114 153 139 114 153 139 114 153 139 114 153 139 114 153 139 114 153 139 114 153 139 114 153 139 114 153 139 114 153 139 114 153 139 114 153 139 114 153 139 114 153 139 114 153 139 114 153 139 114 153 139 114 153 139 114 153 139 114 153 139 114 153 139 114 153 139 114 153 139 114 153 139 114 153 139 114 153 139 114 153 139 114 153 139 114 153 139 114 153 139 114 153 139 114 153 139 114 153 139 114 153 139 114 153 139 114 153 139 114 153 139 114 153 139 114 153 139 114 153 139 114 153 139 114 153 139 114 153 139 114 153 139 114 153 139 114 153 139 114 153 139 114 153 139 114 153 139 114 153 139 114 153 139 114 153 139 114 153 139 114 153 139 114 153 139 114 153 139 114 153 139 114 153 139 114 153 139 114 153 139 114 153 139 114 153 139 114 153 139 114 153 139 114 153 139 114 153 139 114 153 139 114 153 139 114 153 139 114 153 139 114
153 139 114 153 139 114 153 139 114 153 139 114 153 139 114 153 139 114 153 139 114 153 139 114 153 139 114 153 139 114 153 139 114 153 139 114 153 139 114 153 139 114 153 139 114 153 139 114 153 139 114 153 139 114 153 139 114 153 139 114 153 139 114 153 139 114 153 139 114 153 139 114 153 139 114 153 139 114 153 139 114 153 139 114 153 139 114 153 139 114 153 139 114 153 139 114 153 139 114 153 139 114 153 139 114 153 139 114 153 139 114 153 139 114 153 139 114 153 139 114 153 139 114 153 139 114 153 139 114 153 139 114 153 139 114 153 139 114 153 139 114 153 139 114 153 139 114 153 139 114 153 139 114 153 139 114 153 139 114 153 139 114 153 139 114 153 139 114 153 139 114 153 139 114 153 139 114 153 139 114 153 139 114 153 139 114 153 139 114 153 139 114 153 139 114 153 139 114 153 139 114 153 139 114 153 139 114 153 139 114 153 139 114 153 139 114 153 139 114 153 139 114 153 139 114 153 139 114 153 139 114 153 139 114 153 139 114 153 139 114 153 139 114 153 139 114 153 139 114 153 139 114 153 139 114 153 139 114 153 139 114 153 139 114 153 139 114 153 139 114 153 139 114 153 139 114 153 139 114 153 139 114 153 139 114 153 139 114 153 139 114 153 139 114 153 139 114 153 139 114 153 139 114 153 139 114 153 139 114 153 139 114 153 139 114 153 139 114 153 139 114 153 139 114 153 139 114 153 139 114 153 139 114 153 139 114 153 139 114 153 139 114 153 139 114 153 139 114 153 139 114 153 139 114 153 139 114 153 139 114 153 139 114 153 139 114 153 139 114 153 139 114 153 139 114 153 139 114 153 139 114 153 139 114 153 139 114 153 139 114 153 139 114 153 139 114 153 139 114 153 139 114 153 139 114 153 139 114 153 139 114 153 139 114 153 139 114 153 139 114 153 139 114 153 139 114 153 139 114 153 139 114 153 139 114 153 139 114 153 139 114 153 139 114 153 139 114 153 139 114 153 139 114 153 139 114 153 139 114 153 139 114 153 139 114 153 139 114 153 139 114 153 139 114 153 139 114 153 139 114 153 139 114 153 139 114 153 139 114 153 139 114 153 139 114 153 139 114 153 139 114 153 139 114 153 139 114 153 139 114 153 139 114 153 139 114 153 139 114 153 139 114 153 139 114 153 139 114 153 139 114 153 139 114 153 139 114 153 139 114 153 139 114 153 139 114 153 139 114 153 139 114 153 139 114 153 139 114 153 139 114 153 139 114 153 139 114 153 139 114 153 139 114 153 139 114 153 139 114 153 139 114 153 139 114 153 139 114 153 139 114 153 139 114 153 139 114 153 139 114 153 139 114 153 139 114 153 139 114 153 139 114 153 139 114 153 139 114 153 139 114 153 139 114 153 139 114 153 139 114 153 139 114 153 139 114 153 139 114 153 139 114 153 139 114 153 139 114 153 139 114 153 139 114 153 139 114 153 139 114 153 139 114 153 139 114 153 139 114 153 139 114 153 139 114 153 139 114 153 139 114 153 139 114 153 139 114 153 139 114 153 139 114 153 139 114 153 139 114 153 139 114 153 139 114 153 139 114 153 139 114 153 139 114 153 139 114 153 139 114
153 139 114 153 139 114 153 139 114 153 139 114 153 139 114 153 139 114 153 139 114 153 139 114 153 139 114 153 139 114 153 139 114 153 139 114 153 139 114 153 139 114 153 139 114 153 139 114 153 139 114 153 139 114 153 139 114 153 139 114 153 139 114 153 139 114 153 139 114 153 139 114 153 139 114 153 139 114 153 139 114 153 139 114 153 139 114 153 139 114 153 139 114 153 139 114 153 139 114 153 139 114 153 139 114 153 139 114 153 139 114 153 139 114 153 139 114 153 139 114 153 139 114 153 139 114 153 139 114 153 139 114 153 139 114 153 139 114 153 139 114 153 139 114 153 139 114 153 139 114 153 139 114 153 139 114 153 139 114 153 139 114 153 139 114 153 139 114 153 139 114 153 139 114 153 139 114 153 139 114 153 139 114 153 139 114 153 139 114 153 139 114 153 139 114 153 139 114 153 139 114 153 139 114 153 139 114 153 139 114 153 139 114 153 139 114 153 139 114 153 139 114 153 139 114 153 139 114 153 139 114 153 139 114 153 139 114 153 139 114 153 139 114 153 139 114 153 139 114 153 139 114 153 139 114 153 139 114 153 139 114 153 139 114 153 139 114 153 139 114 153 139 114 153 139 114 153 139 114 153 139 114 153 139 114 153 139 114 153 139 114 153 139 114 153 139 114 153 139 114 153 139 114 153 139 114 153 139 114 153 139 114 153 139 114 153 139 114 153 139 114 153 139 114 153 139 114 153 139 114 153 139 114 153 139 114 153 139 114 153 139 114 153 139 114 153 139 114 153 139 114 153 139 114 153 139 114 153 139 114 153 139 114 153 139 114 153 139 114 153 139 114 153 139 114 153 139 114 153 139 114 153 139 114 153 139 114 153 139 114 153 139 114 153 139 114 153 139 114 153 139 114 153 139 114 153 139 114 153 139 114 153 139 114 153 139 114 153 139 114 153 139 114 153 139 114 153 139 114 153 139 114 153 139 114 153 139 114 153 139 114 153 139 114 153 139 114 153 139 114 153 139 114 153 139 114 153 139 114 153 139 114 153 139 114 153 139 114 153 139 114 153 139 114 153 139 114 153 139 114 153 139 114 153 139 114 153 139 114 153 139 114 153 139 114 153 139 114 153 139 114 153 139 114 153 139 114 153 139 114 153 139 114 153 139 114 153 139 114 153 139 114 153 139 114 153 139 114 153 139 114 153 139 114 153 139 114 153 139 114 153 139 114 153 139 114 153 139 114 153 139 114 153 139 114 153 139 114 153 139 114 153 139 114 153 139 114 153 139 114 153 139 114 153 139 114 153 139 114 153 139 114 153 139 114 153 139 114 153 139 114 153 139 114 153 139 114 153 139 114 153 139 114 153 139 114 153 139 114 153 139 114 153 139 114 153 139 114 153 139 114 153 139 114 153 139 114 153 139 114 153 139 114 153 139 114 153 139 114 153 139 114 153 139 114 153 139 114 153 139 114 153 139 114 153 139 114 153 139 114 153 139 114 153 139 114 153 139 114 153 139 114 153 139 114 153 139 114 153 139 114 153 139 114 153 139 114 153 139 114 153 139 114 153 139 114 153 139 114 153 139 114 153 139 114 153 139 114 153 139 114 153 139 114 153 139 114 153 139 114
153 139 114 153 139 114 153 139 114 153 139 114 153 139 114 153 139 114 153 139 114 153 139 114 153 139 114 153 139 114 153 139 114 153 139 114 153 139 114 153 139 114 153 139 114 153 139 114 153 139 114 153 139 114 153 139 114 153 139 114 153 139 114 153 139 114 153 139 114 153 139 114 153 139 114 153 139 114 153 139 114 153 139 114 153 139 114 153 139 114 153 139 114 153 139 114 153 139 114 153 139 114 153 139 114 153 139 114 153 139 114 153 139 114 153 139 114 153 139 114 153 139 114 153 139 114 153 139 114 153 139 114 153 139 114 153 139 114 153 139 114 153 139 114 153 139 114 153 139 114 153 139 114 153 139 114 153 139 114 153 139 114 153 139 114 153 139 114 153 139 114 153 139 114 153 139 114 153 139 114 153 139 114 153 139 114 153 139 114 153 139 114 153 139 114 153 139 114 153 139 114 153 139 114 153 139 114 153 139 114 153 139 114 153 139 114 153 139 114 153 139 114 153 139 114 153 139 114 153 139 114 153 139 114 153 139 114 153 139 114 153 139 114 153 139 114 153 139 114 153 139 114 153 139 114 153 139 114 153 139 114 153 139 114 153 139 114 153 139 114 153 139 114 153 139 114 153 139 114 153 139 114 153 139 114 153 139 114 153 139 114 153 139 114 153 139 114 153 139 114 153 139 114 153 139 114 153 139 114 153 139 114 153 139 114 153 139 114 153 139 114 153 139 114 153 139 114 153 139 114 153 139 114 153 139 114 153 139 114 153 139 114 153 139 114 153 139 114 153 139 114 153 139 114 153 139 114 153 139 114 153 139 114 153 139 114 153 139 114 153 139 114 153 139 114 153 139 114 153 139 114 153 139 114 153 139 114 153 139 114 153 139 114 153 139 114 153 139 114 153 139 114 153 139 114 153 139 114 153 139 114 153 139 114 153 139 114 153 139 114 153 139 114 153 139 114 153 139 114 153 139 114 153 139 114 153 139 114 153 139 114 153 139 114 153 139 114 153 139 114 153 139 114 153 139 114 153 139 114 153 139 114 153 139 114 153 139 114 153 139 114 153 139 114 153 139 114 153 139 114 153 139 114 153 139 114 153 139 114 153 139 114 153 139 114 153 139 114 153 139 114 153 139 114 153 139 114 153 139 114 153 139 114 153 139 114 153 139 114 153 139 114 153 139 114 153 139 114 153 139 114 153 139 114 153 139 114 153 139 114 153 139 114 153 139 114 153 139 114 153 139 114 153 139 114 153 139 114 153 139 114 153 139 114 153 139 114 153 139 114 153 139 114 153 139 114 153 139 114 153 139 114 153 139 114 153 139 114 153 139 114 153 139 114 153 139 114 153 139 114 153 139 114 153 139 114 153 139 114 153 139 114 153 139 114 153 139 114 153 139 114 153 139 114 153 139 114 153 139 114 153 139 114 153 139 114 153 139 114 153 139 114 153 139 114 153 139 114 153 139 114 153 139 114 153 139 114 153 139 114 153 139 114 153 139 114 153 139 114 153 139 114 153 139 114 153 139 114 153 139 114 153 139 114 153 139 114 153 139 114 153 139 114 153 139 114 153 139 114 153 139 114 153 139 114 153 139 114 153 139 114 153 139 114 153 139 114 153 139 114
153 139 114 153 139 114 153 139 114 153 139 114 153 139 114 153 139 114 153 139 114 153 139 114 153 139 114 153 139 114 153 139 114 153 139 114 153 139 114 153 139 114 153 139 114 153 139 114 153 139 114 153 139 114 153 139 114 153 139 114 153 139 114 153 139 114 153 139 114 153 139 114 153 139 114 153 139 114 153 139 114 153 139 114 153 139 114 153 139 114 153 139 114 153 139 114 153 139 114 153 139 114 153 139 114 153 139 114 153 139 114 153 139 114 153 139 114 153 139 114 153 139 114 153 139 114 153 139 114 153 139 114 153 139 114 153 139 114 153 139 114 153 139 114 153 139 114 153 139 114 153 139 114 153 139 114 153 139 114 153 139 114 153 139 114 153 139 114 153 139 114 153 139 114 153 139 114 153 139 114 153 139 114 153 139 114 153 139 114 153 139 114 153 139 114 153 139 114 153 139 114 153 139 114 153 139 114 153 139 114 153 139 114 153 139 114 153 139 114 153 139 114 153 139 114 153 139 114 153 139 114 153 139 114 153 139 114 153 139 114 153 139 114 153 139 114 153 139 114 153 139 114 153 139 114 153 139 114 153 139 114 153 139 114 153 139 114 153 139 114 153 139 114 153 139 114 153 139 114 153 139 114 153 139 114 153 139 114 153 139 114 153 139 114 153 139 114 153 139 114 153 139 114 153 139 114 153 139 114 153 139 114 153 139 114 153 139 114 153 139 114 153 139 114 153 139 114 153 139 114 153 139 114 153 139 114 153 139 114 153 139 114 153 139 114 153 139 114 153 139 114 153 139 114 153 139 114 153 139 114 153 139 114 153 139 114 153 139 114 153 139 114 153 139 114 153 139 114 153 139 114 153 139 114 153 139 114 153 139 114 153 139 114 153 139 114 153 139 114 153 139 114 153 139 114 153 139 114 153 139 114 153 139 114 153 139 114 153 139 114 153 139 114 153 139 114 153 139 114 153 139 114 153 139 114 153 139 114 153 139 114 153 139 114 153 139 114 153 139 114 153 139 114 153 139 114 153 139 114 153 139 114 153 139 114 153 139 114 153 139 114 153 139 114 153 139 114 153 139 114 153 139 114 153 139 114 153 139 114 153 139 114 153 139 114 153 139 114 153 139 114 153 139 114 153 139 114 153 139 114 153 139 114 153 139 114 153 139 114 153 139 114 153 139 114 153 139 114 153 139 114 153 139 114 153 139 114 153 139 114 153 139 114 153 139 114 153 139 114 153 139 114 153 139 114 153 139 114 153 139 114 153 139 114 153 139 114 153 139 114 153 139 114 153 139 114 153 139 114 153 139 114 153 139 114 153 139 114 153 139 114 153 139 114 153 139 114 153 139 114 153 139 114 153 139 114 153 139 114 153 139 114 153 139 114 153 139 114 153 139 114 153 139 114 153 139 114 153 139 114 153 139 114 153 139 114 153 139 114 153 139 114 153 139 114 153 139 114 153 139 114 153 139 114 153 139 114 153 139 114 153 139 114 153 139 114 153 139 114 153 139 114 153 139 114 153 139 114 153 139 114 153 139 114 153 139 114 153 139 114 153 139 114 153 139 114 153 139 114 153 139 114 153 139 114 153 139 114 153 139 114 153 139 114 153 139 114 153 139 114
153 139 114 153 139 114 153 139 114 153 139 114 153 139 114 153 139 114 153 139 114 153 139 114 153 139 114 153 139 114 153 139 114 153 139 114 153 139 114 153 139 114 153 139 114 153 139 114 153 139 114 153 139 114 153 139 114 153 139 114 153 139 114 153 139 114 153 139 114 153 139 114 153 139 114 153 139 114 153 139 114 153 139 114 153 139 114 153 139 114 153 139 114 153 139 114 153 139 114 153 139 114 153 139 114 153 139 114 153 139 114 153 139 114 153 139 114 153 139 114 153 139 114 153 139 114 153 139 114 153 139 114 153 139 114 153 139 114 153 139 114 153 139 114 153 139 114 153 139 114 153 139 114 153 139 114 153 139 114 153 139 114 153 139 114 153 139 114 153 139 114 153 139 114 153 139 114 153 139 114 153 139 114 153 139 114 153 139 114 153 139 114 153 139 114 153 139 114 153 139 114 153 139 114 153 139 114 153 139 114 153 139 114 153 139 114 153 139 114 153 139 114 153 139 114 153 139 114 153 139 114 153 139 114 153 139 114 153 139 114 153 139 114 153 139 114 153 139 114 153 139 114 153 139 114 153 139 114 153 139 114 153 139 114 153 139 114 153 139 114 153 139 114 153 139 114 153 139 114 153 139 114 153 139 114 153 139 114 153 139 114 153 139 114 153 139 114 153 139 114 153 139 114 153 139 114 153 139 114 153 139 114 153 139 114 153 139 114 153 139 114 153 139 114 153 139 114 153 139 114 153 139 114 153 139 114 153 139 114 153 139 114 153 139 114 153 139 114 153 139 114 153 139 114 153 139 114 153 139 114 153 139 114 153 139 114 153 139 114 153 139 114 153 139 114 153 139 114 153 139 114 153 139 114 153 139 114 153 139 114 153 139 114 153 139 114 153 139 114 153 139 114 153 139 114 153 139 114 153 139 114 153 139 114 153 139 114 153 139 114 153 139 114 153 139 114 153 139 114 153 139 114 153 139 114 153 139 114 153 139 114 153 139 114 153 139 114 153 139 114 153 139 114 153 139 114 153 139 114 153 139 114 153 139 114 153 139 114 153 139 114 153 139 114 153 139 114 153 139 114 153 139 114 153 139 114 153 139 114 153 139 114 153 139 114 153 139 114 153 139 114 153 139 114 153 139 114 153 139 114 153 139 114 153 139 114 153 139 114 153 139 114 153 139 114 153 139 114 153 139 114 153 139 114 153 139 114 153 139 114 153 139 114 153 139 114 153 139 114 153 139 114 153 139 114 153 139 114 153 139 114 153 139 114 153 139 114 153 139 114 153 139 114 153 139 114 153 139 114 153 139 114 153 139 114 153 139 114 153 139 114 153 139 114 153 139 114 153 139 114 153 139 114 153 139 114 153 139 114 153 139 114 153 139 114 153 139 114 153 139 114 153 139 114 153 139 114 153 139 114 153 139 114 153 139 114 153 139 114 153 139 114 153 139 114 153 139 114 153 139 114 153 139 114 153 139 114 153 139 114 153 139 114 153 139 114 153 139 114 153 139 114 153 139 114 153 139 114 153 139 114 153 139 114 153 139 114 153 139 114 153 139 114 153 139 114 153 139 114 153 139 114 153 139 114 153 139 114 153 139 114 153 139 114 153 139 114 153 139 114
153 139 114 153 139 114 153 139 114 153 139 114 153 139 114 153 139 114 153 139 114 153 139 114 153 139 114 153 139 114 153 139 114 153 139 114 153 139 114 153 139 114 153 139 114 153 139 114 153 139 114 153 139 114 153 139 114 153 139 114 153 139 114 153 139 114 153 139 114 153 139 114 153 139 114 153 139 114 153 139 114 153 139 114 153 139 114 153 139 114 153 139 114 153 139 114 153 139 114 153 139 114 153 139 114 153 139 114 153 139 114 153 139 114 153 139 114 153 139 114 153 139 114 153 139 114 153 139 114 153 139 114 153 139 114 153 139 114 153 139 114 153 139 114 153 139 114 153 139 114 153 139 114 153 139 114 153 139 114 153 139 114 153 139 114 153 139 114 153 139 114 153 139 114 153 139 114 153 139 114 153 139 114 153 139 114 153 139 114 153 139 114 153 139 114 153 139 114 153 139 114 153 139 114 153 139 114 153 139 114 153 139 114 153 139 114 153 139 114 153 139 114 153 139 114 153 139 114 153 139 114 153 139 114 153 139 114 153 139 114 153 139 114 153 139 114 153 139 114 153 139 114 153 139 114 153 139 114 153 139 114 153 139 114 153 139 114 153 139 114 153 139 114 153 139 114 153 139 114 153 139 114 153 139 114 153 139 114 153 139 114 153 139 114 153 139 114 153 139 114 153 139 114 153 139 114 153 139 114 153 139 114 153 139 114 153 139 114 153 139 114 153 139 114 153 139 114 153 139 114 153 139 114 153 139 114 153 139 114 153 139 114 153 139 114 153 139 114 153 139 114 153 139 114 153 139 114 153 139 114 153 139 114 153 139 114 153 139 114 153 139 114 153 139 114 153 139 114 153 139 114 153 139 114 153 139 114 153 139 114 153 139 114 153 139 114 153 139 114 153 139 114 153 139 114 153 139 114 153 139 114 153 139 114 153 139 114 153 139 114 153 139 114 153 139 114 153 139 114 153 139 114 153 139 114 153 139 114 153 139 114 153 139 114 153 139 114 153 139 114 153 139 114 153 139 114 153 139 114 153 139 114 153 139 114 153 139 114 153 139 114 153 139 114 153 139 114 153 139 114 153 139 114 153 139 114 153 139 114 153 139 114 153 139 114 153 139 114 153 139 114 153 139 114 153 139 114 153 139 114 153 139 114 153 139 114 153 139 114 153 139 114 153 139 114 153 139 114 153 139 114 153 139 114 153 139 114 153 139 114 153 139 114 153 139 114 153 139 114 153 139 114 153 139 114 153 139 114 153 139 114 153 139 114 153 139 114 153 139 114 153 139 114 153 139 114 153 139 114 153 139 114 153 139 114 153 139 114 153 139 114 153 139 114 153 139 114 153 139 114 153 139 114 153 139 114 153 139 114 153 139 114 153 139 114 153 139 114 153 139 114 153 139 114 153 139 114 153 139 114 153 139 114 153 139 114 153 139 114 153 139 114 153 139 114 153 139 114 153 139 114 153 139 114 153 139 114 153 139 114 153 139 114 153 139 114 153 139 114 153 139 114 153 139 114 153 139 114 153 139 114 153 139 114 153 139 114 153 139 114 153 139 114 153 139 114 153 139 114 153 139 114 153 139 114 153 139 114 153 139 114 153 139 114 153 139 114 153 139 114
153 139 114 153 139 114 153 139 114 153 139 114 153 139 114 153 139 114 153 139 114 153 139 114 153 139 114 153 139 114 153 139 114 153 139 114 153 139 114 153 139 114 153 139 114 153 139 114 153 139 114 153 139 114 153 139 114 153 139 114 153 139 114 153 139 114 153 139 114 153 139 114 153 139 114 153 139 114 153 139 114 153 139 114 153 139 114 153 139 114 153 139 114 153 139 114 153 139 114 153 139 114 153 139 114 153 139 114 153 139 114 153 139 114 153 139 114 153 139 114 153 139 114 153 139 114 153 139 114 153 139 114 153 139 114 153 139 114 153 139 114 153 139 114 153 139 114 153 139 114 153 139 114 153 139 114 153 139 114 153 139 114 153 139 114 153 139 114 153 139 114 153 139 114 153 139 114 153 139 114 153 139 114 153 139 114 153 139 114 153 139 114 153 139 114 153 139 114 153 139 114 153 139 114 153 139 114 153 139 114 153 139 114 153 139 114 153 139 114 153 139 114 153 139 114 153 139 114 153 139 114 153 139 114 153 139 114 153 139 114 153 139 114 153 139 114 153 139 114 153 139 114 153 139 114 153 139 114 153 139 114 153 139 114 153 139 114 153 139 114 153 139 114 153 139 114 153 139 114 153 139 114 153 139 114 153 139 114 153 139 114 153 139 114 153 139 114 153 139 114 153 139 114 153 139 114 153 139 114 153 139 114 153 139 114 153 139 114 153 139 114 153 139 114 153 139 114 153 139 114 153 139 114 153 139 114 153 139 114 153 139 114 153 139 114 153 139 114 153 139 114 153 139 114 153 139 114 153 139 114 153 139 114 153 139 114 153 139 114 153 139 114 153 139 114 153 139 114 153 139 114 153 139 114 153 139 114 153 139 114 153 139 114 153 139 114 153 139 114 153 139 114 153 139 114 153 139 114 153 139 114 153 139 114 153 139 114 153 139 114 153 139 114 153 139 114 153 139 114 153 139 114 153 139 114 153 139 114 153 139 114 153 139 114 153 139 114 153 139 114 153 139 114 153 139 114 153 139 114 153 139 114 153 139 114 153 139 114 153 139 114 153 139 114 153 139 114 153 139 114 153 139 114 153 139 114 153 139 114 153 139 114 153 139 114 153 139 114 153 139 114 153 139 114 153 139 114 153 139 114 153 139 114 153 139 114 153 139 114 153 139 114 153 139 114 153 139 114 153 139 114 153 139 114 153 139 114 153 139 114 153 139 114 153 139 114 153 139 114 153 139 114 153 139 114 153 139 114 153 139 114 153 139 114 153 139 114 153 139 114 153 139 114 153 139 114 153 139 114 153 139 114 153 139 114 153 139 114 153 139 114 153 139 114 153 139 114 153 139 114 153 139 114 153 139 114 153 139 114 153 139 114 153 139 114 153 139 114 153 139 114 153 139 114 153 139 114 153 139 114 153 139 114 153 139 114 153 139 114 153 139 114 153 139 114 153 139 114 153 139 114 153 139 114 153 139 114 153 139 114 153 139 114 153 139 114 153 139 114 153 139 114 153 139 114 153 139 114 153 139 114 153 139 114 153 139 114 153 139 114 153 139 114 153 139 114 153 139 114 153 139 114 153 139 114 153 139 114 153 139 114 153 139 114 153 139 114 153 139 114
153 139 114 153 139 114 153 139 114 153 139 114 153 139 114 153 139 114 153 139 114 153 139 114 153 139 114 153 139 114 153 139 114 153 139 114 153 139 114 153 139 114 153 139 114 153 139 114 153 139 114 153 139 114 153 139 114 153 139 114 153 139 114 153 139 114 153 139 114 153 139 114 153 139 114 153 139 114 153 139 114 153 139 114 153 139 114 153 139 114 153 139 114 153 139 114 153 139 114 153 139 114 153 139 114 153 139 114 153 139 114 153 139 114 153 139 114 153 139 114 153 139 114 153 139 114 153 139 114 153 139 114 153 139 114 153 139 114 153 139 114 153 139 114 153 139 114 153 139 114 153 139 114 153 139 114 153 139 114 153 139 114 153 139 114 153 139 114 153 139 114 153 139 114 153 139 114 153 139 114 153 139 114 153 139 114 153 139 114 153 139 114 153 139 114 153 139 114 153 139 114 153 139 114 153 139 114 153 139 114 153 139 114 153 139 114 153 139 114 153 139 114 153 139 114 153 139 114 153 139 114 153 139 114 153 139 114 153 139 114 153 139 114 153 139 114 153 139 114 153 139 114 153 139 114 153 139 114 153 139 114 153 139 114 153 139 114 153 139 114 153 139 114 153 139 114 153 139 114 153 139 114 153 139 114 153 139 114 153 139 114 153 139 114 153 139 114 153 139 114 153 139 114 153 139 114 153 139 114 153 139 114 153 139 114 153 139 114 153 139 114 153 139 114 153 139 114 153 139 114 153 139 114 153 139 114 153 139 114 153 139 114 153 139 114 153 139 114 153 139 114 153 139 114 153 139 114 153 139 114 153 139 114 153 139 114 153 139 114 153 139 114 153 139 114 153 139 114 153 139 114 153 139 114 153 139 114 153 139 114 153 139 114 153 139 114 153 139 114 153 139 114 153 139 114 153 139 114 153 139 114 153 139 114 153 139 114 153 139 114 153 139 114 153 139 114 153 139 114 153 139 114 153 139 114 153 139 114 153 139 114 153 139 114 153 139 114 153 139 114 153 139 114 153 139 114 153 139 114 153 139 114 153 139 114 153 139 114 153 139 114 153 139 114 153 139 114 153 139 114 153 139 114 153 139 114 153 139 114 153 139 114 153 139 114 153 139 114 153 139 114 153 139 114 153 139 114 153 139 114 153 139 114 153 139 114 153 139 114 153 139 114 153 139 114 153 139 114 153 139 114 153 139 114 153 139 114 153 139 114 153 139 114 153 139 114 153 139 114 153 139 114 153 139 114 153 139 114 153 139 114 153 139 114 153 139 114 153 139 114 153 139 114 153 139 114 153 139 114 153 139 114 153 139 114 153 139 114 153 139 114 153 139 114 153 139 114 153 139 114 153 139 114 153 139 114 153 139 114 153 139 114 153 139 114 153 139 114 153 139 114 153 139 114 153 139 114 153 139 114 153 139 114 153 139 114 153 139 114 153 139 114 153 139 114 153 139 114 153 139 114 153 139 114 153 139 114 153 139 114 153 139 114 153 139 114 153 139 114 153 139 114 153 139 114 153 139 114 153 139 114 153 139 114 153 139 114 153 139 114 153 139 114 153 139 114 153 139 114 153 139 114 153 139 114 153 139 114 153 139 114 153 139 114 153 139 114 153 139 114
153 139 114 153 139 114 153 139 114 153 139 114 153 139 114 153 139 114 153 139 114 153 139 114 153 139 114 153 139 114 153 139 114 153 139 114 153 139 114 153 139 114 153 139 114 153 139 114 153 139 114 153 139 114 153 139 114 153 139 114 153 139 114 153 139 114 153 139 114 153 139 114 153 139 114 153 139 114 153 139 114 153 139 114 153 139 114 153 139 114 153 139 114 153 139 114 153 139 114 153 139 114 153 139 114 153 139 114 153 139 114 153 139 114 153 139 114 153 139 114 153 139 114 153 139 114 153 139 114 153 139 114 153 139 114 153 139 114 153 139 114 153 139 114 153 139 114 153 139 114 153 139 114 153 139 114 153 139 114 153 139 114 153 139 114 153 139 114 153 139 114 153 139 114 153 139 114 153 139 114 153 139 114 153 139 114 153 139 114 153 139 114 153 139 114 153 139 114 153 139 114 153 139 114 153 139 114 153 139 114 153 139 114 153 139 114 153 139 114 153 139 114 153 139 114 153 139 114 153 139 114 153 139 114 153 139 114 153 139 114 153 139 114 153 139 114 153 139 114 153 139 114 153 139 114 153 139 114 153 139 114 153 139 114 153 139 114 153 139 114 153 139 114 153 139 114 153 139 114 153 139 114 153 139 114 153 139 114 153 139 114 153 139 114 153 139 114 153 139 114 153 139 114 153 139 114 153 139 114 153 139 114 153 139 114 153 139 114 153 139 114 153 139 114 153 139 114 153 139 114 153 139 114 153 139 114 153 139 114 153 139 114 153 139 114 153 139 114 153 139 114 153 139 114 153 139 114 153 139 114 153 139 114 153 139 114 153 139 114 153 139 114 153 139 114 153 139 114 153 139 114 153 139 114 153 139 114 153 139 114 153 139 114 153 139 114 153 139 114 153 139 114 153 139 114 153 139 114 153 139 114 153 139 114 153 139 114 153 139 114 153 139 114 153 139 114 153 139 114 153 139 114 153 139 114 153 139 114 153 139 114 153 139 114 153 139 114 153 139 114 153 139 114 153 139 114 153 139 114 153 139 114 153 139 114 153 139 114 153 139 114 153 139 114 153 139 114 153 139 114 153 139 114 153 139 114 153 139 114 153 139 114 153 139 114 153 139 114 153 139 114 153 139 114 153 139 114 153 139 114 153 139 114 153 139 114 153 139 114 153 139 114 153 139 114 153 139 114 153 139 114 153 139 114 153 139 114 153 139 114 153 139 114 153 139 114 153 139 114 153 139 114 153 139 114 153 139 114 153 139 114 153 139 114 153 139 114 153 139 114 153 139 114 153 139 114 153 139 114 153 139 114 153 139 114 153 139 114 153 139 114 153 139 114 153 139 114 153 139 114 153 139 114 153 139 114 153 139 114 153 139 114 153 139 114 153 139 114 153 139 114 153 139 114 153 139 114 153 139 114 153 139 114 153 139 114 153 139 114 153 139 114 153 139 114 153 139 114 153 139 114 153 139 114 153 139 114 153 139 114 153 139 114 153 139 114 153 139 114 153 139 114 153 139 114 153 139 114 153 139 114 153 139 114 153 139 114 153 139 114 153 139 114 153 139 114 153 139 114 153 139 114 153 139 114 153 139 114 153 139 114 153 139 114 153 139 114 153 139 114
153 139 114 153 139 114 153 139 114 153 139 114 153 139 114 153 139 114 153 139 114 153 139 114 153 139 114 153 139 114 153 139 114 153 139 114 153 139 114 153 139 114 153 139 114 153 139 114 153 139 114 153 139 114 153 139 114 153 139 114 153 139 114 153 139 114 153 139 114 153 139 114 153 139 114 153 139 114 153 139 114 153 139 114 153 139 114 153 139 114 153 139 114 153 139 114 153 139 114 153 139 114 153 139 114 153 139 114 153 139 114 153 139 114 153 139 114 153 139 114 153 139 114 153 139 114 153 139 114 153 139 114 153 139 114 153 139 114 153 139 114 153 139 114 153 139 114 153 139 114 153 139 114 153 139 114 153 139 114 153 139 114 153 139 114 153 139 114 153 139 114 153 139 114 153 139 114 153 139 114 153 139 114 153 139 114 153 139 114 153 139 114 153 139 114 153 139 114 153 139 114 153 139 114 153 139 114 153 139 114 153 139 114 153 139 114 153 139 114 153 139 114 153 139 114 153 139 114 153 139 114 153 139 114 153 139 114 153 139 114 153 139 114 153 139 114 153 139 114 153 139 114 153 139 114 153 139 114 153 139 114 153 139 114 153 139 114 153 139 114 153 139 114 153 139 114 153 139 114 153 139 114 153 139 114 153 139 114 153 139 114 153 139 114 153 139 114 153 139 114 153 139 114 153 139 114 153 139 114 153 139 114 153 139 114 153 139 114 153 139 114 153 139 114 153 139 114 153 139 114 153 139 114 153 139 114 153 139 114 153 139 114 153 139 114 153 139 114 153 139 114 153 139 114 153 139 114 153 139 114 153 139 114 153 139 114 153 139 114 153 139 114 153 139 114 153 139 114 153 139 114 153 139 114 153 139 114 153 139 114 153 139 114 153 139 114 153 139 114 153 139 114 153 139 114 153 139 114 153 139 114 153 139 114 153 139 114 153 139 114 153 139 114 153 139 114 153 139 114 153 139 114 153 139 114 153 139 114 153 139 114 153 139 114 153 139 114 153 139 114 153 139 114 153 139 114 153 139 114 153 139 114 153 139 114 153 139 114 153 139 114 153 139 114 153 139 114 153 139 114 153 139 114 153 139 114 153 139 114 153 139 114 153 139 114 153 139 114 153 139 114 153 139 114 153 139 114 153 139 114 153 139 114 153 139 114 153 139 114 153 139 114 153 139 114 153 139 114 153 139 114 153 139 114 153 139 114 153 139 114 153 139 114 153 139 114 153 139 114 153 139 114 153 139 114 153 139 114 153 139 114 153 139 114 153 139 114 153 139 114 153 139 114 153 139 114 153 139 114 153 139 114 153 139 114 153 139 114 153 139 114 153 139 114 153 139 114 153 139 114 153 139 114 153 139 114 153 139 114 153 139 114 153 139 114 153 139 114 153 139 114 153 139 114 153 139 114 153 139 114 153 139 114 153 139 114 153 139 114 153 139 114 153 139 114 153 139 114 153 139 114 153 139 114 153 139 114 153 139 114 153 139 114 153 139 114 153 139 114 153 139 114 153 139 114 153 139 114 153 139 114 153 139 114 153 139 114 153 139 114 153 139 114 153 139 114 153 139 114 153 139 114 153 139 114 153 139 114 153 139 114 153 139 114 153 139 114 153 139 114
153 139 114 153 139 114 153 139 114 153 139 114 153 139 114 153 139 114 153 139 114 153 139 114 153 139 114 153 139 114 153 139 114 153 139 114 153 139 114 153 139 114 153 139 114 153 139 114 153 139 114 153 139 114 153 139 114 153 139 114 153 139 114 153 139 114 153 139 114 153 139 114 153 139 114 153 139 114 153 139 114 153 139 114 153 139 114 153 139 114 153 139 114 153 139 114 153 139 114 153 139 114 153 139 114 153 139 114 153 139 114 153 139 114 153 139 114 153 139 114 153 139 114 153 139 114 153 139 114 153 139 114 153 139 114 153 139 114 153 139 114 153 139 114 153 139 114 153 139 114 153 139 114 153 139 114 153 139 114 153 139 114 153 139 114 153 139 114 153 139 114 153 139 114 153 139 114 153 139 114 153 139 114 153 139 114 153 139 114 153 139 114 153 139 114 153 139 114 153 139 114 153 139 114 153 139 114 153 139 114 153 139 114 153 139 114 153 139 114 153 139 114 153 139 114 153 139 114 153 139 114 153 139 114 153 139 114 153 139 114 153 139 114 153 139 114 153 139 114 153 139 114 153 139 114 153 139 114 153 139 114 153 139 114 153 139 114 153 139 114 153 139 114 153 139 114 153 139 114 153 139 114 153 139 114 153 139 114 153 139 114 153 139 114 153 139 114 153 139 114 153 139 114 153 139 114 153 139 114 153 139 114 153 139 114 153 139 114 153 139 114 153 139 114 153 139 114 153 139 114 153 139 114 153 139 114 153 139 114 153 139 114 153 139 114 153 139 114 153 139 114 153 139 114 153 139 114 153 139 114 153 139 114 153 139 114 153 139 114 153 139 114 153 139 114 153 139 114 153 139 114 153 139 114 153 139 114 153 139 114 153 139 114 153 139 114 153 139 114 153 139 114 153 139 114 153 139 114 153 139 114 153 139 114 153 139 114 153 139 114 153 139 114 153 139 114 153 139 114 153 139 114 153 139 114 153 139 114 153 139 114 153 139 114 153 139 114 153 139 114 153 139 114 153 139 114 153 139 114 153 139 114 153 139 114 153 139 114 153 139 114 153 139 114 153 139 114 153 139 114 153 139 114 153 139 114 153 139 114 153 139 114 153 139 114 153 139 114 153 139 114 153 139 114 153 139 114 153 139 114 153 139 114 153 139 114 153 139 114 153 139 114 153 139 114 153 139 114 153 139 114 153 139 114 153 139 114 153 139 114 153 139 114 153 139 114 153 139 114 153 139 114 153 139 114 153 139 114 153 139 114 153 139 114 153 139 114 153 139 114 153 139 114 153 139 114 153 139 114 153 139 114 153 139 114 153 139 114 153 139 114 153 139 114 153 139 114 153 139 114 153 139 114 153 139 114 153 139 114 153 139 114 153 139 114 153 139 114 153 139 114 153 139 114 153 139 114 153 139 114 153 139 114 153 139 114 153 139 114 153 139 114 153 139 114 153 139 114 153 139 114 153 139 114 153 139 114 153 139 114 153 139 114 153 139 114 153 139 114 153 139 114 153 139 114 153 139 114 153 139 114 153 139 114 153 139 114 153 139 114 153 139 114 153 139 114 153 139 114 153 139 114 153 139 114 153 139 114 153 139 114 153 139 114 153 139 114 153 139 114
153 139 114 153 139 114 153 139 114 153 139 114 153 139 114 153 139 114 153 139 114 153 139 114 153 139 114 153 139 114 153 139 114 153 139 114 153 139 114 153 139 114 153 139 114 153 139 114 153 139 114 153 139 114 153 139 114 153 139 114 153 139 114 153 139 114 153 139 114 153 139 114 153 139 114 153 139 114 153 139 114 153 139 114 153 139 114 153 139 114 153 139 114 153 139 114 153 139 114 153 139 114 153 139 114 153 139 114 153 139 114 153 139 114 153 139 114 153 139 114 153 139 114 153 139 114 153 139 114 153 139 114 153 139 114 153 139 114 153 139 114 153 139 114 153 139 114 153 139 114 153 139 114 153 139 114 153 139 114 153 139 114 153 139 114 153 139 114 153 139 114 153 139 114 153 139 114 153 139 114 153 139 114 153 139 114 153 139 114 153 139 114 153 139 114 153 139 114 153 139 114 153 139 114 153 139 114 153 139 114 153 139 114 153 139 114 153 139 114 153 139 114 153 139 114 153 139 114 153 139 114 153 139 114 153 139 114 153 139 114 153 139 114 153 139 114 153 139 114 153 139 114 153 139 114 153 139 114 153 139 114 153 139 114 153 139 114 153 139 114 153 139 114 153 139 114 153 139 114 153 139 114 153 139 114 153 139 114 153 139 114 153 139 114 153 139 114 153 139 114 153 139 114 153 139 114 153 139 114 153 139 114 153 139 114 153 139 114 153 139 114 153 139 114 153 139 114 153 139 114 153 139 114 153 139 114 153 139 114 153 139 114 153 139 114 153 139 114 153 139 114 153 139 114 153 139 114 153 139 114 153 139 114 153 139 114 153 139 114 153 139 114 153 139 114 153 139 114 153 139 114 153 139 114 153 139 114 153 139 114 153 139 114 153 139 114 153 139 114 153 139 114 153 139 114 153 139 114 153 139 114 153 139 114 153 139 114 153 139 114 153 139 114 153 139 114 153 139 114 153 139 114 153 139 114 153 139 114 153 139 114 153 139 114 153 139 114 153 139 114 153 139 114 153 139 114 153 139 114 153 139 114 153 139 114 153 139 114 153 139 114 153 139 114 153 139 114 153 139 114 153 139 114 153 139 114 153 139 114 153 139 114 153 139 114 153 139 114 153 139 114 153 139 114 153 139 114 153 139 114 153 139 114 153 139 114 153 139 114 153 139 114 153 139 114 153 139 114 153 139 114 153 139 114 153 139 114 153 139 114 153 139 114 153 139 114 153 139 114 153 139 114 153 139 114 153 139 114 153 139 114 153 139 114 153 139 114 153 139 114 153 139 114 153 139 114 153 139 114 153 139 114 153 139 114 153 139 114 153 139 114 153 139 114 153 139 114 153 139 114 153 139 114 153 139 114 153 139 114 153 139 114 153 139 114 153 139 114 153 139 114 153 139 114 153 139 114 153 139 114 153 139 114 153 139 114 153 139 114 153 139 114 153 139 114 153 139 114 153 139 114 153 139 114 153 139 114 153 139 114 153 139 114 153 139 114 153 139 114 153 139 114 153 139 114 153 139 114 153 139 114 153 139 114 153 139 114 153 139 114 153 139 114 153 139 114 153 139 114 153 139 114 153 139 114 153 139 114 153 139 114 153 139 114 153 139 114 153 139 114
153 139 114 153 139 114 153 139 114 153 139 114 153 139 114 153 139 114 153 139 114 153 139 114 153 139 114 153 139 114 153 139 114 153 139 114 153 139 114 153 139 114 153 139 114 153 139 114 153 139 114 153 139 114 153 139 114 153 139 114 153 139 114 153 139 114 153 139 114 153 139 114 153 139 114 153 139 114 153 139 114 153 139 114 153 139 114 153 139 114 153 139 114 153 139 114 153 139 114 153 139 114 153 139 114 153 139 114 153 139 114 153 139 114 153 139 114 153 139 114 153 139 114 153 139 114 153 139 114 153 139 114 153 139 114 153 139 114 153 139 114 153 139 114 153 139 114 153 139 114 153 139 114 153 139 114 153 139 114 153 139 114 153 139 114 153 139 114 153 139 114 153 139 114 153 139 114 153 139 114 153 139 114 153 139 114 153 139 114 153 139 114 153 139 114 153 139 114 153 139 114 153 139 114 153 139 114 153 139 114 153 139 114 153 139 114 153 139 114 153 139 114 153 139 114 153 139 114 153 139 114 153 139 114 153 139 114 153 139 114 153 139 114 153 139 114 153 139 114 153 139 114 153 139 114 153 139 114 153 139 114 153 139 114 153 139 114 153 139 114 153 139 114 153 139 114 153 139 114 153 139 114 153 139 114 153 139 114 153 139 114 153 139 114 153 139 114 153 139 114 153 139 114 153 139 114 153 139 114 153 139 114 153 139 114 153 139 114 153 139 114 153 139 114 153 139 114 153 139 114 153 139 114 153 139 114 153 139 114 153 139 114 153 139 114 153 139 114 153 139 114 153 139 114 153 139 114 153 139 114 153 139 114 153 139 114 153 139 114 153 139 114 153 139 114 153 139 114 153 139 114 153 139 114 153 139 114 153 139 114 153 139 114 153 139 114 153 139 114 153 139 114 153 139 114 153 139 114 153 139 114 153 139 114 153 139 114 153 139 114 153 139 114 153 139 114 153 139 114 153 139 114 153 139 114 153 139 114 153 139 114 153 139 114 153 139 114 153 139 114 153 139 114 153 139 114 153 139 114 153 139 114 153 139 114 153 139 114 153 139 114 153 139 114 153 139 114 153 139 114 153 139 114 153 139 114 153 139 114 153 139 114 153 139 114 153 139 114 153 139 114 153 139 114 153 139 114 153 139 114 153 139 114 153 139 114 153 139 114 153 139 114 153 139 114 153 139 114 153 139 114 153 139 114 153 139 114 153 139 114 153 139 114 153 139 114 153 139 114 153 139 114 153 139 114 153 139 114 153 139 114 153 139 114 153 139 114 153 139 114 153 139 114 153 139 114 153 139 114 153 139 114 153 139 114 153 139 114 153 139 114 153 139 114 153 139 114 153 139 114 153 139 114 153 139 114 153 139 114 153 139 114 153 139 114 153 139 114 153 139 114 153 139 114 153 139 114 153 139 114 153 139 114 153 139 114 153 139 114 153 139 114 153 139 114 153 139 114 153 139 114 153 139 114 153 139 114 153 139 114 153 139 114 153 139 114 153 139 114 153 139 114 153 139 114 153 139 114 153 139 114 153 139 114 153 139 114 153 139 114 153 139 114 153 139 114 153 139 114 153 139 114 153 139 114 153 139 114 153 139 114 153 139 114 153 139 114 153 139 114
153 139 114 153 139 114 153 139 114 153 139 114 153 139 114 153 139 114 153 139 114 153 139 114 153 139 114 153 139 114 153 139 114 153 139 114 153 139 114 153 139 114 153 139 114 153 139 114 153 139 114 153 139 114 153 139 114 153 139 114 153 139 114 153 139 114 153 139 114 153 139 114 153 139 114 153 139 114 153 139 114 153 139 114 153 139 114 153 139 114 153 139 114 153 139 114 153 139 114 153 139 114 153 139 114 153 139 114 153 139 114 153 139 114 153 139 114 153 139 114 153 139 114 153 139 114 153 139 114 153 139 114 153 139 114 153 139 114 153 139 114 153 139 114 153 139 114 153 139 114 153 139 114 153 139 114 153 139 114 153 139 114 153 139 114 153 139 114 153 139 114 153 139 114 153 139 114 153 139 114 153 139 114 153 139 114 153 139 114 153 139 114 153 139 114 153 139 114 153 139 114 153 139 114 153 139 114 153 139 114 153 139 114 153 139 114 153 139 114 153 139 114 153 139 114 153 139 114 153 139 114 153 139 114 153 139 114 153 139 114 153 139 114 153 139 114 153 139 114 153 139 114 153 139 114 153 139 114 153 139 114 153 139 114 153 139 114 153 139 114 153 139 114 153 139 114 153 139 114 153 139 114 153 139 114 153 139 114 153 139 114 153 139 114 153 139 114 153 139 114 153 139 114 153 139 114 153 139 114 153 139 114 153 139 114 153 139 114 153 139 114 153 139 114 153 139 114 153 139 114 153 139 114 153 139 114 153 139 114 153 139 114 153 139 114 153 139 114 153 139 114 153 139 114 153 139 114 153 139 114 153 139 114 153 139 114 153 139 114 153 139 114 153 139 114 153 139 114 153 139 114 153 139 114 153 139 114 153 139 114 153 139 114 153 139 114 153 139 114 153 139 114 153 139 114 153 139 114 153 139 114 153 139 114 153 139 114 153 139 114 153 139 114 153 139 114 153 139 114 153 139 114 153 139 114 153 139 114 153 139 114 153 139 114 153 139 114 153 139 114 153 139 114 153 139 114 153 139 114 153 139 114 153 139 114 153 139 114 153 139 114 153 139 114 153 139 114 153 139 114 153 139 114 153 139 114 153 139 114 153 139 114 153 139 114 153 139 114 153 139 114 153 139 114 153 139 114 153 139 114 153 139 114 153 139 114 153 139 114 153 139 114 153 139 114 153 139 114 153 139 114 153 139 114 153 139 114 153 139 114 153 139 114 153 139 114 153 139 114 153 139 114 153 139 114 153 139 114 153 139 114 153 139 114 153 139 114 153 139 114 153 139 114 153 139 114 153 139 114 153 139 114 153 139 114 153 139 114 153 139 114 153 139 114 153 139 114 153 139 114 153 139 114 153 139 114 153 139 114 153 139 114 153 139 114 153 139 114 153 139 114 153 139 114 153 139 114 153 139 114 153 139 114 153 139 114 153 139 114 153 139 114 153 139 114 153 139 114 153 139 114 153 139 114 153 139 114 153 139 114 153 139 114 153 139 114 153 139 114 153 139 114 153 139 114 153 139 114 153 139 114 153 139 114 153 139 114 153 139 114 153 139 114 153 139 114 153 139 114 153 139 114 153 139 114 153 139 114 153 139 114 153 139 114 153 139 114 153 139 114
153 139 114 153 139 114 153 139 114 153 139 114 153 139 114 153 139 114 153 139 114 153 139 114 153 139 114 153 139 114 153 139 114 153 139 114 153 139 114 153 139 114 153 139 114 153 139 114 153 139 114 153 139 114 153 139 114 153 139 114 153 139 114 153 139 114 153 139 114 153 139 114 153 139 114 153 139 114 153 139 114 153 139 114 153 139 114 153 139 114 153 139 114 153 139 114 153 139 114 153 139 114 153 139 114 153 139 114 153 139 114 153 139 114 153 139 114 153 139 114 153 139 114 153 139 114 153 139 114 153 139 114 153 139 114 153 139 114 153 139 114 153 139 114 153 139 114 153 139 114 153 139 114 153 139 114 153 139 114 153 139 114 153 139 114 153 139 114 153 139 114 153 139 114 153 139 114 153 139 114 153 139 114 153 139 114 153 139 114 153 139 114 153 139 114 153 139 114 153 139 114 153 139 114 153 139 114 153 139 114 153 139 114 153 139 114 153 139 114 153 139 114 153 139 114 153 139 114 153 139 114 153 139 114 153 139 114 153 139 114 153 139 114 153 139 114 153 139 114 153 139 114 153 139 114 153 139 114 153 139 114 153 139 114 153 139 114 153 139 114 153 139 114 153 139 114 153 139 114 153 139 114 153 139 114 153 139 114 153 139 114 153 139 114 153 139 114 153 139 114 153 139 114 153 139 114 153 139 114 153 139 114 153 139 114 153 139 114 153 139 114 153 139 114 153 139 114 153 139 114 153 139 114 153 139 114 153 139 114 153 139 114 153 139 114 153 139 114 153 139 114 153 139 114 153 139 114 153 139 114 153 139 114 153 139 114 153 139 114 153 139 114 153 139 114 153 139 114 153 139 114 153 139 114 153 139 114 153 139 114 153 139 114 153 139 114 153 139 114 153 139 114 153 139 114 153 139 114 153 139 114 153 139 114 153 139 114 153 139 114 153 139 114 153 139 114 153 139 114 153 139 114 153 139 114 153 139 114 153 139 114 153 139 114 153 139 114 153 139 114 153 139 114 153 139 114 153 139 114 153 139 114 153 139 114 153 139 114 153 139 114 153 139 114 153 139 114 153 139 114 153 139 114 153 139 114 153 139 114 153 139 114 153 139 114 153 139 114 153 139 114 153 139 114 153 139 114 153 139 114 153 139 114 153 139 114 153 139 114 153 139 114 153 139 114 153 139 114 153 139 114 153 139 114 153 139 114 153 139 114 153 139 114 153 139 114 153 139 114 153 139 114 153 139 114 153 139 114 153 139 114 153 139 114 153 139 114 153 139 114 153 139 114 153 139 114 153 139 114 153 139 114 153 139 114 153 139 114 153 139 114 153 139 114 153 139 114 153 139 114 153 139 114 153 139 114 153 139 114 153 139 114 153 139 114 153 139 114 153 139 114 153 139 114 153 139 114 153 139 114 153 139 114 153 139 114 153 139 114 153 139 114 153 139 114 153 139 114 153 139 114 153 139 114 153 139 114 153 139 114 153 139 114 153 139 114 153 139 114 153 139 114 153 139 114 153 139 114 153 139 114 153 139 114 153 139 114 153 139 114 153 139 114 153 139 114 153 139 114 153 139 114 153 139 114 153 139 114 153 139 114 153 139 114 153 139 114 153 139 114
153 139 114 153 139 114 153 139 114 153 139 114 153 139 114 153 139 114 153 139 114 153 139 114 153 139 114 153 139 114 153 139 114 153 139 114 153 139 114 153 139 114 153 139 114 153 139 114 153 139 114 153 139 114 153 139 114 153 139 114 153 139 114 153 139 114 153 139 114 153 139 114 153 139 114 153 139 114 153 139 114 153 139 114 153 139 114 153 139 114 153 139 114 153 139 114 153 139 114 153 139 114 153 139 114 153 139 114 153 139 114 153 139 114 153 139 114 153 139 114 153 139 114 153 139 114 153 139 114 153 139 114 153 139 114 153 139 114 153 139 114 153 139 114 153 139 114 153 139 114 153 139 114 153 139 114 153 139 114 153 139 114 153 139 114 153 139 114 153 139 114 153 139 114 153 139 114 153 139 114 153 139 114 153 139 114 153 139 114 153 139 114 153 139 114 153 139 114 153 139 114 153 139 114 153 139 114 153 139 114 153 139 114 153 139 114 153 139 114 153 139 114 153 139 114 153 139 114 153 139 114 153 139 114 153 139 114 153 139 114 153 139 114 153 139 114 153 139 114 153 139 114 153 139 114 153 139 114 153 139 114 153 139 114 153 139 114 153 139 114 153 139 114 153 139 114 153 139 114 153 139 114 153 139 114 153 139 114 153 139 114 153 139 114 153 139 114 153 139 114 153 139 114 153 139 114 153 139 114 153 139 114 153 139 114 153 139 114 153 139 114 153 139 114 153 139 114 153 139 114 153 139 114 153 139 114 153 139 114 153 139 114 153 139 114 153 139 114 153 139 114 153 139 114 153 139 114 153 139 114 153 139 114 153 139 114 153 139 114 153 139 114 153 139 114 153 139 114 153 139 114 153 139 114 153 139 114 153 139 114 153 139 114 153 139 114 153 139 114 153 139 114 153 139 114 153 139 114 153 139 114 153 139 114 153 139 114 153 139 114 153 139 114 153 139 114 153 139 114 153 139 114 153 139 114 153 139 114 153 139 114 153 139 114 153 139 114 153 139 114 153 139 114 153 139 114 153 139 114 153 139 114 153 139 114 153 139 114 153 139 114 153 139 114 153 139 114 153 139 114 153 139 114 153 139 114 153 139 114 153 139 114 153 139 114 153 139 114 153 139 114 153 139 114 153 139 114 153 139 114 153 139 114 153 139 114 153 139 114 153 139 114 153 139 114 153 139 114 153 139 114 153 139 114 153 139 114 153 139 114 153 139 114 153 139 114 153 139 114 153 139 114 153 139 114 153 139 114 153 139 114 153 139 114 153 139 114 153 139 114 153 139 114 153 139 114 153 139 114 153 139 114 153 139 114 153 139 114 153 139 114 153 139 114 153 139 114 153 139 114 153 139 114 153 139 114 153 139 114 153 139 114 153 139 114 153 139 114 153 139 114 153 139 114 153 139 114 153 139 114 153 139 114 153 139 114 153 139 114 153 139 114 153 139 114 153 139 114 153 139 114 153 139 114 153 139 114 153 139 114 153 139 114 153 139 114 153 139 114 153 139 114 153 139 114 153 139 114 153 139 114 153 139 114 153 139 114 153 139 114 153 139 114 153 139 114 153 139 114 153 139 114 153 139 114 153 139 114 153 139 114 153 139 114 153 139 114 153 139 114
153 139 114 153 139 114 153 139 114 153 139 114 153 139 114 153 139 114 153 139 114 153 139 114 153 139 114 153 139 114 153 139 114 153 139 114 153 139 114 153 139 114 153 139 114 153 139 114 153 139 114 153 139 114 153 139 114 153 139 114 153 139 114 153 139 114 153 139 114 153 139 114 153 139 114 153 139 114 153 139 114 153 139 114 153 139 114 153 139 114 153 139 114 153 139 114 153 139 114 153 139 114 153 139 114 153 139 114 153 139 114 153 139 114 153 139 114 153 139 114 153 139 114 153 139 114 153 139 114 153 139 114 153 139 114 153 139 114 153 139 114 153 139 114 153 139 114 153 139 114 153 139 114 153 139 114 153 139 114 153 139 114 153 139 114 153 139 114 153 139 114 153 139 114 153 139 114 153 139 114 153 139 114 153 139 114 153 139 114 153 139 114 153 139 114 153 139 114 153 139 114 153 139 114 153 139 114 153 139 114 153 139 114 153 139 114 153 139 114 153 139 114 153 139 114 153 139 114 153 139 114 153 139 114 153 139 114 153 139 114 153 139 114 153 139 114 153 139 114 153 139 114 153 139 114 153 139 114 153 139 114 153 139 114 153 139 114 153 139 114 153 139 114 153 139 114 153 139 114 153 139 114 153 139 114 153 139 114 153 139 114 153 139 114 153 139 114 153 139 114 153 139 114 153 139 114 153 139 114 153 139 114 153 139 114 153 139 114 153 139 114 153 139 114 153 139 114 153 139 114 153 139 114 153 139 114 153 139 114 153 139 114 153 139 114 153 139 114 153 139 114 153 139 114 153 139 114 153 139 114 153 139 114 153 139 114 153 139 114 153 139 114 153 139 114 153 139 114 153 139 114 153 139 114 153 139 114 153 139 114 153 139 114 153 139 114 153 139 114 153 139 114 153 139 114 153 139 114 153 139 114 153 139 114 153 139 114 153 139 114 153 139 114 153 139 114 153 139 114 153 139 114 153 139 114 153 139 114 153 139 114 153 139 114 153 139 114 153 139 114 153 139 114 153 139 114 153 139 114 153 139 114 153 139 114 153 139 114 153 139 114 153 139 114 153 139 114 153 139 114 153 139 114 153 139 114 153 139 114 153 139 114 153 139 114 153 139 114 153 139 114 153 139 114 153 139 114 153 139 114 153 139 114 153 139 114 153 139 114 153 139 114 153 139 114 153 139 114 153 139 114 153 139 114 153 139 114 153 139 114 153 139 114 153 139 114 153 139 114 153 139 114 153 139 114 153 139 114 153 139 114 153 139 114 153 139 114 153 139 114 153 139 114 153 139 114 153 139 114 153 139 114 153 139 114 153 139 114 153 139 114 153 139 114 153 139 114 153 139 114 153 139 114 153 139 114 153 139 114 153 139 114 153 139 114 153 139 114 153 139 114 153 139 114 153 139 114 153 139 114 153 139 114 153 139 114 153 139 114 153 139 114 153 139 114 153 139 114 153 139 114 153 139 114 153 139 114 153 139 114 153 139 114 153 139 114 153 139 114 153 139 114 153 139 114 153 139 114 153 139 114 153 139 114 153 139 114 153 139 114 153 139 114 153 139 114 153 139 114 153 139 114 153 139 114 153 139 114 153 139 114 153 139 114 153 139 114 153 139 114
153 139 114 153 139 114 153 139 114 153 139 114 153 139 114 153 139 114 153 139 114 153 139 114 153 139 114 153 139 114 153 139 114 153 139 114 153 139 114 153 139 114 153 139 114 153 139 114 153 139 114 153 139 114 153 139 114 153 139 114 153 139 114 153 139 114 153 139 114 153 139 114 153 139 114 153 139 114 153 139 114 153 139 114 153 139 114 153 139 114 153 139 114 153 139 114 153 139 114 153 139 114 153 139 114 153 139 114 153 139 114 153 139 114 153 139 114 153 139 114 153 139 114 153 139 114 153 139 114 153 139 114 153 139 114 153 139 114 153 139 114 153 139 114 153 139 114 153 139 114 153 139 114 153 139 114 153 139 114 153 139 114 153 139 114 153 139 114 153 139 114 153 139 114 153 139 114 153 139 114 153 139 114 153 139 114 153 139 114 153 139 114 153 139 114 153 139 114 153 139 114 153 139 114 153 139 114 153 139 114 153 139 114 153 139 114 153 139 114 153 139 114 153 139 114 153 139 114 153 139 114 153 139 114 153 139 114 153 139 114 153 139 114 153 139 114 153 139 114 153 139 114 153 139 114 153 139 114 153 139 114 153 139 114 153 139 114 153 139 114 153 139 114 153 139 114 153 139 114 153 139 114 153 139 114 153 139 114 153 139 114 153 139 114 153 139 114 153 139 114 153 139 114 153 139 114 153 139 114 153 139 114 153 139 114 153 139 114 153 139 114 153 139 114 153 139 114 153 139 114 153 139 114 153 139 114 153 139 114 153 139 114 153 139 114 153 139 114 153 139 114 153 139 114 153 139 114 153 139 114 153 139 114 153 139 114 153 139 114 153 139 114 153 139 114 153 139 114 153 139 114 153 139 114 153 139 114 153 139 114 153 139 114 153 139 114 153 139 114 153 139 114 153 139 114 153 139 114 153 139 114 153 139 114 153 139 114 153 139 114 153 139 114 153 139 114 153 139 114 153 139 114 153 139 114 153 139 114 153 139 114 153 139 114 153 139 114 153 139 114 153 139 114 153 139 114 153 139 114 153 139 114 153 139 114 153 139 114 153 139 114 153 139 114 153 139 114 153 139 114 153 139 114 153 139 114 153 139 114 153 139 114 153 139 114 153 139 114 153 139 114 153 139 114 153 139 114 153 139 114 153 139 114 153 139 114 153 139 114 153 139 114 153 139 114 153 139 114 153 139 114 153 139 114 153 139 114 153 139 114 153 139 114 153 139 114 153 139 114 153 139 114 153 139 114 153 139 114 153 139 114 153 139 114 153 139 114 153 139 114 153 139 114 153 139 114 153 139 114 153 139 114 153 139 114 153 139 114 153 139 114 153 139 114 153 139 114 153 139 114 153 139 114 153 139 114 153 139 114 153 139 114 153 139 114 153 139 114 153 139 114 153 139 114 153 139 114 153 139 114 153 139 114 153 139 114 153 139 114 153 139 114 153 139 114 153 139 114 153 139 114 153 139 114 153 139 114 153 139 114 153 139 114 153 139 114 153 139 114 153 139 114 153 139 114 153 139 114 153 139 114 153 139 114 153 139 114 153 139 114 153 139 114 153 139 114 153 139 114 153 139 114 153 139 114 153 139 114 153 139 114 153 139 114 153 139 114 153 139 114
153 139 114 153 139 114 153 139 114 153 139 114 153 139 114 153 139 114 153 139 114 153 139 114 153 139 114 153 139 114 153 139 114 153 139 114 153 139 114 153 139 114 153 139 114 153 139 114 153 139 114 153 139 114 153 139 114 153 139 114 153 139 114 153 139 114 153 139 114 153 139 114 153 139 114 153 139 114 153 139 114 153 139 114 153 139 114 153 139 114 153 139 114 153 139 114 153 139 114 153 139 114 153 139 114 153 139 114 153 139 114 153 139 114 153 139 114 153 139 114 153 139 114 153 139 114 153 139 114 153 139 114 153 139 114 153 139 114 153 139 114 153 139 114 153 139 114 153 139 114 153 139 114 153 139 114 153 139 114 153 139 114 153 139 114 153 139 114 153 139 114 153 139 114 153 139 114 153 139 114 153 139 114 153 139 114 153 139 114 153 139 114 153 139 114 153 139 114 153 139 114 153 139 114 153 139 114 153 139 114 153 139 114 153 139 114 153 139 114 153 139 114 153 139 114 153 139 114 153 139 114 153 139 114 153 139 114 153 139 114 153 139 114 153 139 114 153 139 114 153 139 114 153 139 114 153 139 114 153 139 114 153 139 114 153 139 114 153 139 114 153 139 114 153 139 114 153 139 114 153 139 114 153 139 114 153 139 114 153 139 114 153 139 114 153 139 114 153 139 114 153 139 114 153 139 114 153 139 114 153 139 114 153 139 114 153 139 114 153 139 114 153 139 114 153 139 114 153 139 114 153 139 114 153 139 114 153 139 114 153 139 114 153 139 114 153 139 114 153 139 114 153 139 114 153 139 114 153 139 114 153 139 114 153 139 114 153 139 114 153 139 114 153 139 114 153 139 114 153 139 114 153 139 114 153 139 114 153 139 114 153 139 114 153 139 114 153 139 114 153 139 114 153 139 114 153 139 114 153 139 114 153 139 114 153 139 114 153 139 114 153 139 114 153 139 114 153 139 114 153 139 114 153 139 114 153 139 114 153 139 114 153 139 114 153 139 114 153 139 114 153 139 114 153 139 114 153 139 114 153 139 114 153 139 114 153 139 114 153 139 114 153 139 114 153 139 114 153 139 114 153 139 114 153 139 114 153 139 114 153 139 114 153 139 114 153 139 114 153 139 114 153 139 114 153 139 114 153 139 114 153 139 114 153 139 114 153 139 114 153 139 114 153 139 114 153 139 114 153 139 114 153 139 114 153 139 114 153 139 114 153 139 114 153 139 114 153 139 114 153 139 114 153 139 114 153 139 114 153 139 114 153 139 114 153 139 114 153 139 114 153 139 114 153 139 114 153 139 114 153 139 114 153 139 114 153 139 114 153 139 114 153 139 114 153 139 114 153 139 114 153 139 114 153 139 114 153 139 114 153 139 114 153 139 114 153 139 114 153 139 114 153 139 114 153 139 114 153 139 114 153 139 114 153 139 114 153 139 114 153 139 114 153 139 114 153 139 114 153 139 114 153 139 114 153 139 114 153 139 114 153 139 114 153 139 114 153 139 114 153 139 114 153 139 114 153 139 114 153 139 114 153 139 114 153 139 114 153 139 114 153 139 114 153 139 114 153 139 114 153 139 114 153 139 114 153 139 114 153 139 114 153 139 114 153 139 114 153 139 114
153 139 114 153 139 114 153 139 114 153 139 114 153 139 114 153 139 114 153 139 114 153 139 114 153 139 114 153 139 114 153 139 114 153 139 114 153 139 114 153 139 114 153 139 114 153 139 114 153 139 114 153 139 114 153 139 114 153 139 114 153 139 114 153 139 114 153 139 114 153 139 114 153 139 114 153 139 114 153 139 114 153 139 114 153 139 114 153 139 114 153 139 114 153 139 114 153 139 114 153 139 114 153 139 114 153 139 114 153 139 114 153 139 114 153 139 114 153 139 114 153 139 114 153 139 114 153 139 114 153 139 114 153 139 114 153 139 114 153 139 114 153 139 114 153 139 114 153 139 114 153 139 114 153 139 114 153 139 114 153 139 114 153 139 114 153 139 114 153 139 114 153 139 114 153 139 114 153 139 114 153 139 114 153 139 114 153 139 114 153 139 114 153 139 114 153 139 114 153 139 114 153 139 114 153 139 114 153 139 114 153 139 114 153 139 114 153 139 114 153 139 114 153 139 114 153 139 114 153 139 114 153 139 114 153 139 114 153 139 114 153 139 114 153 139 114 153 139 114 153 139 114 153 139 114 153 139 114 153 139 114 153 139 114 153 139 114 153 139 114 153 139 114 153 139 114 153 139 114 153 139 114 153 139 114 153 139 114 153 139 114 153 139 114 153 139 114 153 139 114 153 139 114 153 139 114 153 139 114 153 139 114 153 139 114 153 139 114 153 139 114 153 139 114 153 139 114 153 139 114 153 139 114 153 139 114 153 139 114 153 139 114 153 139 114 153 139 114 153 139 114 153 139 114 153 139 114 153 139 114 153 139 114 153 139 114 153 139 114 153 139 114 153 139 114 153 139 114 153 139 114 153 139 114 153 139 114 153 139 114 153 139 114 153 139 114 153 139 114 153 139 114 153 139 114 153 139 114 153 139 114 153 139 114 153 139 114 153 139 114 153 139 114 153 139 114 153 139 114 153 139 114 153 139 114 153 139 114 153 139 114 153 139 114 153 139 114 153 139 114 153 139 114 153 139 114 153 139 114 153 139 114 153 139 114 153 139 114 153 139 114 153 139 114 153 139 114 153 139 114 153 139 114 153 139 114 153 139 114 153 139 114 153 139 114 153 139 114 153 139 114 153 139 114 153 139 114 153 139 114 153 139 114 153 139 114 153 139 114 153 139 114 153 139 114 153 139 114 153 139 114 153 139 114 153 139 114 153 139 114 153 139 114 153 139 114 153 139 114 153 139 114 153 139 114 153 139 114 153 139 114 153 139 114 153 139 114 153 139 114 153 139 114 153 139 114 153 139 114 153 139 114 153 139 114 153 139 114 153 139 114 153 139 114 153 139 114 153 139 114 153 139 114 153 139 114 153 139 114 153 139 114 153 139 114 153 139 114 153 139 114 153 139 114 153 139 114 153 139 114 153 139 114 153 139 114 153 139 114 153 139 114 153 139 114 153 139 114 153 139 114 153 139 114 153 139 114 153 139 114 153 139 114 153 139 114 153 139 114 153 139 114 153 139 114 153 139 114 153 139 114 153 139 114 153 139 114 153 139 114 153 139 114 153 139 114 153 139 114 153 139 114 153 139 114 153 139 114 153 139 114 153 139 114 153 139 114 153 139 114
153 139 114 153 139 114 153 139 114 153 139 114 153 139 114 153 139 114 153 139 114 153 139 114 153 139 114 153 139 114 153 139 114 153 139 114 153 139 114 153 139 114 153 139 114 153 139 114 153 139 114 153 139 114 153 139 114 153 139 114 153 139 114 153 139 114 153 139 114 153 139 114 153 139 114 153 139 114 153 139 114 153 139 114 153 139 114 153 139 114 153 139 114 153 139 114 153 139 114 153 139 114 153 139 114 153 139 114 153 139 114 153 139 114 153 139 114 153 139 114 153 139 114 153 139 114 153 139 114 153 139 114 153 139 114 153 139 114 153 139 114 153 139 114 153 139 114 153 139 114 153 139 114 153 139 114 153 139 114 153 139 114 153 139 114 153 139 114 153 139 114 153 139 114 153 139 114 153 139 114 153 139 114 153 139 114 153 139 114 153 139 114 153 139 114 153 139 114 153 139 114 153 139 114 153 139 114 153 139 114 153 139 114 153 139 114 153 139 114 153 139 114 153 139 114 153 139 114 153 139 114 153 139 114 153 139 114 153 139 114 153 139 114 153 139 114 153 139 114 153 139 114 153 139 114 153 139 114 153 139 114 153 139 114 153 139 114 153 139 114 153 139 114 153 139 114 153 139 114 153 139 114 153 139 114 153 139 114 153 139 114 153 139 114 153 139 114 153 139 114 153 139 114 153 139 114 153 139 114 153 139 114 153 139 114 153 139 114 153 139 114 153 139 114 153 139 114 153 139 114 153 139 114 153 139 114 153 139 114 153 139 114 153 139 114 153 139 114 153 139 114 153 139 114 153 139 114 153 139 114 153 139 114 153 139 114 153 139 114 153 139 114 153 139 114 153 139 114 153 139 114 153 139 114 153 139 114 153 139 114 153 139 114 153 139 114 153 139 114 153 139 114 153 139 114 153 139 114 153 139 114 153 139 114 153 139 114 153 139 114 153 139 114 153 139 114 153 139 114 153 139 114 153 139 114 153 139 114 153 139 114 153 139 114 153 139 114 153 139 114 153 139 114 153 139 114 153 139 114 153 139 114 153 139 114 153 139 114 153 139 114 153 139 114 153 139 114 153 139 114 153 139 114 153 139 114 153 139 114 153 139 114 153 139 114 153 139 114 153 139 114 153 139 114 153 139 114 153 139 114 153 139 114 153 139 114 153 139 114 153 139 114 153 139 114 153 139 114 153 139 114 153 139 114 153 139 114 153 139 114 153 139 114 153 139 114 153 139 114 153 139 114 153 139 114 153 139 114 153 139 114 153 139 114 153 139 114 153 139 114 153 139 114 153 139 114 153 139 114 153 139 114 153 139 114 153 139 114 153 139 114 153 139 114 153 139 114 153 139 114 153 139 114 153 139 114 153 139 114 153 139 114 153 139 114 153 139 114 153 139 114 153 139 114 153 139 114 153 139 114 153 139 114 153 139 114 153 139 114 153 139 114 153 139 114 153 139 114 153 139 114 153 139 114 153 139 114 153 139 114 153 139 114 153 139 114 153 139 114 153 139 114 153 139 114 153 139 114 153 139 114 153 139 114 153 139 114 153 139 114 153 139 114 153 139 114 153 139 114 153 139 114 153 139 114 153 139 114 153 139 114 153 139 114 153 139 114 153 139 114
153 139 114 153 139 114 153 139 114 153 139 114 153 139 114 153 139 114 153 139 114 153 139 114 153 139 114 153 139 114 153 139 114 153 139 114 153 139 114 153 139 114 153 139 114 153 139 114 153 139 114 153 139 114 153 139 114 153 139 114 153 139 114 153 139 114 153 139 114 153 139 114 153 139 114 153 139 114 153 139 114 153 139 114 153 139 114 153 139 114 153 139 114 153 139 114 153 139 114 153 139 114 153 139 114 153 139 114 153 139 114 153 139 114 153 139 114 153 139 114 153 139 114 153 139 114 153 139 114 153 139 114 153 139 114 153 139 114 153 139 114 153 139 114 153 139 114 153 139 114 153 139 114 153 139 114 153 139 114 153 139 114 153 139 114 153 139 114 153 139 114 153 139 114 153 139 114 153 139 114 153 139 114 153 139 114 153 139 114 153 139 114 153 139 114 153 139 114 153 139 114 153 139 114 153 139 114 153 139 114 153 139 114 153 139 114 153 139 114 153 139 114 153 139 114 153 139 114 153 139 114 153 139 114 153 139 114 153 139 114 153 139 114 153 139 114 153 139 114 153 139 114 153 139 114 153 139 114 153 139 114 153 139 114 153 139 114 153 139 114 153 139 114 153 139 114 153 139 114 153 139 114 153 139 114 153 139 114 153 139 114 153 139 114 153 139 114 153 139 114 153 139 114 153 139 114 153 139 114 153 139 114 153 139 114 153 139 114 153 139 114 153 139 114 153 139 114 153 139 114 153 139 114 153 139 114 153 139 114 153 139 114 153 139 114 153 139 114 153 139 114 153 139 114 153 139 114 153 139 114 153 139 114 153 139 114 153 139 114 153 139 114 153 139 114 153 139 114 153 139 114 153 139 114 153 139 114 153 139 114 153 139 114 153 139 114 153 139 114 153 139 114 153 139 114 153 139 114 153 139 114 153 139 114 153 139 114 153 139 114 153 139 114 153 139 114 153 139 114 153 139 114 153 139 114 153 139 114 153 139 114 153 139 114 153 139 114 153 139 114 153 139 114 153 139 114 153 139 114 153 139 114 153 139 114 153 139 114 153 139 114 153 139 114 153 139 114 153 139 114 153 139 114 153 139 114 153 139 114 153 139 114 153 139 114 153 139 114 153 139 114 153 139 114 153 139 114 153 139 114 153 139 114 153 139 114 153 139 114 153 139 114 153 139 114 153 139 114 153 139 114 153 139 114 153 139 114 153 139 114 153 139 114 153 139 114 153 139 114 153 139 114 153 139 114 153 139 114 153 139 114 153 139 114 153 139 114 153 139 114 153 139 114 153 139 114 153 139 114 153 139 114 153 139 114 153 139 114 153 139 114 153 139 114 153 139 114 153 139 114 153 139 114 153 139 114 153 139 114 153 139 114 153 139 114 153 139 114 153 139 114 153 139 114 153 139 114 153 139 114 153 139 114 153 139 114 153 139 114 153 139 114 153 139 114 153 139 114 153 139 114 153 139 114 153 139 114 153 139 114 153 139 114 153 139 114 153 139 114 153 139 114 153 139 114 153 139 114 153 139 114 153 139 114 153 139 114 153 139 114 153 139 114 153 139 114 153 139 114 153 139 114 153 139 114 153 139 114 153 139 114 153 139 114 153 139 114 153 139 114
153 139 114 153 139 114 153 139 114 153 139 114 153 139 114 153 139 114 153 139 114 153 139 114 153 139 114 153 139 114 153 139 114 153 139 114 153 139 114 153 139 114 153 139 114 153 139 114 153 139 114 153 139 114 153 139 114 153 139 114 153 139 114 153 139 114 153 139 114 153 139 114 153 139 114 153 139 114 153 139 114 153 139 114 153 139 114 153 139 114 153 139 114 153 139 114 153 139 114 153 139 114 153 139 114 153 139 114 153 139 114 153 139 114 153 139 114 153 139 114 153 139 114 153 139 114 153 139 114 153 139 114 153 139 114 153 139 114 153 139 114 153 139 114 153 139 114 153 139 114 153 139 114 153 139 114 153 139 114 153 139 114 153 139 114 153 139 114 153 139 114 153 139 114 153 139 114 153 139 114 153 139 114 153 139 114 153 139 114 153 139 114 153 139 114 153 139 114 153 139 114 153 139 114 153 139 114 153 139 114 153 139 114 153 139 114 153 139 114 153 139 114 153 139 114 153 139 114 153 139 114 153 139 114 153 139 114 153 139 114 153 139 114 153 139 114 153 139 114 153 139 114 153 139 114 153 139 114 153 139 114 153 139 114 153 139 114 153 139 114 153 139 114 153 139 114 153 139 114 153 139 114 153 139 114 153 139 114 153 139 114 153 139 114 153 139 114 153 139 114 153 139 114 153 139 114 153 139 114 153 139 114 153 139 114 153 139 114 153 139 114 153 139 114 153 139 114 153 139 114 153 139 114 153 139 114 153 139 114 153 139 114 153 139 114 153 139 114 153 139 114 153 139 114 153 139 114 153 139 114 153 139 114 153 139 114 153 139 114 153 139 114 153 139 114 153 139 114 153 139 114 153 139 114 153 139 114 153 139 114 153 139 114 153 139 114 153 139 114 153 139 114 153 139 114 153 139 114 153 139 114 153 139 114 153 139 114 153 139 114 153 139 114 153 139 114 153 139 114 153 139 114 153 139 114 153 139 114 153 139 114 153 139 114 153 139 114 153 139 114 153 139 114 153 139 114 153 139 114 153 139 114 153 139 114 153 139 114 153 139 114 153 139 114 153 139 114 153 139 114 153 139 114 153 139 114 153 139 114 153 139 114 153 139 114 153 139 114 153 139 114 153 139 114 153 139 114 153 139 114 153 139 114 153 139 114 153 139 114 153 139 114 153 139 114 153 139 114 153 139 114 153 139 114 153 139 114 153 139 114 153 139 114 153 139 114 153 139 114 153 139 114 153 139 114 153 139 114 153 139 114 153 139 114 153 139 114 153 139 114 153 139 114 153 139 114 153 139 114 153 139 114 153 139 114 153 139 114 153 139 114 153 139 114 153 139 114 153 139 114 153 139 114 153 139 114 153 139 114 153 139 114 153 139 114 153 139 114 153 139 114 153 139 114 153 139 114 153 139 114 153 139 114 153 139 114 153 139 114 153 139 114 153 139 114 153 139 114 153 139 114 153 139 114 153 139 114 153 139 114 153 139 114 153 139 114 153 139 114 153 139 114 153 139 114 153 139 114 153 139 114 153 139 114 153 139 114 153 139 114 153 139 114 153 139 114 153 139 114 153 139 114 153 139 114 153 139 114 153 139 114 153 139 114 153 139 114 153 139 114
153 139 114 153 139 114 153 139 114 153 139 114 153 139 114 153 139 114 153 139 114 153 139 114 153 139 114 153 139 114 153 139 114 153 139 114 153 139 114 153 139 114 153 139 114 153 139 114 153 139 114 153 139 114 153 139 114 153 139 114 153 139 114 153 139 114 153 139 114 153 139 114 153 139 114 153 139 114 153 139 114 153 139 114 153 139 114 153 139 114 153 139 114 153 139 114 153 139 114 153 139 114 153 139 114 153 139 114 153 139 114 153 139 114 153 139 114 153 139 114 153 139 114 153 139 114 153 139 114 153 139 114 153 139 114 153 139 114 153 139 114 153 139 114 153 139 114 153 139 114 153 139 114 153 139 114 153 139 114 153 139 114 153 139 114 153 139 114 153 139 114 153 139 114 153 139 114 153 139 114 153 139 114 153 139 114 153 139 114 153 139 114 153 139 114 153 139 114 153 139 114 153 139 114 153 139 114 153 139 114 153 139 114 153 139 114 153 139 114 153 139 114 153 139 114 153 139 114 153 139 114 153 139 114 153 139 114 153 139 114 153 139 114 153 139 114 153 139 114 153 139 114 153 139 114 153 139 114 153 139 114 153 139 114 153 139 114 153 139 114 153 139 114 153 139 114 153 139 114 153 139 114 153 139 114 153 139 114 153 139 114 153 139 114 153 139 114 153 139 114 153 139 114 153 139 114 153 139 114 153 139 114 153 139 114 153 139 114 153 139 114 153 139 114 153 139 114 153 139 114 153 139 114 153 139 114 153 139 114 153 139 114 153 139 114 153 139 114 153 139 114 153 139 114 153 139 114 153 139 114 153 139 114 153 139 114 153 139 114 153 139 114 153 139 114 153 139 114 153 139 114 153 139 114 153 139 114 153 139 114 153 139 114 153 139 114 153 139 114 153 139 114 153 139 114 153 139 114 153 139 114 153 139 114 153 139 114 153 139 114 153 139 114 153 139 114 153 139 114 153 139 114 153 139 114 153 139 114 153 139 114 153 139 114 153 139 114 153 139 114 153 139 114 153 139 114 153 139 114 153 139 114 153 139 114 153 139 114 153 139 114 153 139 114 153 139 114 153 139 114 153 139 114 153 139 114 153 139 114 153 139 114 153 139 114 153 139 114 153 139 114 153 139 114 153 139 114 153 139 114 153 139 114 153 139 114 153 139 114 153 139 114 153 139 114 153 139 114 153 139 114 153 139 114 153 139 114 153 139 114 153 139 114 153 139 114 153 139 114 153 139 114 153 139 114 153 139 114 153 139 114 153 139 114 153 139 114 153 139 114 153 139 114 153 139 114 153 139 114 153 139 114 153 139 114 153 139 114 153 139 114 153 139 114 153 139 114 153 139 114 153 139 114 153 139 114 153 139 114 153 139 114 153 139 114 153 139 114 153 139 114 153 139 114 153 139 114 153 139 114 153 139 114 153 139 114 153 139 114 153 139 114 153 139 114 153 139 114 153 139 114 153 139 114 153 139 114 153 139 114 153 139 114 153 139 114 153 139 114 153 139 114 153 139 114 153 139 114 153 139 114 153 139 114 153 139 114 153 139 114 153 139 114 153 139 114 153 139 114 153 139 114 153 139 114 153 139 114 153 139 114 153 139 114 153 139 114 153 139 114
153 139 114 153 139 114 153 139 114 153 139 114 153 139 114 153 139 114 153 139 114 153 139 114 153 139 114 153 139 114 153 139 114 153 139 114 153 139 114 153 139 114 153 139 114 153 139 114 153 139 114 153 139 114 153 139 114 153 139 114 153 139 114 153 139 114 153 139 114 153 139 114 153 139 114 153 139 114 153 139 114 153 139 114 153 139 114 153 139 114 153 139 114 153 139 114 153 139 114 153 139 114 153 139 114 153 139 114 153 139 114 153 139 114 153 139 114 153 139 114 153 139 114 153 139 114 153 139 114 153 139 114 153 139 114 153 139 114 153 139 114 153 139 114 153 139 114 153 139 114 153 139 114 153 139 114 153 139 114 153 139 114 153 139 114 153 139 114 153 139 114 153 139 114 153 139 114 153 139 114 153 139 114 153 139 114 153 139 114 153 139 114 153 139 114 153 139 114 153 139 114 153 139 114 153 139 114 153 139 114 153 139 114 153 139 114 153 139 114 153 139 114 153 139 114 153 139 114 153 139 114 153 139 114 153 139 114 153 139 114 153 139 114 153 139 114 153 139 114 153 139 114 153 139 114 153 139 114 153 139 114 153 139 114 153 139 114 153 139 114 153 139 114 153 139 114 153 139 114 153 139 114 153 139 114 153 139 114 153 139 114 153 139 114 153 139 114 153 139 114 153 139 114 153 139 114 153 139 114 153 139 114 153 139 114 153 139 114 153 139 114 153 139 114 153 139 114 153 139 114 153 139 114 153 139 114 153 139 114 153 139 114 153 139 114 153 139 114 153 139 114 153 139 114 153 139 114 153 139 114 153 139 114 153 139 114 153 139 114 153 139 114 153 139 114 153 139 114 153 139 114 153 139 114 153 139 114 153 139 114 153 139 114 153 139 114 153 139 114 153 139 114 153 139 114 153 139 114 153 139 114 153 139 114 153 139 114 153 139 114 153 139 114 153 139 114 153 139 114 153 139 114 153 139 114 153 139 114 153 139 114 153 139 114 153 139 114 153 139 114 153 139 114 153 139 114 153 139 114 153 139 114 153 139 114 153 139 114 153 139 114 153 139 114 153 139 114 153 139 114 153 139 114 153 139 114 153 139 114 153 139 114 153 139 114 153 139 114 153 139 114 153 139 114 153 139 114 153 139 114 153 139 114 153 139 114 153 139 114 153 139 114 153 139 114 153 139 114 153 139 114 153 139 114 153 139 114 153 139 114 153 139 114 153 139 114 153 139 114 153 139 114 153 139 114 153 139 114 153 139 114 153 139 114 153 139 114 153 139 114 153 139 114 153 139 114 153 139 114 153 139 114 153 139 114 153 139 114 153 139 114 153 139 114 153 139 114 153 139 114 153 139 114 153 139 114 153 139 114 153 139 114 153 139 114 153 139 114 153 139 114 153 139 114 153 139 114 153 139 114 153 139 114 153 139 114 153 139 114 153 139 114 153 139 114 153 139 114 153 139 114 153 139 114 153 139 114 153 139 114 153 139 114 153 139 114 153 139 114 153 139 114 153 139 114 153 139 114 153 139 114 153 139 114 153 139 114 153 139 114 153 139 114 153 139 114 153 139 114 153 139 114 153 139 114 153 139 114 153 139 114 153 139 114 153 139 114 153 139 114
3 2 4 3 2 4 3 2 4 3 2 4 3 2 4 3 2 4 3 2 4 3 2 4 3 2 4 3 2 4 3 2 4 3 2 4 3 2 4 3 2 4 3 2 4 3 2 4 3 2 4 3 2 4 3 2 4 3 2 4 3 2 4 3 2 4 3 2 4 3 2 4 3 2 4 3 2 4 3 2 4 3 2 4 3 2 4 3 2 4 3 2 4 3 2 4 3 2 4 3 2 4 3 2 4 3 2 4 3 2 4 3 2 4 3 2 4 3 2 4 3 2 4 3 2 4 3 2 4 3 2 4 3 2 4 3 2 4 3 2 4 3 2 4 3 2 4 3 2 4 3 2 4 3 2 4 3 2 4 3 2 4 3 2 4 3 2 4 3 2 4 3 2 4 3 2 4 3 2 4 3 2 4 3 2 4 3 2 4 3 2 4 3 2 4 3 2 4 3 2 4 3 2 4 3 2 4 3 2 4 3 2 4 3 2 4 3 2 4 3 2 4 3 2 4 3 2 4 3 2 4 3 2 4 3 2 4 3 2 4 3 2 4 3 2 4 3 2 4 3 2 4 3 2 4 3 2 4 3 2 4 3 2 4 3 2 4 3 2 4 3 2 4 3 2 4 3 2 4 3 2 4 3 2 4 3 2 4 3 2 4 3 2 4 3 2 4 3 2 4 3 2 4 3 2 4 3 2 4 3 2 4 3 2 4 3 2 4 3 2 4 3 2 4 3 2 4 3 2 4 3 2 4 3 2 4 3 2 4 3 2 4 3 2 4 3 2 4 3 2 4 3 2 4 3 2 4 3 2 4 3 2 4 3 2 4 3 2 4 3 2 4 3 2 4 3 2 4 3 2 4 3 2 4 3 2 4 3 2 4 3 2 4 3 2 4 3 2 4 3 2 4 3 2 4 3 2 4 3 2 4 3 2 4 3 2 4 3 2 4 3 2 4 3 2 4 3 2 4 3 2 4 3 2 4 3 2 4 3 2 4 3 2 4 3 2 4 3 2 4 3 2 4 3 2 4 3 2 4 3 2 4 3 2 4 3 2 4 3 2 4 3 2 4 3 2 4 3 2 4 3 2 4 3 2 4 3 2 4 3 2 4 3 2 4 3 2 4 3 2 4 3 2 4 3 2 4 3 2 4 3 2 4 3 2 4 3 2 4 3 2 4 3 2 4 3 2 4 3 2 4 3 2 4 3 2 4 3 2 4 3 2 4 3 2 4 3 2 4 3 2 4 3 2 4 3 2 4 3 2 4 3 2 4 3 2 4 3 2 4 3 2 4 3 2 4 3 2 4 3 2 4 3 2 4 3 2 4 3 2 4 3 2 4 3 2 4 3 2 4 3 2 4 3 2 4 3 2 4 3 2 4 3 2 4 3 2 4 3 2 4 3 2 4 3 2 4 3 2 4 3 2 4 3 2 4 3 2 4 3 2 4 3 2 4 3 2 4 3 2 4 3 2 4 3 2 4 3 2 4 3 2 4 3 2 4 3 2 4 3 2 4 3 2 4 3 2 4 3 2 4 3 2 4 3 2 4 3 2 4 3 2 4 3 2 4 3 2 4 3 2 4 3 2 4 3 2 4 3 2 4 3 2 4 3 2 4 3 2 4
3 2 4 3 2 4 3 2 4 3 2 4 3 2 4 3 2 4 3 2 4 3 2 4 3 2 4 3 2 4 3 2 4 3 2 4 3 2 4 3 2 4 3 2 4 3 2 4 3 2 4 3 2 4 3 2 4 3 2 4 3 2 4 3 2 4 3 2 4 3 2 4 3 2 4 3 2 4 3 2 4 3 2 4 3 2 4 3 2 4 3 2 4 3 2 4 3 2 4 3 2 4 3 2 4 3 2 4 3 2 4 3 2 4 3 2 4 3 2 4 3 2 4 3 2 4 3 2 4 3 2 4 3 2 4 3 2 4 3 2 4 3 2 4 3 2 4 3 2 4 3 2 4 3 2 4 3 2 4 3 2 4 3 2 4 3 2 4 3 2 4 3 2 4 3 2 4 3 2 4 3 2 4 3 2 4 3 2 4 3 2 4 3 2 4 3 2 4 3 2 4 3 2 4 3 2 4 3 2 4 3 2 4 3 2 4 3 2 4 3 2 4 3 2 4 3 2 4 3 2 4 3 2 4 3 2 4 3 2 4 3 2 4 3 2 4 3 2 4 3 2 4 3 2 4 3 2 4 3 2 4 3 2 4 3 2 4 3 2 4 3 2 4 3 2 4 3 2 4 3 2 4 3 2 4 3 2 4 3 2 4 3 2 4 3 2 4 3 2 4 3 2 4 3 2 4 3 2 4 3 2 4 3 2 4 3 2 4 3 2 4 3 2 4 3 2 4 3 2 4 3 2 4 3 2 4 3 2 4 3 2 4 3 2 4 3 2 4 3 2 4 3 2 4 3 2 4 3 2 4 3 2 4 3 2 4 3 2 4 3 2 4 3 2 4 3 2 4 3 2 4 3 2 4 3 2 4 3 2 4 3 2 4 3 2 4 3 2 4 3 2 4 3 2 4 3 2 4 3 2 4 3 2 4 3 2 4 3 2 4 3 2 4 3 2 4 3 2 4 3 2 4 3 2 4 3 2 4 3 2 4 3 2 4 3 2 4 3 2 4 3 2 4 3 2 4 3 2 4 3 2 4 3 2 4 3 2 4 3 2 4 3 2 4 3 2 4 3 2 4 3 2 4 3 2 4 3 2 4 3 2 4 3 2 4 3 2 4 3 2 4 3 2 4 3 2 4 3 2 4 3 2 4 3 2 4 3 2 4 3 2 4 3 2 4 3 2 4 3 2 4 3 2 4 3 2 4 3 2 4 3 2 4 3 2 4 3 2 4 3 2 4 3 2 4 3 2 4 3 2 4 3 2 4 3 2 4 3 2 4 3 2 4 3 2 4 3 2 4 3 2 4 3 2 4 3 2 4 3 2 4 3 2 4 3 2 4 3 2 4 3 2 4 3 2 4 3 2 4 3 2 4 3 2 4 3 2 4 3 2 4 3 2 4 3 2 4 3 2 4 3 2 4 3 2 4 3 2 4 3 2 4 3 2 4 3 2 4 3 2 4 3 2 4 3 2 4 3 2 4 3 2 4 3 2 4 3 2 4 3 2 4 3 2 4 3 2 4 3 2 4 3 2 4 3 2 4 3 2 4 3 2 4 3 2 4 3 2 4 3 2 4 3 2 4 3 2 4 3 2 4 3 2 4 3 2 4 3 2 4
3 2 4 3 2 4 3 2 4 3 2 4 3 2 4 3 2 4 3 2 4 3 2 4 3 2 4 3 2 4 3 2 4 3 2 4 3 2 4 3 2 4 3 2 4 3 2 4 3 2 4 3 2 4 3 2 4 3 2 4 3 2 4 3 2 4 3 2 4 3 2 4 3 2 4 3 2 4 3 2 4 3 2 4 3 2 4 3 2 4 3 2 4 3 2 4 3 2 4 3 2 4 3 2 4 3 2 4 3 2 4 3 2 4 3 2 4 3 2 4 3 2 4 3 2 4 3 2 4 3 2 4 3 2 4 3 2 4 3 2 4 3 2 4 3 2 4 3 2 4 3 2 4 3 2 4 3 2 4 3 2 4 3 2 4 3 2 4 3 2 4 3 2 4 3 2 4 3 2 4 3 2 4 3 2 4 3 2 4 3 2 4 3 2 4 3 2 4 3 2 4 3 2 4 3 2 4 3 2 4 3 2 4 3 2 4 3 2 4 3 2 4 3 2 4 3 2 4 3 2 4 3 2 4 3 2 4 3 2 4 3 2 4 3 2 4 3 2 4 3 2 4 3 2 4 3 2 4 3 2 4 3 2 4 3 2 4 3 2 4 3 2 4 3 2 4 3 2 4 3 2 4 3 2 4 3 2 4 3 2 4 3 2 4 3 2 4 3 2 4 3 2 4 3 2 4 3 2 4 3 2 4 3 2 4 3 2 4 3 2 4 3 2 4 3 2 4 3 2 4 3 2 4 3 2 4 3 2 4 3 2 4 3 2 4 3 2 4 3 2 4 3 2 4 3 2 4 3 2 4 3 2 4 3 2 4 3 2 4 3 2 4 3 2 4 3 2 4 3 2 4 3 2 4 3 2 4 3 2 4 3 2 4 3 2 4 3 2 4 3 2 4 3 2 4 3 2 4 3 2 4 3 2 4 3 2 4 3 2 4 3 2 4 3 2 4 3 2 4 3 2 4 3 2 4 3 2 4 3 2 4 3 2 4 3 2 4 3 2 4 3 2 4 3 2 4 3 2 4 3 2 4 3 2 4 3 2 4 3 2 4 3 2 4 3 2 4 3 2 4 3 2 4 3 2 4 3 2 4 3 2 4 3 2 4 3 2 4 3 2 4 3 2 4 3 2 4 3 2 4 3 2 4 3 2 4 3 2 4 3 2 4 3 2 4 3 2 4 3 2 4 3 2 4 3 2 4 3 2 4 3 2 4 3 2 4 3 2 4 3 2 4 3 2 4 3 2 4 3 2 4 3 2 4 3 2 4 3 2 4 3 2 4 3 2 4 3 2 4 3 2 4 3 2 4 3 2 4 3 2 4 3 2 4 3 2 4 3 2 4 3 2 4 3 2 4 3 2 4 3 2 4 3 2 4 3 2 4 3 2 4 3 2 4 3 2 4 3 2 4 3 2 4 3 2 4 3 2 4 3 2 4 3 2 4 3 2 4 3 2 4 3 2 4 3 2 4 3 2 4 3 2 4 3 2 4 3 2 4 3 2 4 3 2 4 3 2 4 3 2 4 3 2 4 3 2 4 3 2 4 3 2 4 3 2 4 3 2 4 3 2 4 3 2 4 3 2 4 3 2 4 3 2 4 3 2 4 3 2 4
3 2 4 3 2 4 3 2 4 3 2 4 3 2 4 3 2 4 3 2 4 3 2 4 3 2 4 3 2 4 3 2 4 3 2 4 3 2 4 3 2 4 3 2 4 3 2 4 3 2 4 3 2 4 3 2 4 3 2 4 3 2 4 3 2 4 3 2 4 3 2 4 3 2 4 3 2 4 3 2 4 3 2 4 3 2 4 3 2 4 3 2 4 3 2 4 3 2 4 3 2 4 3 2 4 3 2 4 3 2 4 3 2 4 3 2 4 3 2 4 3 2 4 3 2 4 3 2 4 3 2 4 3 2 4 3 2 4 3 2 4 3 2 4 3 2 4 3 2 4 3 2 4 3 2 4 3 2 4 3 2 4 3 2 4 3 2 4 3 2 4 3 2 4 3 2 4 3 2 4 3 2 4 3 2 4 3 2 4 3 2 4 3 2 4 3 2 4 3 2 4 3 2 4 3 2 4 3 2 4 3 2 4 3 2 4 3 2 4 3 2 4 3 2 4 3 2 4 3 2 4 3 2 4 3 2 4 3 2 4 3 2 4 3 2 4 3 2 4 3 2 4 3 2 4 3 2 4 3 2 4 3 2 4 3 2 4 3 2 4 3 2 4 3 2 4 3 2 4 3 2 4 3 2 4 3 2 4 3 2 4 3 2 4 3 2 4 3 2 4 3 2 4 3 2 4 3 2 4 3 2 4 3 2 4 3 2 4 3 2 4 3 2 4 3 2 4 3 2 4 3 2 4 3 2 4 3 2 4 3 2 4 3 2 4 3 2 4 3 2 4 3 2 4 3 2 4 3 2 4 3 2 4 3 2 4 3 2 4 3 2 4 3 2 4 3 2 4 3 2 4 3 2 4 3 2 4 3 2 4 3 2 4 3 2 4 3 2 4 3 2 4 3 2 4 3 2 4 3 2 4 3 2 4 3 2 4 3 2 4 3 2 4 3 2 4 3 2 4 3 2 4 3 2 4 3 2 4 3 2 4 3 2 4 3 2 4 3 2 4 3 2 4 3 2 4 3 2 4 3 2 4 3 2 4 3 2 4 3 2 4 3 2 4 3 2 4 3 2 4 3 2 4 3 2 4 3 2 4 3 2 4 3 2 4 3 2 4 3 2 4 3 2 4 3 2 4 3 2 4 3 2 4 3 2 4 3 2 4 3 2 4 3 2 4 3 2 4 3 2 4 3 2 4 3 2 4 3 2 4 3 2 4 3 2 4 3 2 4 3 2 4 3 2 4 3 2 4 3 2 4 3 2 4 3 2 4 3 2 4 3 2 4 3 2 4 3 2 4 3 2 4 3 2 4 3 2 4 3 2 4 3 2 4 3 2 4 3 2 4 3 2 4 3 2 4 3 2 4 3 2 4 3 2 4 3 2 4 3 2 4 3 2 4 3 2 4 3 2 4 3 2 4 3 2 4 3 2 4 3 2 4 3 2 4 3 2 4 3 2 4 3 2 4 3 2 4 3 2 4 3 2 4 3 2 4 3 2 4 3 2 4 3 2 4 3 2 4 3 2 4 3 2 4 3 2 4 3 2 4 3 2 4 3 2 4 3 2 4 3 2 4 3 2 4 3 2 4 3 2 4 3 2 4 3 2 4 3 2 4
3 2 4 3 2 4 3 2 4 3 2 4 3 2 4 3 2 4 3 2 4 3 2 4 3 2 4 3 2 4 3 2 4 3 2 4 3 2 4 3 2 4 3 2 4 3 2 4 3 2 4 3 2 4 3 2 4 3 2 4 3 2 4 3 2 4 3 2 4 3 2 4 3 2 4 3 2 4 3 2 4 3 2 4 3 2 4 3 2 4 3 2 4 3 2 4 3 2 4 3 2 4 3 2 4 3 2 4 3 2 4 3 2 4 3 2 4 3 2 4 3 2 4 3 2 4 3 2 4 3 2 4 3 2 4 3 2 4 3 2 4 3 2 4 3 2 4 3 2 4 3 2 4 3 2 4 3 2 4 3 2 4 3 2 4 3 2 4 3 2 4 3 2 4 3 2 4 3 2 4 3 2 4 3 2 4 3 2 4 3 2 4 3 2 4 3 2 4 3 2 4 3 2 4 3 2 4 3 2 4 3 2 4 3 2 4 3 2 4 3 2 4 3 2 4 3 2 4 3 2 4 3 2 4 3 2 4 3 2 4 3 2 4 3 2 4 3 2 4 3 2 4 3 2 4 3 2 4 3 2 4 3 2 4 3 2 4 3 2 4 3 2 4 3 2 4 3 2 4 3 2 4 3 2 4 3 2 4 3 2 4 3 2 4 3 2 4 3 2 4 3 2 4 3 2 4 3 2 4 3 2 4 3 2 4 3 2 4 3 2 4 3 2 4 3 2 4 3 2 4 3 2 4 3 2 4 3 2 4 3 2 4 3 2 4 3 2 4 3 2 4 3 2 4 3 2 4 3 2 4 3 2 4 3 2 4 3 2 4 3 2 4 3 2 4 3 2 4 3 2 4 3 2 4 3 2 4 3 2 4 3 2 4 3 2 4 3 2 4 3 2 4 3 2 4 3 2 4 3 2 4 3 2 4 3 2 4 3 2 4 3 2 4 3 2 4 3 2 4 3 2 4 3 2 4 3 2 4 3 2 4 3 2 4 3 2 4 3 2 4 3 2 4 3 2 4 3 2 4 3 2 4 3 2 4 3 2 4 3 2 4 3 2 4 3 2 4 3 2 4 3 2 4 3 2 4 3 2 4 3 2 4 3 2 4 3 2 4 3 2 4 3 2 4 3 2 4 3 2 4 3 2 4 3 2 4 3 2 4 3 2 4 3 2 4 3 2 4 3 2 4 3 2 4 3 2 4 3 2 4 3 2 4 3 2 4 3 2 4 3 2 4 3 2 4 3 2 4 3 2 4 3 2 4 3 2 4 3 2 4 3 2 4 3 2 4 3 2 4 3 2 4 3 2 4 3 2 4 3 2 4 3 2 4 3 2 4 3 2 4 3 2 4 3 2 4 3 2 4 3 2 4 3 2 4 3 2 4 3 2 4 3 2 4 3 2 4 3 2 4 3 2 4 3 2 4 3 2 4 3 2 4 3 2 4 3 2 4 3 2 4 3 2 4 3 2 4 3 2 4 3 2 4 3 2 4 3 2 4 3 2 4 3 2 4 3 2 4 3 2 4 3 2 4 3 2 4 3 2 4 3 2 4 3 2 4 3 2 4 3 2 4 3 2 4 3 2 4 3 2 4 3 2 4 3 2 4 3 2 4
3 2 4 3 2 4 3 2 4 3 2 4 3 2 4 3 2 4 3 2 4 3 2 4 3 2 4 3 2 4 3 2 4 3 2 4 3 2 4 3 2 4 3 2 4 3 2 4 3 2 4 3 2 4 3 2 4 3 2 4 3 2 4 3 2 4 3 2 4 3 2 4 3 2 4 3 2 4 3 2 4 3 2 4 3 2 4 3 2 4 3 2 4 3 2 4 3 2 4 3 2 4 3 2 4 3 2 4 3 2 4 3 2 4 3 2 4 3 2 4 3 2 4 3 2 4 3 2 4 3 2 4 3 2 4 3 2 4 3 2 4 3 2 4 3 2 4 3 2 4 3 2 4 3 2 4 3 2 4 3 2 4 3 2 4 3 2 4 3 2 4 3 2 4 3 2 4 3 2 4 3 2 4 3 2 4 3 2 4 3 2 4 3 2 4 3 2 4 3 2 4 3 2 4 3 2 4 3 2 4 3 2 4 3 2 4 3 2 4 3 2 4 3 2 4 3 2 4 3 2 4 3 2 4 3 2 4 3 2 4 3 2 4 3 2 4 3 2 4 3 2 4 3 2 4 3 2 4 3 2 4 3 2 4 3 2 4 3 2 4 3 2 4 3 2 4 3 2 4 3 2 4 3 2 4 3 2 4 3 2 4 3 2 4 3 2 4 3 2 4 3 2 4 3 2 4 3 2 4 3 2 4 3 2 4 3 2 4 3 2 4 3 2 4 3 2 4 3 2 4 3 2 4 3 2 4 3 2 4 3 2 4 3 2 4 3 2 4 3 2 4 3 2 4 3 2 4 3 2 4 3 2 4 3 2 4 3 2 4 3 2 4 3 2 4 3 2 4 3 2 4 3 2 4 3 2 4 3 2 4 3 2 4 3 2 4 3 2 4 3 2 4 3 2 4 3 2 4 3 2 4 3 2 4 3 2 4 3 2 4 3 2 4 3 2 4 3 2 4 3 2 4 3 2 4 3 2 4 3 2 4 3 2 4 3 2 4 3 2 4 3 2 4 3 2 4 3 2 4 3 2 4 3 2 4 3 2 4 3 2 4 3 2 4 3 2 4 3 2 4 3 2 4 3 2 4 3 2 4 3 2 4 3 2 4 3 2 4 3 2 4 3 2 4 3 2 4 3 2 4 3 2 4 3 2 4 3 2 4 3 2 4 3 2 4 3 2 4 3 2 4 3 2 4 3 2 4 3 2 4 3 2 4 3 2 4 3 2 4 3 2 4 3 2 4 3 2 4 3 2 4 3 2 4 3 2 4 3 2 4 3 2 4 3 2 4 3 2 4 3 2 4 3 2 4 3 2 4 3 2 4 3 2 4 3 2 4 3 2 4 3 2 4 3 2 4 3 2 4 3 2 4 3 2 4 3 2 4 3 2 4 3 2 4 3 2 4 3 2 4 3 2 4 3 2 4 3 2 4 3 2 4 3 2 4 3 2 4 3 2 4 3 2 4 3 2 4 3 2 4 3 2 4 3 2 4 3 2 4 3 2 4 3 2 4 3 2 4 3 2 4 3 2 4 3 2 4 3 2 4 3 2 4 3 2 4 3 2 4 3 2 4 3 2 4 3 2 4 3 2 4 3 2 4 3 2 4 3 2 4
3 2 4 3 2 4 3 2 4 3 2 4 3 2 4 3 2 4 3 2 4 3 2 4 3 2 4 3 2 4 3 2 4 3 2 4 3 2 4 3 2 4 3 2 4 3 2 4 3 2 4 3 2 4 3 2 4 3 2 4 3 2 4 3 2 4 3 2 4 3 2 4 3 2 4 3 2 4 3 2 4 3 2 4 3 2 4 3 2 4 3 2 4 3 2 4 3 2 4 3 2 4 3 2 4 3 2 4 3 2 4 3 2 4 3 2 4 3 2 4 3 2 4 3 2 4 3 2 4 3 2 4 3 2 4 3 2 4 3 2 4 3 2 4 3 2 4 3 2 4 3 2 4 3 2 4 3 2 4 3 2 4 3 2 4 3 2 4 3 2 4 3 2 4 3 2 4 3 2 4 3 2 4 3 2 4 3 2 4 3 2 4 3 2 4 3 2 4 3 2 4 3 2 4 3 2 4 3 2 4 3 2 4 3 2 4 3 2 4 3 2 4 3 2 4 3 2 4 3 2 4 3 2 4 3 2 4 3 2 4 3 2 4 3 2 4 3 2 4 3 2 4 3 2 4 3 2 4 3 2 4 3 2 4 3 2 4 3 2 4 3 2 4 3 2 4 3 2 4 3 2 4 3 2 4 3 2 4 3 2 4 3 2 4 3 2 4 3 2 4 3 2 4 3 2 4 3 2 4 3 2 4 3 2 4 3 2 4 3 2 4 3 2 4 3 2 4 3 2 4 3 2 4 3 2 4 3 2 4 3 2 4 3 2 4 3 2 4 3 2 4 3 2 4 3 2 4 3 2 4 3 2 4 3 2 4 3 2 4 3 2 4 3 2 4 3 2 4 3 2 4 3 2 4 3 2 4 3 2 4 3 2 4 3 2 4 3 2 4 3 2 4 3 2 4 3 2 4 3 2 4 3 2 4 3 2 4 3 2 4 3 2 4 3 2 4 3 2 4 3 2 4 3 2 4 3 2 4 3 2 4 3 2 4 3 2 4 3 2 4 3 2 4 3 2 4 3 2 4 3 2 4 3 2 4 3 2 4 3 2 4 3 2 4 3 2 4 3 2 4 3 2 4 3 2 4 3 2 4 3 2 4 3 2 4 3 2 4 3 2 4 3 2 4 3 2 4 3 2 4 3 2 4 3 2 4 3 2 4 3 2 4 3 2 4 3 2 4 3 2 4 3 2 4 3 2 4 3 2 4 3 2 4 3 2 4 3 2 4 3 2 4 3 2 4 3 2 4 3 2 4 3 2 4 3 2 4 3 2 4 3 2 4 3 2 4 3 2 4 3 2 4 3 2 4 3 2 4 3 2 4 3 2 4 3 2 4 3 2 4 3 2 4 3 2 4 3 2 4 3 2 4 3 2 4 3 2 4 3 2 4 3 2 4 3 2 4 3 2 4 3 2 4 3 2 4 3 2 4 3 2 4 3 2 4 3 2 4 3 2 4 3 2 4 3 2 4 3 2 4 3 2 4 3 2 4 3 2 4 3 2 4 3 2 4 3 2 4 3 2 4 3 2 4 3 2 4 3 2 4 3 2 4 3 2 4 3 2 4 3 2 4 3 2 4 3 2 4 3 2 4 3 2 4 3 2 4 3 2 4
3 2 4 3 2 4 3 2 4 3 2 4 3 2 4 3 2 4 3 2 4 3 2 4 3 2 4 3 2 4 3 2 4 3 2 4 3 2 4 3 2 4 3 2 4 3 2 4 3 2 4 3 2 4 3 2 4 3 2 4 3 2 4 3 2 4 3 2 4 3 2 4 3 2 4 3 2 4 3 2 4 3 2 4 3 2 4 3 2 4 3 2 4 3 2 4 3 2 4 3 2 4 3 2 4 3 2 4 3 2 4 3 2 4 3 2 4 3 2 4 3 2 4 3 2 4 3 2 4 3 2 4 3 2 4 3 2 4 3 2 4 3 2 4 3 2 4 3 2 4 3 2 4 3 2 4 3 2 4 3 2 4 3 2 4 3 2 4 3 2 4 3 2 4 3 2 4 3 2 4 3 2 4 3 2 4 3 2 4 3 2 4 3 2 4 3 2 4 3 2 4 3 2 4 3 2 4 3 2 4 3 2 4 3 2 4 3 2 4 3 2 4 3 2 4 3 2 4 3 2 4 3 2 4 3 2 4 3 2 4 3 2 4 3 2 4 3 2 4 3 2 4 3 2 4 3 2 4 3 2 4 3 2 4 3 2 4 3 2 4 3 2 4 3 2 4 3 2 4 3 2 4 3 2 4 3 2 4 3 2 4 3 2 4 3 2 4 3 2 4 3 2 4 3 2 4 3 2 4 3 2 4 3 2 4 3 2 4 3 2 4 3 2 4 3 2 4 3 2 4 3 2 4 3 2 4 3 2 4 3 2 4 3 2 4 3 2 4 3 2 4 3 2 4 3 2 4 3 2 4 3 2 4 3 2 4 3 2 4 3 2 4 3 2 4 3 2 4 3 2 4 3 2 4 3 2 4 3 2 4 3 2 4 3 2 4 3 2 4 3 2 4 3 2 4 3 2 4 3 2 4 3 2 4 3 2 4 3 2 4 3 2 4 3 2 4 3 2 4 3 2 4 3 2 4 3 2 4 3 2 4 3 2 4 3 2 4 3 2 4 3 2 4 3 2 4 3 2 4 3 2 4 3 2 4 3 2 4 3 2 4 3 2 4 3 2 4 3 2 4 3 2 4 3 2 4 3 2 4 3 2 4 3 2 4 3 2 4 3 2 4 3 2 4 3 2 4 3 2 4 3 2 4 3 2 4 3 2 4 3 2 4 3 2 4 3 2 4 3 2 4 3 2 4 3 2 4 3 2 4 3 2 4 3 2 4 3 2 4 3 2 4 3 2 4 3 2 4 3 2 4 3 2 4 3 2 4 3 2 4 3 2 4 3 2 4 3 2 4 3 2 4 3 2 4 3 2 4 3 2 4 3 2 4 3 2 4 3 2 4 3 2 4 3 2 4 3 2 4 3 2 4 3 2 4 3 2 4 3 2 4 3 2 4 3 2 4 3 2 4 3 2 4 3 2 4 3 2 4 3 2 4 3 2 4 3 2 4 3 2 4 3 2 4 3 2 4 3 2 4 3 2 4 3 2 4 3 2 4 3 2 4 3 2 4 3 2 4 3 2 4 3 2 4 3 2 4 3 2 4 3 2 4 3 2 4 3 2 4 3 2 4 3 2 4 3 2 4 3 2 4 3 2 4 3 2 4 3 2 4
3 2 4 3 2 4 3 2 4 3 2 4 3 2 4 3 2 4 3 2 4 3 2 4 3 2 4 3 2 4 3 2 4 3 2 4 3 2 4 3 2 4 3 2 4 3 2 4 3 2 4 3 2 4 3 2 4 3 2 4 3 2 4 3 2 4 3 2 4 3 2 4 3 2 4 3 2 4 3 2 4 3 2 4 3 2 4 3 2 4 3 2 4 3 2 4 3 2 4 3 2 4 3 2 4 3 2 4 3 2 4 3 2 4 3 2 4 3 2 4 3 2 4 3 2 4 3 2 4 3 2 4 3 2 4 3 2 4 3 2 4 3 2 4 3 2 4 3 2 4 3 2 4 3 2 4 3 2 4 3 2 4 3 2 4 3 2 4 3 2 4 3 2 4 3 2 4 3 2 4 3 2 4 3 2 4 3 2 4 3 2 4 3 2 4 3 2 4 3 2 4 3 2 4 3 2 4 3 2 4 3 2 4 3 2 4 3 2 4 3 2 4 3 2 4 3 2 4 3 2 4 3 2 4 3 2 4 3 2 4 3 2 4 3 2 4 3 2 4 3 2 4 3 2 4 3 2 4 3 2 4 3 2 4 3 2 4 3 2 4 3 2 4 3 2 4 3 2 4 3 2 4 3 2 4 3 2 4 3 2 4 3 2 4 3 2 4 3 2 4 3 2 4 3 2 4 3 2 4 3 2 4 3 2 4 3 2 4 3 2 4 3 2 4 3 2 4 3 2 4 3 2 4 3 2 4 3 2 4 3 2 4 3 2 4 3 2 4 3 2 4 3 2 4 3 2 4 3 2 4 3 2 4 3 2 4 3 2 4 3 2 4 3 2 4 3 2 4 3 2 4 3 2 4 3 2 4 3 2 4 3 2 4 3 2 4 3 2 4 3 2 4 3 2 4 3 2 4 3 2 4 3 2 4 3 2 4 3 2 4 3 2 4 3 2 4 3 2 4 3 2 4 3 2 4 3 2 4 3 2 4 3 2 4 3 2 4 3 2 4 3 2 4 3 2 4 3 2 4 3 2 4 3 2 4 3 2 4 3 2 4 3 2 4 3 2 4 3 2 4 3 2 4 3 2 4 3 2 4 3 2 4 3 2 4 3 2 4 3 2 4 3 2 4 3 2 4 3 2 4 3 2 4 3 2 4 3 2 4 3 2 4 3 2 4 3 2 4 3 2 4 3 2 4 3 2 4 3 2 4 3 2 4 3 2 4 3 2 4 3 2 4 3 2 4 3 2 4 3 2 4 3 2 4 3 2 4 3 2 4 3 2 4 3 2 4 3 2 4 3 2 4 3 2 4 3 2 4 3 2 4 3 2 4 3 2 4 3 2 4 3 2 4 3 2 4 3 2 4 3 2 4 3 2 4 3 2 4 3 2 4 3 2 4 3 2 4 3 2 4 3 2 4 3 2 4 3 2 4 3 2 4 3 2 4 3 2 4 3 2 4 3 2 4 3 2 4 3 2 4 3 2 4 3 2 4 3 2 4 3 2 4 3 2 4 3 2 4 3 2 4 3 2 4 3 2 4 3 2 4 3 2 4 3 2 4 3 2 4 3 2 4 3 2 4 3 2 4 3 2 4 3 2 4 3 2 4 3 2 4
3 2 4 3 2 4 3 2 4 3 2 4 3 2 4 3 2 4 3 2 4 3 2 4 3 2 4 3 2 4 3 2 4 3 2 4 3 2 4 3 2 4 3 2 4 3 2 4 3 2 4 3 2 4 3 2 4 3 2 4 3 2 4 3 2 4 3 2 4 3 2 4 3 2 4 3 2 4 3 2 4 3 2 4 3 2 4 3 2 4 3 2 4 3 2 4 3 2 4 3 2 4 3 2 4 3 2 4 3 2 4 3 2 4 3 2 4 3 2 4 3 2 4 3 2 4 3 2 4 3 2 4 3 2 4 3 2 4 3 2 4 3 2 4 3 2 4 3 2 4 3 2 4 3 2 4 3 2 4 3 2 4 3 2 4 3 2 4 3 2 4 3 2 4 3 2 4 3 2 4 3 2 4 3 2 4 3 2 4 3 2 4 3 2 4 3 2 4 3 2 4 3 2 4 3 2 4 3 2 4 3 2 4 3 2 4 3 2 4 3 2 4 3 2 4 3 2 4 3 2 4 3 2 4 3 2 4 3 2 4 3 2 4 3 2 4 3 2 4 3 2 4 3 2 4 3 2 4 3 2 4 3 2 4 3 2 4 3 2 4 3 2 4 3 2 4 3 2 4 3 2 4 3 2 4 3 2 4 3 2 4 3 2 4 3 2 4 3 2 4 3 2 4 3 2 4 3 2 4 3 2 4 3 2 4 3 2 4 3 2 4 3 2 4 3 2 4 3 2 4 3 2 4 3 2 4 3 2 4 3 2 4 3 2 4 3 2 4 3 2 4 3 2 4 3 2 4 3 2 4 3 2 4 3 2 4 3 2 4 3 2 4 3 2 4 3 2 4 3 2 4 3 2 4 3 2 4 3 2 4 3 2 4 3 2 4 3 2 4 3 2 4 3 2 4 3 2 4 3 2 4 3 2 4 3 2 4 3 2 4 3 2 4 3 2 4 3 2 4 3 2 4 3 2 4 3 2 4 3 2 4 3 2 4 3 2 4 3 2 4 3 2 4 3 2 4 3 2 4 3 2 4 3 2 4 3 2 4 3 2 4 3 2 4 3 2 4 3 2 4 3 2 4 3 2 4 3 2 4 3 2 4 3 2 4 3 2 4 3 2 4 3 2 4 3 2 4 3 2 4 3 2 4 3 2 4 3 2 4 3 2 4 3 2 4 3 2 4 3 2 4 3 2 4 3 2 4 3 2 4 3 2 4 3 2 4 3 2 4 3 2 4 3 2 4 3 2 4 3 2 4 3 2 4 3 2 4 3 2 4 3 2 4 3 2 4 3 2 4 3 2 4 3 2 4 3 2 4 3 2 4 3 2 4 3 2 4 3 2 4 3 2 4 3 2 4 3 2 4 3 2 4 3 2 4 3 2 4 3 2 4 3 2 4 3 2 4 3 2 4 3 2 4 3 2 4 3 2 4 3 2 4 3 2 4 3 2 4 3 2 4 3 2 4 3 2 4 3 2 4 3 2 4 3 2 4 3 2 4 3 2 4 3 2 4 3 2 4 3 2 4 3 2 4 3 2 4 3 2 4 3 2 4 3 2 4 3 2 4 3 2 4 3 2 4 3 2 4 3 2 4 3 2 4 3 2 4 3 2 4
3 2 4 3 2 4 3 2 4 3 2 4 3 2 4 3 2 4 3 2 4 3 2 4 3 2 4 3 2 4 3 2 4 3 2 4 3 2 4 3 2 4 3 2 4 3 2 4 3 2 4 3 2 4 3 2 4 3 2 4 3 2 4 3 2 4 3 2 4 3 2 4 3 2 4 3 2 4 3 2 4 3 2 4 3 2 4 3 2 4 3 2 4 3 2 4 3 2 4 3 2 4 3 2 4 3 2 4 3 2 4 3 2 4 3 2 4 3 2 4 3 2 4 3 2 4 3 2 4 3 2 4 3 2 4 3 2 4 3 2 4 3 2 4 3 2 4 3 2 4 3 2 4 3 2 4 3 2 4 3 2 4 3 2 4 3 2 4 3 2 4 3 2 4 3 2 4 3 2 4 3 2 4 3 2 4 3 2 4 3 2 4 3 2 4 3 2 4 3 2 4 3 2 4 3 2 4 3 2 4 3 2 4 3 2 4 3 2 4 3 2 4 3 2 4 3 2 4 3 2 4 3 2 4 3 2 4 3 2 4 3 2 4 3 2 4 3 2 4 3 2 4 3 2 4 3 2 4 3 2 4 3 2 4 3 2 4 3 2 4 3 2 4 3 2 4 3 2 4 3 2 4 3 2 4 3 2 4 3 2 4 3 2 4 3 2 4 3 2 4 3 2 4 3 2 4 3 2 4 3 2 4 3 2 4 3 2 4 3 2 4 3 2 4 3 2 4 3 2 4 3 2 4 3 2 4 3 2 4 3 2 4 3 2 4 3 2 4 3 2 4 3 2 4 3 2 4 3 2 4 3 2 4 3 2 4 3 2 4 3 2 4 3 2 4 3 2 4 3 2 4 3 2 4 3 2 4 3 2 4 3 2 4 3 2 4 3 2 4 3 2 4 3 2 4 3 2 4 3 2 4 3 2 4 3 2 4 3 2 4 3 2 4 3 2 4 3 2 4 3 2 4 3 2 4 3 2 4 3 2 4 3 2 4 3 2 4 3 2 4 3 2 4 3 2 4 3 2 4 3 2 4 3 2 4 3 2 4 3 2 4 3 2 4 3 2 4 3 2 4 3 2 4 3 2 4 3 2 4 3 2 4 3 2 4 3 2 4 3 2 4 3 2 4 3 2 4 3 2 4 3 2 4 3 2 4 3 2 4 3 2 4 3 2 4 3 2 4 3 2 4 3 2 4 3 2 4 3 2 4 3 2 4 3 2 4 3 2 4 3 2 4 3 2 4 3 2 4 3 2 4 3 2 4 3 2 4 3 2 4 3 2 4 3 2 4 3 2 4 3 2 4 3 2 4 3 2 4 3 2 4 3 2 4 3 2 4 3 2 4 3 2 4 3 2 4 3 2 4 3 2 4 3 2 4 3 2 4 3 2 4 3 2 4 3 2 4 3 2 4 3 2 4 3 2 4 3 2 4 3 2 4 3 2 4 3 2 4 3 2 4 3 2 4 3 2 4 3 2 4 3 2 4 3 2 4 3 2 4 3 2 4 3 2 4 3 2 4 3 2 4 3 2 4 3 2 4 3 2 4 3 2 4 3 2 4 3 2 4 3 2 4 3 2 4 3 2 4 3 2 4 3 2 4 3 2 4 3 2 4
3 2 4 3 2 4 3 2 4 3 2 4 3 2 4 3 2 4 3 2 4 3 2 4 3 2 4 3 2 4 3 2 4 3 2 4 3 2 4 3 2 4 3 2 4 3 2 4 3 2 4 3 2 4 3 2 4 3 2 4 3 2 4 3 2 4 3 2 4 3 2 4 3 2 4 3 2 4 3 2 4 3 2 4 3 2 4 3 2 4 3 2 4 3 2 4 3 2 4 3 2 4 3 2 4 3 2 4 3 2 4 3 2 4 3 2 4 3 2 4 3 2 4 3 2 4 3 2 4 3 2 4 3 2 4 3 2 4 3 2 4 3 2 4 3 2 4 3 2 4 3 2 4 3 2 4 3 2 4 3 2 4 3 2 4 3 2 4 3 2 4 3 2 4 3 2 4 3 2 4 3 2 4 3 2 4 3 2 4 3 2 4 3 2 4 3 2 4 3 2 4 3 2 4 3 2 4 3 2 4 3 2 4 3 2 4 3 2 4 3 2 4 3 2 4 3 2 4 3 2 4 3 2 4 3 2 4 3 2 4 3 2 4 3 2 4 3 2 4 3 2 4 3 2 4 3 2 4 3 2 4 3 2 4 3 2 4 3 2 4 3 2 4 3 2 4 3 2 4 3 2 4 3 2 4 3 2 4 3 2 4 3 2 4 3 2 4 3 2 4 3 2 4 3 2 4 3 2 4 3 2 4 3 2 4 3 2 4 3 2 4 3 2 4 3 2 4 3 2 4 3 2 4 3 2 4 3 2 4 3 2 4 3 2 4 3 2 4 3 2 4 3 2 4 3 2 4 3 2 4 3 2 4 3 2 4 3 2 4 3 2 4 3 2 4 3 2 4 3 2 4 3 2 4 3 2 4 3 2 4 3 2 4 3 2 4 3 2 4 3 2 4 3 2 4 3 2 4 3 2 4 3 2 4 3 2 4 3 2 4 3 2 4 3 2 4 3 2 4 3 2 4 3 2 4 3 2 4 3 2 4 3 2 4 3 2 4 3 2 4 3 2 4 3 2 4 3 2 4 3 2 4 3 2 4 3 2 4 3 2 4 3 2 4 3 2 4 3 2 4 3 2 4 3 2 4 3 2 4 3 2 4 3 2 4 3 2 4 3 2 4 3 2 4 3 2 4 3 2 4 3 2 4 3 2 4 3 2 4 3 2 4 3 2 4 3 2 4 3 2 4 3 2 4 3 2 4 3 2 4 3 2 4 3 2 4 3 2 4 3 2 4 3 2 4 3 2 4 3 2 4 3 2 4 3 2 4 3 2 4 3 2 4 3 2 4 3 2 4 3 2 4 3 2 4 3 2 4 3 2 4 3 2 4 3 2 4 3 2 4 3 2 4 3 2 4 3 2 4 3 2 4 3 2 4 3 2 4 3 2 4 3 2 4 3 2 4 3 2 4 3 2 4 3 2 4 3 2 4 3 2 4 3 2 4 3 2 4 3 2 4 3 2 4 3 2 4 3 2 4 3 2 4 3 2 4 3 2 4 3 2 4 3 2 4 3 2 4 3 2 4 3 2 4 3 2 4 3 2 4 3 2 4 3 2 4 3 2 4 3 2 4 3 2 4 3 2 4 3 2 4 3 2 4 3 2 4 3 2 4
3 2 4 3 2 4 3 2 4 3 2 4 3 2 4 3 2 4 3 2 4 3 2 4 3 2 4 3 2 4 3 2 4 3 2 4 3 2 4 3 2 4 3 2 4 3 2 4 3 2 4 3 2 4 3 2 4 3 2 4 3 2 4 3 2 4 3 2 4 3 2 4 3 2 4 3 2 4 3 2 4 3 2 4 3 2 4 3 2 4 3 2 4 3 2 4 3 2 4 3 2 4 3 2 4 3 2 4 3 2 4 3 2 4 3 2 4 3 2 4 3 2 4 3 2 4 3 2 4 3 2 4 3 2 4 3 2 4 3 2 4 3 2 4 3 2 4 3 2 4 3 2 4 3 2 4 3 2 4 3 2 4 3 2 4 3 2 4 3 2 4 3 2 4 3 2 4 3 2 4 3 2 4 3 2 4 3 2 4 3 2 4 3 2 4 3 2 4 3 2 4 3 2 4 3 2 4 3 2 4 3 2 4 3 2 4 3 2 4 3 2 4 3 2 4 3 2 4 3 2 4 3 2 4 3 2 4 3 2 4 3 2 4 3 2 4 3 2 4 3 2 4 3 2 4 3 2 4 3 2 4 3 2 4 3 2 4 3 2 4 3 2 4 3 2 4 3 2 4 3 2 4 3 2 4 3 2 4 3 2 4 3 2 4 3 2 4 3 2 4 3 2 4 3 2 4 3 2 4 3 2 4 3 2 4 3 2 4 3 2 4 3 2 4 3 2 4 3 2 4 3 2 4 3 2 4 3 2 4 3 2 4 3 2 4 3 2 4 3 2 4 3 2 4 3 2 4 3 2 4 3 2 4 3 2 4 3 2 4 3 2 4 3 2 4 3 2 4 3 2 4 3 2 4 3 2 4 3 2 4 3 2 4 3 2 4 3 2 4 3 2 4 3 2 4 3 2 4 3 2 4 3 2 4 3 2 4 3 2 4 3 2 4 3 2 4 3 2 4 3 2 4 3 2 4 3 2 4 3 2 4 3 2 4 3 2 4 3 2 4 3 2 4 3 2 4 3 2 4 3 2 4 3 2 4 3 2 4 3 2 4 3 2 4 3 2 4 3 2 4 3 2 4 3 2 4 3 2 4 3 2 4 3 2 4 3 2 4 3 2 4 3 2 4 3 2 4 3 2 4 3 2 4 3 2 4 3 2 4 3 2 4 3 2 4 3 2 4 3 2 4 3 2 4 3 2 4 3 2 4 3 2 4 3 2 4 3 2 4 3 2 4 3 2 4 3 2 4 3 2 4 3 2 4 3 2 4 3 2 4 3 2 4 3 2 4 3 2 4 3 2 4 3 2 4 3 2 4 3 2 4 3 2 4 3 2 4 3 2 4 3 2 4 3 2 4 3 2 4 3 2 4 3 2 4 3 2 4 3 2 4 3 2 4 3 2 4 3 2 4 3 2 4 3 2 4 3 2 4 3 2 4 3 2 4 3 2 4 3 2 4 3 2 4 3 2 4 3 2 4 3 2 4 3 2 4 3 2 4 3 2 4 3 2 4 3 2 4 3 2 4 3 2 4 3 2 4 3 2 4 3 2 4 3 2 4 3 2 4 3 2 4 3 2 4 3 2 4 3 2 4 3 2 4 3 2 4 3 2 4
3 2 4 3 2 4 3 2 4 3 2 4 3 2 4 3 2 4 3 2 4 3 2 4 3 2 4 3 2 4 3 2 4 3 2 4 3 2 4 3 2 4 3 2 4 3 2 4 3 2 4 3 2 4 3 2 4 3 2 4 3 2 4 3 2 4 3 2 4 3 2 4 3 2 4 3 2 4 3 2 4 3 2 4 3 2 4 3 2 4 3 2 4 3 2 4 3 2 4 3 2 4 3 2 4 3 2 4 3 2 4 3 2 4 3 2 4 3 2 4 3 2 4 3 2 4 3 2 4 3 2 4 3 2 4 3 2 4 3 2 4 3 2 4 3 2 4 3 2 4 3 2 4 3 2 4 3 2 4 3 2 4 3 2 4 3 2 4 3 2 4 3 2 4 3 2 4 3 2 4 3 2 4 3 2 4 3 2 4 3 2 4 3 2 4 3 2 4 3 2 4 3 2 4 3 2 4 3 2 4 3 2 4 3 2 4 3 2 4 3 2 4 3 2 4 3 2 4 3 2 4 3 2 4 3 2 4 3 2 4 3 2 4 3 2 4 3 2 4 3 2 4 3 2 4 3 2 4 3 2 4 3 2 4 3 2 4 3 2 4 3 2 4 3 2 4 3 2 4 3 2 4 3 2 4 3 2 4 3 2 4 3 2 4 3 2 4 3 2 4 3 2 4 3 2 4 3 2 4 3 2 4 3 2 4 3 2 4 3 2 4 3 2 4 3 2 4 3 2 4 3 2 4 3 2 4 3 2 4 3 2 4 3 2 4 3 2 4 3 2 4 3 2 4 3 2 4 3 2 4 3 2 4 3 2 4 3 2 4 3 2 4 3 2 4 3 2 4 3 2 4 3 2 4 3 2 4 3 2 4 3 2 4 3 2 4 3 2 4 3 2 4 3 2 4 3 2 4 3 2 4 3 2 4 3 2 4 3 2 4 3 2 4 3 2 4 3 2 4 3 2 4 3 2 4 3 2 4 3 2 4 3 2 4 3 2 4 3 2 4 3 2 4 3 2 4 3 2 4 3 2 4 3 2 4 3 2 4 3 2 4 3 2 4 3 2 4 3 2 4 3 2 4 3 2 4 3 2 4 3 2 4 3 2 4 3 2 4 3 2 4 3 2 4 3 2 4 3 2 4 3 2 4 3 2 4 3 2 4 3 2 4 3 2 4 3 2 4 3 2 4 3 2 4 3 2 4 3 2 4 3 2 4 3 2 4 3 2 4 3 2 4 3 2 4 3 2 4 3 2 4 3 2 4 3 2 4 3 2 4 3 2 4 3 2 4 3 2 4 3 2 4 3 2 4 3 2 4 3 2 4 3 2 4 3 2 4 3 2 4 3 2 4 3 2 4 3 2 4 3 2 4 3 2 4 3 2 4 3 2 4 3 2 4 3 2 4 3 2 4 3 2 4 3 2 4 3 2 4 3 2 4 3 2 4 3 2 4 3 2 4 3 2 4 3 2 4 3 2 4 3 2 4 3 2 4 3 2 4 3 2 4 3 2 4 3 2 4 3 2 4 3 2 4 3 2 4 3 2 4 3 2 4 3 2 4 3 2 4 3 2 4 3 2 4 3 2 4 3 2 4 3 2 4 3 2 4 3 2 4
3 2 4 3 2 4 3 2 4 3 2 4 3 2 4 3 2 4 3 2 4 3 2 4 3 2 4 3 2 4 3 2 4 3 2 4 3 2 4 3 2 4 3 2 4 3 2 4 3 2 4 3 2 4 3 2 4 3 2 4 3 2 4 3 2 4 3 2 4 3 2 4 3 2 4 3 2 4 3 2 4 3 2 4 3 2 4 3 2 4 3 2 4 3 2 4 3 2 4 3 2 4 3 2 4 3 2 4 3 2 4 3 2 4 3 2 4 3 2 4 3 2 4 3 2 4 3 2 4 3 2 4 3 2 4 3 2 4 3 2 4 3 2 4 3 2 4 3 2 4 3 2 4 3 2 4 3 2 4 3 2 4 3 2 4 3 2 4 3 2 4 3 2 4 3 2 4 3 2 4 3 2 4 3 2 4 3 2 4 3 2 4 3 2 4 3 2 4 3 2 4 3 2 4 3 2 4 3 2 4 3 2 4 3 2 4 3 2 4 3 2 4 3 2 4 3 2 4 3 2 4 3 2 4 3 2 4 3 2 4 3 2 4 3 2 4 3 2 4 3 2 4 3 2 4 3 2 4 3 2 4 3 2 4 3 2 4 3 2 4 3 2 4 3 2 4 3 2 4 3 2 4 3 2 4 3 2 4 3 2 4 3 2 4 3 2 4 3 2 4 3 2 4 3 2 4 3 2 4 3 2 4 3 2 4 3 2 4 3 2 4 3 2 4 3 2 4 3 2 4 3 2 4 3 2 4 3 2 4 3 2 4 3 2 4 3 2 4 3 2 4 3 2 4 3 2 4 3 2 4 3 2 4 3 2 4 3 2 4 3 2 4 3 2 4 3 2 4 3 2 4 3 2 4 3 2 4 3 2 4 3 2 4 3 2 4 3 2 4 3 2 4 3 2 4 3 2 4 3 2 4 3 2 4 3 2 4 3 2 4 3 2 4 3 2 4 3 2 4 3 2 4 3 2 4 3 2 4 3 2 4 3 2 4 3 2 4 3 2 4 3 2 4 3 2 4 3 2 4 3 2 4 3 2 4 3 2 4 3 2 4 3 2 4 3 2 4 3 2 4 3 2 4 3 2 4 3 2 4 3 2 4 3 2 4 3 2 4 3 2 4 3 2 4 3 2 4 3 2 4 3 2 4 3 2 4 3 2 4 3 2 4 3 2 4 3 2 4 3 2 4 3 2 4 3 2 4 3 2 4 3 2 4 3 2 4 3 2 4 3 2 4 3 2 4 3 2 4 3 2 4 3 2 4 3 2 4 3 2 4 3 2 4 3 2 4 3 2 4 3 2 4 3 2 4 3 2 4 3 2 4 3 2 4 3 2 4 3 2 4 3 2 4 3 2 4 3 2 4 3 2 4 3 2 4 3 2 4 3 2 4 3 2 4 3 2 4 3 2 4 3 2 4 3 2 4 3 2 4 3 2 4 3 2 4 3 2 4 3 2 4 3 2 4 3 2 4 3 2 4 3 2 4 3 2 4 3 2 4 3 2 4 3 2 4 3 2 4 3 2 4 3 2 4 3 2 4 3 2 4 3 2 4 3 2 4 3 2 4 3 2 4 3 2 4 3 2 4 3 2 4 3 2 4 3 2 4 3 2 4
3 2 4 3 2 4 3 2 4 3 2 4 3 2 4 3 2 4 3 2 4 3 2 4 3 2 4 3 2 4 3 2 4 3 2 4 3 2 4 3 2 4 3 2 4 3 2 4 3 2 4 3 2 4 3 2 4 3 2 4 3 2 4 3 2 4 3 2 4 3 2 4 3 2 4 3 2 4 3 2 4 3 2 4 3 2 4 3 2 4 3 2 4 3 2 4 3 2 4 3 2 4 3 2 4 3 2 4 3 2 4 3 2 4 3 2 4 3 2 4 3 2 4 3 2 4 3 2 4 3 2 4 3 2 4 3 2 4 3 2 4 3 2 4 3 2 4 3 2 4 3 2 4 3 2 4 3 2 4 3 2 4 3 2 4 3 2 4 3 2 4 3 2 4 3 2 4 3 2 4 3 2 4 3 2 4 3 2 4 3 2 4 3 2 4 3 2 4 3 2 4 3 2 4 3 2 4 3 2 4 3 2 4 3 2 4 3 2 4 3 2 4 3 2 4 3 2 4 3 2 4 3 2 4 3 2 4 3 2 4 3 2 4 3 2 4 3 2 4 3 2 4 3 2 4 3 2 4 3 2 4 3 2 4 3 2 4 3 2 4 3 2 4 3 2 4 3 2 4 3 2 4 3 2 4 3 2 4 3 2 4 3 2 4 3 2 4 3 2 4 3 2 4 3 2 4 3 2 4 3 2 4 3 2 4 3 2 4 3 2 4 3 2 4 3 2 4 3 2 4 3 2 4 3 2 4 3 2 4 3 2 4 3 2 4 3 2 4 3 2 4 3 2 4 3 2 4 3 2 4 3 2 4 3 2 4 3 2 4 3 2 4 3 2 4 3 2 4 3 2 4 3 2 4 3 2 4 3 2 4 3 2 4 3 2 4 3 2 4 3 2 4 3 2 4 3 2 4 3 2 4 3 2 4 3 2 4 3 2 4 3 2 4 3 2 4 3 2 4 3 2 4 3 2 4 3 2 4 3 2 4 3 2 4 3 2 4 3 2 4 3 2 4 3 2 4 3 2 4 3 2 4 3 2 4 3 2 4 3 2 4 3 2 4 3 2 4 3 2 4 3 2 4 3 2 4 3 2 4 3 2 4 3 2 4 3 2 4 3 2 4 3 2 4 3 2 4 3 2 4 3 2 4 3 2 4 3 2 4 3 2 4 3 2 4 3 2 4 3 2 4 3 2 4 3 2 4 3 2 4 3 2 4 3 2 4 3 2 4 3 2 4 3 2 4 3 2 4 3 2 4 3 2 4 3 2 4 3 2 4 3 2 4 3 2 4 3 2 4 3 2 4 3 2 4 3 2 4 3 2 4 3 2 4 3 2 4 3 2 4 3 2 4 3 2 4 3 2 4 3 2 4 3 2 4 3 2 4 3 2 4 3 2 4 3 2 4 3 2 4 3 2 4 3 2 4 3 2 4 3 2 4 3 2 4 3 2 4 3 2 4 3 2 4 3 2 4 3 2 4 3 2 4 3 2 4 3 2 4 3 2 4 3 2 4 3 2 4 3 2 4 3 2 4 3 2 4 3 2 4 3 2 4 3 2 4 3 2 4 3 2 4 3 2 4 3 2 4 3 2 4 3 2 4 3 2 4 3 2 4
3 2 4 3 2 4 3 2 4 3 2 4 3 2 4 3 2 4 3 2 4 3 2 4 3 2 4 3 2 4 3 2 4 3 2 4 3 2 4 3 2 4 3 2 4 3 2 4 3 2 4 3 2 4 3 2 4 3 2 4 3 2 4 3 2 4 3 2 4 3 2 4 3 2 4 3 2 4 3 2 4 3 2 4 3 2 4 3 2 4 3 2 4 3 2 4 3 2 4 3 2 4 3 2 4 3 2 4 3 2 4 3 2 4 3 2 4 3 2 4 3 2 4 3 2 4 3 2 4 3 2 4 3 2 4 3 2 4 3 2 4 3 2 4 3 2 4 3 2 4 3 2 4 3 2 4 3 2 4 3 2 4 3 2 4 3 2 4 3 2 4 3 2 4 3 2 4 3 2 4 3 2 4 3 2 4 3 2 4 3 2 4 3 2 4 3 2 4 3 2 4 3 2 4 3 2 4 3 2 4 3 2 4 3 2 4 3 2 4 3 2 4 3 2 4 3 2 4 3 2 4 3 2 4 3 2 4 3 2 4 3 2 4 3 2 4 3 2 4 3 2 4 3 2 4 3 2 4 3 2 4 3 2 4 3 2 4 3 2 4 3 2 4 3 2 4 3 2 4 3 2 4 3 2 4 3 2 4 3 2 4 3 2 4 3 2 4 3 2 4 3 2 4 3 2 4 3 2 4 3 2 4 3 2 4 3 2 4 3 2 4 3 2 4 3 2 4 3 2 4 3 2 4 3 2 4 3 2 4 3 2 4 3 2 4 3 2 4 3 2 4 3 2 4 3 2 4 3 2 4 3 2 4 3 2 4 3 2 4 3 2 4 3 2 4 3 2 4 3 2 4 3 2 4 3 2 4 3 2 4 3 2 4 3 2 4 3 2 4 3 2 4 3 2 4 3 2 4 3 2 4 3 2 4 3 2 4 3 2 4 3 2 4 3 2 4 3 2 4 3 2 4 3 2 4 3 2 4 3 2 4 3 2 4 3 2 4 3 2 4 3 2 4 3 2 4 3 2 4 3 2 4 3 2 4 3 2 4 3 2 4 3 2 4 3 2 4 3 2 4 3 2 4 3 2 4 3 2 4 3 2 4 3 2 4 3 2 4 3 2 4 3 2 4 3 2 4 3 2 4 3 2 4 3 2 4 3 2 4 3 2 4 3 2 4 3 2 4 3 2 4 3 2 4 3 2 4 3 2 4 3 2 4 3 2 4 3 2 4 3 2 4 3 2 4 3 2 4 3 2 4 3 2 4 3 2 4 3 2 4 3 2 4 3 2 4 3 2 4 3 2 4 3 2 4 3 2 4 3 2 4 3 2 4 3 2 4 3 2 4 3 2 4 3 2 4 3 2 4 3 2 4 3 2 4 3 2 4 3 2 4 3 2 4 3 2 4 3 2 4 3 2 4 3 2 4 3 2 4 3 2 4 3 2 4 3 2 4 3 2 4 3 2 4 3 2 4 3 2 4 3 2 4 3 2 4 3 2 4 3 2 4 3 2 4 3 2 4 3 2 4 3 2 4 3 2 4 3 2 4 3 2 4 3 2 4 3 2 4 3 2 4 3 2 4 3 2 4 3 2 4 3 2 4 3 2 4 3 2 4
3 2 4 3 2 4 3 2 4 3 2 4 3 2 4 3 2 4 3 2 4 3 2 4 3 2 4 3 2 4 3 2 4 3 2 4 3 2 4 3 2 4 3 2 4 3 2 4 3 2 4 3 2 4 3 2 4 3 2 4 3 2 4 3 2 4 3 2 4 3 2 4 3 2 4 3 2 4 3 2 4 3 2 4 3 2 4 3 2 4 3 2 4 3 2 4 3 2 4 3 2 4 3 2 4 3 2 4 3 2 4 3 2 4 3 2 4 3 2 4 3 2 4 3 2 4 3 2 4 3 2 4 3 2 4 3 2 4 3 2 4 3 2 4 3 2 4 3 2 4 3 2 4 3 2 4 3 2 4 3 2 4 3 2 4 3 2 4 3 2 4 3 2 4 3 2 4 3 2 4 3 2 4 3 2 4 3 2 4 3 2 4 3 2 4 3 2 4 3 2 4 3 2 4 3 2 4 3 2 4 3 2 4 3 2 4 3 2 4 3 2 4 3 2 4 3 2 4 3 2 4 3 2 4 3 2 4 3 2 4 3 2 4 3 2 4 3 2 4 3 2 4 3 2 4 3 2 4 3 2 4 3 2 4 3 2 4 3 2 4 3 2 4 3 2 4 3 2 4 3 2 4 3 2 4 3 2 4 3 2 4 3 2 4 3 2 4 3 2 4 3 2 4 3 2 4 3 2 4 3 2 4 3 2 4 3 2 4 3 2 4 3 2 4 3 2 4 3 2 4 3 2 4 3 2 4 3 2 4 3 2 4 3 2 4 3 2 4 3 2 4 3 2 4 3 2 4 3 2 4 3 2 4 3 2 4 3 2 4 3 2 4 3 2 4 3 2 4 3 2 4 3 2 4 3 2 4 3 2 4 3 2 4 3 2 4 3 2 4 3 2 4 3 2 4 3 2 4 3 2 4 3 2 4 3 2 4 3 2 4 3 2 4 3 2 4 3 2 4 3 2 4 3 2 4 3 2 4 3 2 4 3 2 4 3 2 4 3 2 4 3 2 4 3 2 4 3 2 4 3 2 4 3 2 4 3 2 4 3 2 4 3 2 4 3 2 4 3 2 4 3 2 4 3 2 4 3 2 4 3 2 4 3 2 4 3 2 4 3 2 4 3 2 4 3 2 4 3 2 4 3 2 4 3 2 4 3 2 4 3 2 4 3 2 4 3 2 4 3 2 4 3 2 4 3 2 4 3 2 4 3 2 4 3 2 4 3 2 4 3 2 4 3 2 4 3 2 4 3 2 4 3 2 4 3 2 4 3 2 4 3 2 4 3 2 4 3 2 4 3 2 4 3 2 4 3 2 4 3 2 4 3 2 4 3 2 4 3 2 4 3 2 4 3 2 4 3 2 4 3 2 4 3 2 4 3 2 4 3 2 4 3 2 4 3 2 4 3 2 4 3 2 4 3 2 4 3 2 4 3 2 4 3 2 4 3 2 4 3 2 4 3 2 4 3 2 4 3 2 4 3 2 4 3 2 4 3 2 4 3 2 4 3 2 4 3 2 4 3 2 4 3 2 4 3 2 4 3 2 4 3 2 4 3 2 4 3 2 4 3 2 4 3 2 4 3 2 4 3 2 4 3 2 4 3 2 4 3 2 4
3 2 4 3 2 4 3 2 4 3 2 4 3 2 4 3 2 4 3 2 4 3 2 4 3 2 4 3 2 4 3 2 4 3 2 4 3 2 4 3 2 4 3 2 4 3 2 4 3 2 4 3 2 4 3 2 4 3 2 4 3 2 4 3 2 4 3 2 4 3 2 4 3 2 4 3 2 4 3 2 4 3 2 4 3 2 4 3 2 4 3 2 4 3 2 4 3 2 4 3 2 4 3 2 4 3 2 4 3 2 4 3 2 4 3 2 4 3 2 4 3 2 4 3 2 4 3 2 4 3 2 4 3 2 4 3 2 4 3 2 4 3 2 4 3 2 4 3 2 4 3 2 4 3 2 4 3 2 4 3 2 4 3 2 4 3 2 4 3 2 4 3 2 4 3 2 4 3 2 4 3 2 4 3 2 4 3 2 4 3 2 4 3 2 4 3 2 4 3 2 4 3 2 4 3 2 4 3 2 4 3 2 4 3 2 4 3 2 4 3 2 4 3 2 4 3 2 4 3 2 4 3 2 4 3 2 4 3 2 4 3 2 4 3 2 4 3 2 4 3 2 4 3 2 4 3 2 4 3 2 4 3 2 4 3 2 4 3 2 4 3 2 4 3 2 4 3 2 4 3 2 4 3 2 4 3 2 4 3 2 4 3 2 4 3 2 4 3 2 4 3 2 4 3 2 4 3 2 4 3 2 4 3 2 4 3 2 4 3 2 4 3 2 4 3 2 4 3 2 4 3 2 4 3 2 4 3 2 4 3 2 4 3 2 4 3 2 4 3 2 4 3 2 4 3 2 4 3 2 4 3 2 4 3 2 4 3 2 4 3 2 4 3 2 4 3 2 4 3 2 4 3 2 4 3 2 4 3 2 4 3 2 4 3 2 4 3 2 4 3 2 4 3 2 4 3 2 4 3 2 4 3 2 4 3 2 4 3 2 4 3 2 4 3 2 4 3 2 4 3 2 4 3 2 4 3 2 4 3 2 4 3 2 4 3 2 4 3 2 4 3 2 4 3 2 4 3 2 4 3 2 4 3 2 4 3 2 4 3 2 4 3 2 4 3 2 4 3 2 4 3 2 4 3 2 4 3 2 4 3 2 4 3 2 4 3 2 4 3 2 4 3 2 4 3 2 4 3 2 4 3 2 4 3 2 4 3 2 4 3 2 4 3 2 4 3 2 4 3 2 4 3 2 4 3 2 4 3 2 4 3 2 4 3 2 4 3 2 4 3 2 4 3 2 4 3 2 4 3 2 4 3 2 4 3 2 4 3 2 4 3 2 4 3 2 4 3 2 4 3 2 4 3 2 4 3 2 4 3 2 4 3 2 4 3 2 4 3 2 4 3 2 4 3 2 4 3 2 4 3 2 4 3 2 4 3 2 4 3 2 4 3 2 4 3 2 4 3 2 4 3 2 4 3 2 4 3 2 4 3 2 4 3 2 4 3 2 4 3 2 4 3 2 4 3 2 4 3 2 4 3 2 4 3 2 4 3 2 4 3 2 4 3 2 4 3 2 4 3 2 4 3 2 4 3 2 4 3 2 4 3 2 4 3 2 4 3 2 4 3 2 4 3 2 4 3 2 4 3 2 4 3 2 4 3 2 4 3 2 4
3 2 4 3 2 4 3 2 4 3 2 4 3 2 4 3 2 4 3 2 4 3 2 4 3 2 4 3 2 4 3 2 4 3 2 4 3 2 4 3 2 4 3 2 4 3 2 4 3 2 4 3 2 4 3 2 4 3 2 4 3 2 4 3 2 4 3 2 4 3 2 4 3 2 4 3 2 4 3 2 4 3 2 4 3 2 4 3 2 4 3 2 4 3 2 4 3 2 4 3 2 4 3 2 4 3 2 4 3 2 4 3 2 4 3 2 4 3 2 4 3 2 4 3 2 4 3 2 4 3 2 4 3 2 4 3 2 4 3 2 4 3 2 4 3 2 4 3 2 4 3 2 4 3 2 4 3 2 4 3 2 4 3 2 4 3 2 4 3 2 4 3 2 4 3 2 4 3 2 4 3 2 4 3 2 4 3 2 4 3 2 4 3 2 4 3 2 4 3 2 4 3 2 4 3 2 4 3 2 4 3 2 4 3 2 4 3 2 4 3 2 4 3 2 4 3 2 4 3 2 4 3 2 4 3 2 4 3 2 4 3 2 4 3 2 4 3 2 4 3 2 4 3 2 4 3 2 4 3 2 4 3 2 4 3 2 4 3 2 4 3 2 4 3 2 4 3 2 4 3 2 4 3 2 4 3 2 4 3 2 4 3 2 4 3 2 4 3 2 4 3 2 4 3 2 4 3 2 4 3 2 4 3 2 4 3 2 4 3 2 4 3 2 4 3 2 4 3 2 4 3 2 4 3 2 4 3 2 4 3 2 4 3 2 4 3 2 4 3 2 4 3 2 4 3 2 4 3 2 4 3 2 4 3 2 4 3 2 4 3 2 4 3 2 4 3 2 4 3 2 4 3 2 4 3 2 4 3 2 4 3 2 4 3 2 4 3 2 4 3 2 4 3 2 4 3 2 4 3 2 4 3 2 4 3 2 4 3 2 4 3 2 4 3 2 4 3 2 4 3 2 4 3 2 4 3 2 4 3 2 4 3 2 4 3 2 4 3 2 4 3 2 4 3 2 4 3 2 4 3 2 4 3 2 4 3 2 4 3 2 4 3 2 4 3 2 4 3 2 4 3 2 4 3 2 4 3 2 4 3 2 4 3 2 4 3 2 4 3 2 4 3 2 4 3 2 4 3 2 4 3 2 4 3 2 4 3 2 4 3 2 4 3 2 4 3 2 4 3 2 4 3 2 4 3 2 4 3 2 4 3 2 4 3 2 4 3 2 4 3 2 4 3 2 4 3 2 4 3 2 4 3 2 4 3 2 4 3 2 4 3 2 4 3 2 4 3 2 4 3 2 4 3 2 4 3 2 4 3 2 4 3 2 4 3 2 4 3 2 4 3 2 4 3 2 4 3 2 4 3 2 4 3 2 4 3 2 4 3 2 4 3 2 4 3 2 4 3 2 4 3 2 4 3 2 4 3 2 4 3 2 4 3 2 4 3 2 4 3 2 4 3 2 4 3 2 4 3 2 4 3 2 4 3 2 4 3 2 4 3 2 4 3 2 4 3 2 4 3 2 4 3 2 4 3 2 4 3 2 4 3 2 4 3 2 4 3 2 4 3 2 4 3 2 4 3 2 4 3 2 4 3 2 4 3 2 4 3 2 4
3 2 4 3 2 4 3 2 4 3 2 4 3 2 4 3 2 4 3 2 4 3 2 4 3 2 4 3 2 4 3 2 4 3 2 4 3 2 4 3 2 4 3 2 4 3 2 4 3 2 4 3 2 4 3 2 4 3 2 4 3 2 4 3 2 4 3 2 4 3 2 4 3 2 4 3 2 4 3 2 4 3 2 4 3 2 4 3 2 4 3 2 4 3 2 4 3 2 4 3 2 4 3 2 4 3 2 4 3 2 4 3 2 4 3 2 4 3 2 4 3 2 4 3 2 4 3 2 4 3 2 4 3 2 4 3 2 4 3 2 4 3 2 4 3 2 4 3 2 4 3 2 4 3 2 4 3 2 4 3 2 4 3 2 4 3 2 4 3 2 4 3 2 4 3 2 4 3 2 4 3 2 4 3 2 4 3 2 4 3 2 4 3 2 4 3 2 4 3 2 4 3 2 4 3 2 4 3 2 4 3 2 4 3 2 4 3 2 4 3 2 4 3 2 4 3 2 4 3 2 4 3 2 4 3 2 4 3 2 4 3 2 4 3 2 4 3 2 4 3 2 4 3 2 4 3 2 4 3 2 4 3 2 4 3 2 4 3 2 4 3 2 4 3 2 4 3 2 4 3 2 4 3 2 4 3 2 4 3 2 4 3 2 4 3 2 4 3 2 4 3 2 4 3 2 4 3 2 4 3 2 4 3 2 4 3 2 4 3 2 4 3 2 4 3 2 4 3 2 4 3 2 4 3 2 4 3 2 4 3 2 4 3 2 4 3 2 4 3 2 4 3 2 4 3 2 4 3 2 4 3 2 4 3 2 4 3 2 4 3 2 4 3 2 4 3 2 4 3 2 4 3 2 4 3 2 4 3 2 4 3 2 4 3 2 4 3 2 4 3 2 4 3 2 4 3 2 4 3 2 4 3 2 4 3 2 4 3 2 4 3 2 4 3 2 4 3 2 4 3 2 4 3 2 4 3 2 4 3 2 4 3 2 4 3 2 4 3 2 4 3 2 4 3 2 4 3 2 4 3 2 4 3 2 4 3 2 4 3 2 4 3 2 4 3 2 4 3 2 4 3 2 4 3 2 4 3 2 4 3 2 4 3 2 4 3 2 4 3 2 4 3 2 4 3 2 4 3 2 4 3 2 4 3 2 4 3 2 4 3 2 4 3 2 4 3 2 4 3 2 4 3 2 4 3 2 4 3 2 4 3 2 4 3 2 4 3 2 4 3 2 4 3 2 4 3 2 4 3 2 4 3 2 4 3 2 4 3 2 4 3 2 4 3 2 4 3 2 4 3 2 4 3 2 4 3 2 4 3 2 4 3 2 4 3 2 4 3 2 4 3 2 4 3 2 4 3 2 4 3 2 4 3 2 4 3 2 4 3 2 4 3 2 4 3 2 4 3 2 4 3 2 4 3 2 4 3 2 4 3 2 4 3 2 4 3 2 4 3 2 4 3 2 4 3 2 4 3 2 4 3 2 4 3 2 4 3 2 4 3 2 4 3 2 4 3 2 4 3 2 4 3 2 4 3 2 4 3 2 4 3 2 4 3 2 4 3 2 4 3 2 4 3 2 4 3 2 4 3 2 4 3 2 4 3 2 4 3 2 4
3 2 4 3 2 4 3 2 4 3 2 4 3 2 4 3 2 4 3 2 4 3 2 4 3 2 4 3 2 4 3 2 4 3 2 4 3 2 4 3 2 4 3 2 4 3 2 4 3 2 4 3 2 4 3 2 4 3 2 4 3 2 4 3 2 4 3 2 4 3 2 4 3 2 4 3 2 4 3 2 4 3 2 4 3 2 4 3 2 4 3 2 4 3 2 4 3 2 4 3 2 4 3 2 4 3 2 4 3 2 4 3 2 4 3 2 4 3 2 4 3 2 4 3 2 4 3 2 4 3 2 4 3 2 4 3 2 4 3 2 4 3 2 4 3 2 4 3 2 4 3 2 4 3 2 4 3 2 4 3 2 4 3 2 4 3 2 4 3 2 4 3 2 4 3 2 4 3 2 4 3 2 4 3 2 4 3 2 4 3 2 4 3 2 4 3 2 4 3 2 4 3 2 4 3 2 4 3 2 4 3 2 4 3 2 4 3 2 4 3 2 4 3 2 4 3 2 4 3 2 4 3 2 4 3 2 4 3 2 4 3 2 4 3 2 4 3 2 4 3 2 4 3 2 4 3 2 4 3 2 4 3 2 4 3 2 4 3 2 4 3 2 4 3 2 4 3 2 4 3 2 4 3 2 4 3 2 4 3 2 4 3 2 4 3 2 4 3 2 4 3 2 4 3 2 4 3 2 4 3 2 4 3 2 4 3 2 4 3 2 4 3 2 4 3 2 4 3 2 4 3 2 4 3 2 4 3 2 4 3 2 4 3 2 4 3 2 4 3 2 4 3 2 4 3 2 4 3 2 4 3 2 4 3 2 4 3 2 4 3 2 4 3 2 4 3 2 4 3 2 4 3 2 4 3 2 4 3 2 4 3 2 4 3 2 4 3 2 4 3 2 4 3 2 4 3 2 4 3 2 4 3 2 4 3 2 4 3 2 4 3 2 4 3 2 4 3 2 4 3 2 4 3 2 4 3 2 4 3 2 4 3 2 4 3 2 4 3 2 4 3 2 4 3 2 4 3 2 4 3 2 4 3 2 4 3 2 4 3 2 4 3 2 4 3 2 4 3 2 4 3 2 4 3 2 4 3 2 4 3 2 4 3 2 4 3 2 4 3 2 4 3 2 4 3 2 4 3 2 4 3 2 4 3 2 4 3 2 4 3 2 4 3 2 4 3 2 4 3 2 4 3 2 4 3 2 4 3 2 4 3 2 4 3 2 4 3 2 4 3 2 4 3 2 4 3 2 4 3 2 4 3 2 4 3 2 4 3 2 4 3 2 4 3 2 4 3 2 4 3 2 4 3 2 4 3 2 4 3 2 4 3 2 4 3 2 4 3 2 4 3 2 4 3 2 4 3 2 4 3 2 4 3 2 4 3 2 4 3 2 4 3 2 4 3 2 4 3 2 4 3 2 4 3 2 4 3 2 4 3 2 4 3 2 4 3 2 4 3 2 4 3 2 4 3 2 4 3 2 4 3 2 4 3 2 4 3 2 4 3 2 4 3 2 4 3 2 4 3 2 4 3 2 4 3 2 4 3 2 4 3 2 4 3 2 4 3 2 4 3 2 4 3 2 4 3 2 4 3 2 4 3 2 4 3 2 4 3 2 4
3 2 4 3 2 4 3 2 4 3 2 4 3 2 4 3 2 4 3 2 4 3 2 4 3 2 4 3 2 4 3 2 4 3 2 4 3 2 4 3 2 4 3 2 4 3 2 4 3 2 4 3 2 4 3 2 4 3 2 4 3 2 4 3 2 4 3 2 4 3 2 4 3 2 4 3 2 4 3 2 4 3 2 4 3 2 4 3 2 4 3 2 4 3 2 4 3 2 4 3 2 4 3 2 4 3 2 4 3 2 4 3 2 4 3 2 4 3 2 4 3 2 4 3 2 4 3 2 4 3 2 4 3 2 4 3 2 4 3 2 4 3 2 4 3 2 4 3 2 4 3 2 4 3 2 4 3 2 4 3 2 4 3 2 4 3 2 4 3 2 4 3 2 4 3 2 4 3 2 4 3 2 4 3 2 4 3 2 4 3 2 4 3 2 4 3 2 4 3 2 4 3 2 4 3 2 4 3 2 4 3 2 4 3 2 4 3 2 4 3 2 4 3 2 4 3 2 4 3 2 4 3 2 4 3 2 4 3 2 4 3 2 4 3 2 4 3 2 4 3 2 4 3 2 4 3 2 4 3 2 4 3 2 4 3 2 4 3 2 4 3 2 4 3 2 4 3 2 4 3 2 4 3 2 4 3 2 4 3 2 4 3 2 4 3 2 4 3 2 4 3 2 4 3 2 4 3 2 4 3 2 4 3 2 4 3 2 4 3 2 4 3 2 4 3 2 4 3 2 4 3 2 4 3 2 4 3 2 4 3 2 4 3 2 4 3 2 4 3 2 4 3 2 4 3 2 4 3 2 4 3 2 4 3 2 4 3 2 4 3 2 4 3 2 4 3 2 4 3 2 4 3 2 4 3 2 4 3 2 4 3 2 4 3 2 4 3 2 4 3 2 4 3 2 4 3 2 4 3 2 4 3 2 4 3 2 4 3 2 4 3 2 4 3 2 4 3 2 4 3 2 4 3 2 4 3 2 4 3 2 4 3 2 4 3 2 4 3 2 4 3 2 4 3 2 4 3 2 4 3 2 4 3 2 4 3 2 4 3 2 4 3 2 4 3 2 4 3 2 4 3 2 4 3 2 4 3 2 4 3 2 4 3 2 4 3 2 4 3 2 4 3 2 4 3 2 4 3 2 4 3 2 4 3 2 4 3 2 4 3 2 4 3 2 4 3 2 4 3 2 4 3 2 4 3 2 4 3 2 4 3 2 4 3 2 4 3 2 4 3 2 4 3 2 4 3 2 4 3 2 4 3 2 4 3 2 4 3 2 4 3 2 4 3 2 4 3 2 4 3 2 4 3 2 4 3 2 4 3 2 4 3 2 4 3 2 4 3 2 4 3 2 4 3 2 4 3 2 4 3 2 4 3 2 4 3 2 4 3 2 4 3 2 4 3 2 4 3 2 4 3 2 4 3 2 4 3 2 4 3 2 4 3 2 4 3 2 4 3 2 4 3 2 4 3 2 4 3 2 4 3 2 4 3 2 4 3 2 4 3 2 4 3 2 4 3 2 4 3 2 4 3 2 4 3 2 4 3 2 4 3 2 4 3 2 4 3 2 4 3 2 4 3 2 4 3 2 4 3 2 4 3 2 4 3 2 4 3 2 4
3 2 4 3 2 4 3 2 4 3 2 4 3 2 4 3 2 4 3 2 4 3 2 4 3 2 4 3 2 4 3 2 4 3 2 4 3 2 4 3 2 4 3 2 4 3 2 4 3 2 4 3 2 4 3 2 4 3 2 4 3 2 4 3 2 4 3 2 4 3 2 4 3 2 4 3 2 4 3 2 4 3 2 4 3 2 4 3 2 4 3 2 4 3 2 4 3 2 4 3 2 4 3 2 4 3 2 4 3 2 4 3 2 4 3 2 4 3 2 4 3 2 4 3 2 4 3 2 4 3 2 4 3 2 4 3 2 4 3 2 4 3 2 4 3 2 4 3 2 4 3 2 4 3 2 4 3 2 4 3 2 4 3 2 4 3 2 4 3 2 4 3 2 4 3 2 4 3 2 4 3 2 4 3 2 4 3 2 4 3 2 4 3 2 4 3 2 4 3 2 4 3 2 4 3 2 4 3 2 4 3 2 4 3 2 4 3 2 4 3 2 4 3 2 4 3 2 4 3 2 4 3 2 4 3 2 4 3 2 4 3 2 4 3 2 4 3 2 4 3 2 4 3 2 4 3 2 4 3 2 4 3 2 4 3 2 4 3 2 4 3 2 4 3 2 4 3 2 4 3 2 4 3 2 4 3 2 4 3 2 4 3 2 4 3 2 4 3 2 4 3 2 4 3 2 4 3 2 4 3 2 4 3 2 4 3 2 4 3 2 4 3 2 4 3 2 4 3 2 4 3 2 4 3 2 4 3 2 4 3 2 4 3 2 4 3 2 4 3 2 4 3 2 4 3 2 4 3 2 4 3 2 4 3 2 4 3 2 4 3 2 4 3 2 4 3 2 4 3 2 4 3 2 4 3 2 4 3 2 4 3 2 4 3 2 4 3 2 4 3 2 4 3 2 4 3 2 4 3 2 4 3 2 4 3 2 4 3 2 4 3 2 4 3 2 4 3 2 4 3 2 4 3 2 4 3 2 4 3 2 4 3 2 4 3 2 4 3 2 4 3 2 4 3 2 4 3 2 4 3 2 4 3 2 4 3 2 4 3 2 4 3 2 4 3 2 4 3 2 4 3 2 4 3 2 4 3 2 4 3 2 4 3 2 4 3 2 4 3 2 4 3 2 4 3 2 4 3 2 4 3 2 4 3 2 4 3 2 4 3 2 4 3 2 4 3 2 4 3 2 4 3 2 4 3 2 4 3 2 4 3 2 4 3 2 4 3 2 4 3 2 4 3 2 4 3 2 4 3 2 4 3 2 4 3 2 4 3 2 4 3 2 4 3 2 4 3 2 4 3 2 4 3 2 4 3 2 4 3 2 4 3 2 4 3 2 4 3 2 4 3 2 4 3 2 4 3 2 4 3 2 4 3 2 4 3 2 4 3 2 4 3 2 4 3 2 4 3 2 4 3 2 4 3 2 4 3 2 4 3 2 4 3 2 4 3 2 4 3 2 4 3 2 4 3 2 4 3 2 4 3 2 4 3 2 4 3 2 4 3 2 4 3 2 4 3 2 4 3 2 4 3 2 4 3 2 4 3 2 4 3 2 4 3 2 4 3 2 4 3 2 4 3 2 4 3 2 4 3 2 4 3 2 4 3 2 4 3 2 4
3 2 4 3 2 4 3 2 4 3 2 4 3 2 4 3 2 4 3 2 4 3 2 4 3 2 4 3 2 4 3 2 4 3 2 4 3 2 4 3 2 4 3 2 4 3 2 4 3 2 4 3 2 4 3 2 4 3 2 4 3 2 4 3 2 4 3 2 4 3 2 4 3 2 4 3 2 4 3 2 4 3 2 4 3 2 4 3 2 4 3 2 4 3 2 4 3 2 4 3 2 4 3 2 4 3 2 4 3 2 4 3 2 4 3 2 4 3 2 4 3 2 4 3 2 4 3 2 4 3 2 4 3 2 4 3 2 4 3 2 4 3 2 4 3 2 4 3 2 4 3 2 4 3 2 4 3 2 4 3 2 4 3 2 4 3 2 4 3 2 4 3 2 4 3 2 4 3 2 4 3 2 4 3 2 4 3 2 4 3 2 4 3 2 4 3 2 4 3 2 4 3 2 4 3 2 4 3 2 4 3 2 4 3 2 4 3 2 4 3 2 4 3 2 4 3 2 4 3 2 4 3 2 4 3 2 4 3 2 4 3 2 4 3 2 4 3 2 4 3 2 4 3 2 4 3 2 4 3 2 4 3 2 4 3 2 4 3 2 4 3 2 4 3 2 4 3 2 4 3 2 4 3 2 4 3 2 4 3 2 4 3 2 4 3 2 4 3 2 4 3 2 4 3 2 4 3 2 4 3 2 4 3 2 4 3 2 4 3 2 4 3 2 4 3 2 4 3 2 4 3 2 4 3 2 4 3 2 4 3 2 4 3 2 4 3 2 4 3 2 4 3 2 4 3 2 4 3 2 4 3 2 4 3 2 4 3 2 4 3 2 4 3 2 4 3 2 4 3 2 4 3 2 4 3 2 4 3 2 4 3 2 4 3 2 4 3 2 4 3 2 4 3 2 4 3 2 4 3 2 4 3 2 4 3 2 4 3 2 4 3 2 4 3 2 4 3 2 4 3 2 4 3 2 4 3 2 4 3 2 4 3 2 4 3 2 4 3 2 4 3 2 4 3 2 4 3 2 4 3 2 4 3 2 4 3 2 4 3 2 4 3 2 4 3 2 4 3 2 4 3 2 4 3 2 4 3 2 4 3 2 4 3 2 4 3 2 4 3 2 4 3 2 4 3 2 4 3 2 4 3 2 4 3 2 4 3 2 4 3 2 4 3 2 4 3 2 4 3 2 4 3 2 4 3 2 4 3 2 4 3 2 4 3 2 4 3 2 4 3 2 4 3 2 4 3 2 4 3 2 4 3 2 4 3 2 4 3 2 4 3 2 4 3 2 4 3 2 4 3 2 4 3 2 4 3 2 4 3 2 4 3 2 4 3 2 4 3 2 4 3 2 4 3 2 4 3 2 4 3 2 4 3 2 4 3 2 4 3 2 4 3 2 4 3 2 4 3 2 4 3 2 4 3 2 4 3 2 4 3 2 4 3 2 4 3 2 4 3 2 4 3 2 4 3 2 4 3 2 4 3 2 4 3 2 4 3 2 4 3 2 4 3 2 4 3 2 4 3 2 4 3 2 4 3 2 4 3 2 4 3 2 4 3 2 4 3 2 4 3 2 4 3 2 4 3 2 4 3 2 4 3 2 4 3 2 4 3 2 4
3 2 4 3 2 4 3 2 4 3 2 4 3 2 4 3 2 4 3 2 4 3 2 4 3 2 4 3 2 4 3 2 4 3 2 4 3 2 4 3 2 4 3 2 4 3 2 4 3 2 4 3 2 4 3 2 4 3 2 4 3 2 4 3 2 4 3 2 4 3 2 4 3 2 4 3 2 4 3 2 4 3 2 4 3 2 4 3 2 4 3 2 4 3 2 4 3 2 4 3 2 4 3 2 4 3 2 4 3 2 4 3 2 4 3 2 4 3 2 4 3 2 4 3 2 4 3 2 4 3 2 4 3 2 4 3 2 4 3 2 4 3 2 4 3 2 4 3 2 4 3 2 4 3 2 4 3 2 4 3 2 4 3 2 4 3 2 4 3 2 4 3 2 4 3 2 4 3 2 4 3 2 4 3 2 4 3 2 4 3 2 4 3 2 4 3 2 4 3 2 4 3 2 4 3 2 4 3 2 4 3 2 4 3 2 4 3 2 4 3 2 4 3 2 4 3 2 4 3 2 4 3 2 4 3 2 4 3 2 4 3 2 4 3 2 4 3 2 4 3 2 4 3 2 4 3 2 4 3 2 4 3 2 4 3 2 4 3 2 4 3 2 4 3 2 4 3 2 4 3 2 4 3 2 4 3 2 4 3 2 4 3 2 4 3 2 4 3 2 4 3 2 4 3 2 4 3 2 4 3 2 4 3 2 4 3 2 4 3 2 4 3 2 4 3 2 4 3 2 4 3 2 4 3 2 4 3 2 4 3 2 4 3 2 4 3 2 4 3 2 4 3 2 4 3 2 4 3 2 4 3 2 4 3 2 4 3 2 4 3 2 4 3 2 4 3 2 4 3 2 4 3 2 4 3 2 4 3 2 4 3 2 4 3 2 4 3 2 4 3 2 4 3 2 4 3 2 4 3 2 4 3 2 4 3 2 4 3 2 4 3 2 4 3 2 4 3 2 4 3 2 4 3 2 4 3 2 4 3 2 4 3 2 4 3 2 4 3 2 4 3 2 4 3 2 4 3 2 4 3 2 4 3 2 4 3 2 4 3 2 4 3 2 4 3 2 4 3 2 4 3 2 4 3 2 4 3 2 4 3 2 4 3 2 4 3 2 4 3 2 4 3 2 4 3 2 4 3 2 4 3 2 4 3 2 4 3 2 4 3 2 4 3 2 4 3 2 4 3 2 4 3 2 4 3 2 4 3 2 4 3 2 4 3 2 4 3 2 4 3 2 4 3 2 4 3 2 4 3 2 4 3 2 4 3 2 4 3 2 4 3 2 4 3 2 4 3 2 4 3 2 4 3 2 4 3 2 4 3 2 4 3 2 4 3 2 4 3 2 4 3 2 4 3 2 4 3 2 4 3 2 4 3 2 4 3 2 4 3 2 4 3 2 4 3 2 4 3 2 4 3 2 4 3 2 4 3 2 4 3 2 4 3 2 4 3 2 4 3 2 4 3 2 4 3 2 4 3 2 4 3 2 4 3 2 4 3 2 4 3 2 4 3 2 4 3 2 4 3 2 4 3 2 4 3 2 4 3 2 4 3 2 4 3 2 4 3 2 4 3 2 4 3 2 4 3 2 4 3 2 4 3 2 4 3 2 4 3 2 4
3 2 4 3 2 4 3 2 4 3 2 4 3 2 4 3 2 4 3 2 4 3 2 4 3 2 4 3 2 4 3 2 4 3 2 4 3 2 4 3 2 4 3 2 4 3 2 4 3 2 4 3 2 4 3 2 4 3 2 4 3 2 4 3 2 4 3 2 4 3 2 4 3 2 4 3 2 4 3 2 4 3 2 4 3 2 4 3 2 4 3 2 4 3 2 4 3 2 4 3 2 4 3 2 4 3 2 4 3 2 4 3 2 4 3 2 4 3 2 4 3 2 4 3 2 4 3 2 4 3 2 4 3 2 4 3 2 4 3 2 4 3 2 4 3 2 4 3 2 4 3 2 4 3 2 4 3 2 4 3 2 4 3 2 4 3 2 4 3 2 4 3 2 4 3 2 4 3 2 4 3 2 4 3 2 4 3 2 4 3 2 4 3 2 4 3 2 4 3 2 4 3 2 4 3 2 4 3 2 4 3 2 4 3 2 4 3 2 4 3 2 4 3 2 4 3 2 4 3 2 4 3 2 4 3 2 4 3 2 4 3 2 4 3 2 4 3 2 4 3 2 4 3 2 4 3 2 4 3 2 4 3 2 4 3 2 4 3 2 4 3 2 4 3 2 4 3 2 4 3 2 4 3 2 4 3 2 4 3 2 4 3 2 4 3 2 4 3 2 4 3 2 4 3 2 4 3 2 4 3 2 4 3 2 4 3 2 4 3 2 4 3 2 4 3 2 4 3 2 4 3 2 4 3 2 4 3 2 4 3 2 4 3 2 4 3 2 4 3 2 4 3 2 4 3 2 4 3 2 4 3 2 4 3 2 4 3 2 4 3 2 4 3 2 4 3 2 4 3 2 4 3 2 4 3 2 4 3 2 4 3 2 4 3 2 4 3 2 4 3 2 4 3 2 4 3 2 4 3 2 4 3 2 4 3 2 4 3 2 4 3 2 4 3 2 4 3 2 4 3 2 4 3 2 4 3 2 4 3 2 4 3 2 4 3 2 4 3 2 4 3 2 4 3 2 4 3 2 4 3 2 4 3 2 4 3 2 4 3 2 4 3 2 4 3 2 4 3 2 4 3 2 4 3 2 4 3 2 4 3 2 4 3 2 4 3 2 4 3 2 4 3 2 4 3 2 4 3 2 4 3 2 4 3 2 4 3 2 4 3 2 4 3 2 4 3 2 4 3 2 4 3 2 4 3 2 4 3 2 4 3 2 4 3 2 4 3 2 4 3 2 4 3 2 4 3 2 4 3 2 4 3 2 4 3 2 4 3 2 4 3 2 4 3 2 4 3 2 4 3 2 4 3 2 4 3 2 4 3 2 4 3 2 4 3 2 4 3 2 4 3 2 4 3 2 4 3 2 4 3 2 4 3 2 4 3 2 4 3 2 4 3 2 4 3 2 4 3 2 4 3 2 4 3 2 4 3 2 4 3 2 4 3 2 4 3 2 4 3 2 4 3 2 4 3 2 4 3 2 4 3 2 4 3 2 4 3 2 4 3 2 4 3 2 4 3 2 4 3 2 4 3 2 4 3 2 4 3 2 4 3 2 4 3 2 4 3 2 4 3 2 4 3 2 4 3 2 4 3 2 4 3 2 4 3 2 4 3 2 4
3 2 4 3 2 4 3 2 4 3 2 4 3 2 4 3 2 4 3 2 4 3 2 4 3 2 4 3 2 4 3 2 4 3 2 4 3 2 4 3 2 4 3 2 4 3 2 4 3 2 4 3 2 4 3 2 4 3 2 4 3 2 4 3 2 4 3 2 4 3 2 4 3 2 4 3 2 4 3 2 4 3 2 4 3 2 4 3 2 4 3 2 4 3 2 4 3 2 4 3 2 4 3 2 4 3 2 4 3 2 4 3 2 4 3 2 4 3 2 4 3 2 4 3 2 4 3 2 4 3 2 4 3 2 4 3 2 4 3 2 4 3 2 4 3 2 4 3 2 4 3 2 4 3 2 4 3 2 4 3 2 4 3 2 4 3 2 4 3 2 4 3 2 4 3 2 4 3 2 4 3 2 4 3 2 4 3 2 4 3 2 4 3 2 4 3 2 4 3 2 4 3 2 4 3 2 4 3 2 4 3 2 4 3 2 4 3 2 4 3 2 4 3 2 4 3 2 4 3 2 4 3 2 4 3 2 4 3 2 4 3 2 4 3 2 4 3 2 4 3 2 4 3 2 4 3 2 4 3 2 4 3 2 4 3 2 4 3 2 4 3 2 4 3 2 4 3 2 4 3 2 4 3 2 4 3 2 4 3 2 4 3 2 4 3 2 4 3 2 4 3 2 4 3 2 4 3 2 4 3 2 4 3 2 4 3 2 4 3 2 4 3 2 4 3 2 4 3 2 4 3 2 4 3 2 4 3 2 4 3 2 4 3 2 4 3 2 4 3 2 4 3 2 4 3 2 4 3 2 4 3 2 4 3 2 4 3 2 4 3 2 4 3 2 4 3 2 4 3 2 4 3 2 4 3 2 4 3 2 4 3 2 4 3 2 4 3 2 4 3 2 4 3 2 4 3 2 4 3 2 4 3 2 4 3 2 4 3 2 4 3 2 4 3 2 4 3 2 4 3 2 4 3 2 4 3 2 4 3 2 4 3 2 4 3 2 4 3 2 4 3 2 4 3 2 4 3 2 4 3 2 4 3 2 4 3 2 4 3 2 4 3 2 4 3 2 4 3 2 4 3 2 4 3 2 4 3 2 4 3 2 4 3 2 4 3 2 4 3 2 4 3 2 4 3 2 4 3 2 4 3 2 4 3 2 4 3 2 4 3 2 4 3 2 4 3 2 4 3 2 4 3 2 4 3 2 4 3 2 4 3 2 4 3 2 4 3 2 4 3 2 4 3 2 4 3 2 4 3 2 4 3 2 4 3 2 4 3 2 4 3 2 4 3 2 4 3 2 4 3 2 4 3 2 4 3 2 4 3 2 4 3 2 4 3 2 4 3 2 4 3 2 4 3 2 4 3 2 4 3 2 4 3 2 4 3 2 4 3 2 4 3 2 4 3 2 4 3 2 4 3 2 4 3 2 4 3 2 4 3 2 4 3 2 4 3 2 4 3 2 4 3 2 4 3 2 4 3 2 4 3 2 4 3 2 4 3 2 4 3 2 4 3 2 4 3 2 4 3 2 4 3 2 4 3 2 4 3 2 4 3 2 4 3 2 4 3 2 4 3 2 4 3 2 4 3 2 4 3 2 4 3 2 4 3 2 4 3 2 4
3 2 4 3 2 4 3 2 4 3 2 4 3 2 4 3 2 4 3 2 4 3 2 4 3 2 4 3 2 4 3 2 4 3 2 4 3 2 4 3 2 4 3 2 4 3 2 4 3 2 4 3 2 4 3 2 4 3 2 4 3 2 4 3 2 4 3 2 4 3 2 4 3 2 4 3 2 4 3 2 4 3 2 4 3 2 4 3 2 4 3 2 4 3 2 4 3 2 4 3 2 4 3 2 4 3 2 4 3 2 4 3 2 4 3 2 4 3 2 4 3 2 4 3 2 4 3 2 4 3 2 4 3 2 4 3 2 4 3 2 4 3 2 4 3 2 4 3 2 4 3 2 4 3 2 4 3 2 4 3 2 4 3 2 4 3 2 4 3 2 4 3 2 4 3 2 4 3 2 4 3 2 4 3 2 4 3 2 4 3 2 4 3 2 4 3 2 4 3 2 4 3 2 4 3 2 4 3 2 4 3 2 4 3 2 4 3 2 4 3 2 4 3 2 4 3 2 4 3 2 4 3 2 4 3 2 4 3 2 4 3 2 4 3 2 4 3 2 4 3 2 4 3 2 4 3 2 4 3 2 4 3 2 4 3 2 4 3 2 4 3 2 4 3 2 4 3 2 4 3 2 4 3 2 4 3 2 4 3 2 4 3 2 4 3 2 4 3 2 4 3 2 4 3 2 4 3 2 4 3 2 4 3 2 4 3 2 4 3 2 4 3 2 4 3 2 4 3 2 4 3 2 4 3 2 4 3 2 4 3 2 4 3 2 4 3 2 4 3 2 4 3 2 4 3 2 4 3 2 4 3 2 4 3 2 4 3 2 4 3 2 4 3 2 4 3 2 4 3 2 4 3 2 4 3 2 4 3 2 4 3 2 4 3 2 4 3 2 4 3 2 4 3 2 4 3 2 4 3 2 4 3 2 4 3 2 4 3 2 4 3 2 4 3 2 4 3 2 4 3 2 4 3 2 4 3 2 4 3 2 4 3 2 4 3 2 4 3 2 4 3 2 4 3 2 4 3 2 4 3 2 4 3 2 4 3 2 4 3 2 4 3 2 4 3 2 4 3 2 4 3 2 4 3 2 4 3 2 4 3 2 4 3 2 4 3 2 4 3 2 4 3 2 4 3 2 4 3 2 4 3 2 4 3 2 4 3 2 4 3 2 4 3 2 4 3 2 4 3 2 4 3 2 4 3 2 4 3 2 4 3 2 4 3 2 4 3 2 4 3 2 4 3 2 4 3 2 4 3 2 4 3 2 4 3 2 4 3 2 4 3 2 4 3 2 4 3 2 4 3 2 4 3 2 4 3 2 4 3 2 4 3 2 4 3 2 4 3 2 4 3 2 4 3 2 4 3 2 4 3 2 4 3 2 4 3 2 4 3 2 4 3 2 4 3 2 4 3 2 4 3 2 4 3 2 4 3 2 4 3 2 4 3 2 4 3 2 4 3 2 4 3 2 4 3 2 4 3 2 4 3 2 4 3 2 4 3 2 4 3 2 4 3 2 4 3 2 4 3 2 4 3 2 4 3 2 4 3 2 4 3 2 4 3 2 4 3 2 4 3 2 4 3 2 4 3 2 4 3 2 4 3 2 4 3 2 4 3 2 4
3 2 4 3 2 4 3 2 4 3 2 4 3 2 4 3 2 4 3 2 4 3 2 4 3 2 4 3 2 4 3 2 4 3 2 4 3 2 4 3 2 4 3 2 4 3 2 4 3 2 4 3 2 4 3 2 4 3 2 4 3 2 4 3 2 4 3 2 4 3 2 4 3 2 4 3 2 4 3 2 4 3 2 4 3 2 4 3 2 4 3 2 4 3 2 4 3 2 4 3 2 4 3 2 4 3 2 4 3 2 4 3 2 4 3 2 4 3 2 4 3 2 4 3 2 4 3 2 4 3 2 4 3 2 4 3 2 4 3 2 4 3 2 4 3 2 4 3 2 4 3 2 4 3 2 4 3 2 4 3 2 4 3 2 4 3 2 4 3 2 4 3 2 4 3 2 4 3 2 4 3 2 4 3 2 4 3 2 4 3 2 4 3 2 4 3 2 4 3 2 4 3 2 4 3 2 4 3 2 4 3 2 4 3 2 4 3 2 4 3 2 4 3 2 4 3 2 4 3 2 4 3 2 4 3 2 4 3 2 4 3 2 4 3 2 4 3 2 4 3 2 4 3 2 4 3 2 4 3 2 4 3 2 4 3 2 4 3 2 4 3 2 4 3 2 4 3 2 4 3 2 4 3 2 4 3 2 4 3 2 4 3 2 4 3 2 4 3 2 4 3 2 4 3 2 4 3 2 4 3 2 4 3 2 4 3 2 4 3 2 4 3 2 4 3 2 4 3 2 4 3 2 4 3 2 4 3 2 4 3 2 4 3 2 4 3 2 4 3 2 4 3 2 4 3 2 4 3 2 4 3 2 4 3 2 4 3 2 4 3 2 4 3 2 4 3 2 4 3 2 4 3 2 4 3 2 4 3 2 4 3 2 4 3 2 4 3 2 4 3 2 4 3 2 4 3 2 4 3 2 4 3 2 4 3 2 4 3 2 4 3 2 4 3 2 4 3 2 4 3 2 4 3 2 4 3 2 4 3 2 4 3 2 4 3 2 4 3 2 4 3 2 4 3 2 4 3 2 4 3 2 4 3 2 4 3 2 4 3 2 4 3 2 4 3 2 4 3 2 4 3 2 4 3 2 4 3 2 4 3 2 4 3 2 4 3 2 4 3 2 4 3 2 4 3 2 4 3 2 4 3 2 4 3 2 4 3 2 4 3 2 4 3 2 4 3 2 4 3 2 4 3 2 4 3 2 4 3 2 4 3 2 4 3 2 4 3 2 4 3 2 4 3 2 4 3 2 4 3 2 4 3 2 4 3 2 4 3 2 4 3 2 4 3 2 4 3 2 4 3 2 4 3 2 4 3 2 4 3 2 4 3 2 4 3 2 4 3 2 4 3 2 4 3 2 4 3 2 4 3 2 4 3 2 4 3 2 4 3 2 4 3 2 4 3 2 4 3 2 4 3 2 4 3 2 4 3 2 4 3 2 4 3 2 4 3 2 4 3 2 4 3 2 4 3 2 4 3 2 4 3 2 4 3 2 4 3 2 4 3 2 4 3 2 4 3 2 4 3 2 4 3 2 4 3 2 4 3 2 4 3 2 4 3 2 4 3 2 4 3 2 4 3 2 4 3 2 4 3 2 4 3 2 4 3 2 4 3 2 4
224 48 1 224 48 1 224 48 1 224 48 1 224 48 1 224 48 1 224 48 1 224 48 1 224 48 1 224 48 1 224 48 1 224 48 1 224 48 1 224 48 1 224 48 1 224 48 1 224 48 1 224 48 1 224 48 1 224 48 1 224 48 1 224 48 1 224 48 1 224 48 1 224 48 1 224 48 1 224 48 1 224 48 1 224 48 1 224 48 1 224 48 1 224 48 1 224 48 1 224 48 1 224 48 1 224 48 1 224 48 1 224 48 1 224 48 1 224 48 1 224 48 1 224 48 1 224 48 1 224 48 1 224 48 1 224 48 1 224 48 1 224 48 1 224 48 1 224 48 1 224 48 1 224 48 1 224 48 1 224 48 1 224 48 1 224 48 1 224 48 1 224 48 1 224 48 1 224 48 1 224 48 1 224 48 1 224 48 1 224 48 1 224 48 1 224 48 1 224 48 1 224 48 1 224 48 1 224 48 1 224 48 1 224 48 1 224 48 1 224 48 1 224 48 1 224 48 1 224 48 1 224 48 1 224 48 1 224 48 1 224 48 1 224 48 1 224 48 1 224 48 1 224 48 1 224 48 1 224 48 1 224 48 1 224 48 1 224 48 1 224 48 1 224 48 1 224 48 1 224 48 1 224 48 1 224 48 1 224 48 1 224 48 1 224 48 1 224 48 1 224 48 1 224 48 1 224 48 1 224 48 1 224 48 1 224 48 1 224 48 1 224 48 1 224 48 1 224 48 1 224 48 1 224 48 1 224 48 1 224 48 1 224 48 1 224 48 1 224 48 1 224 48 1 224 48 1 224 48 1 224 48 1 224 48 1 224 48 1 224 48 1 224 48 1 224 48 1 224 48 1 224 48 1 224 48 1 224 48 1 224 48 1 224 48 1 224 48 1 224 48 1 224 48 1 224 48 1 224 48 1 224 48 1 224 48 1 224 48 1 224 48 1 224 48 1 224 48 1 224 48 1 224 48 1 224 48 1 224 48 1 224 48 1 224 48 1 224 48 1 224 48 1 224 48 1 224 48 1 224 48 1 224 48 1 224 48 1 224 48 1 224 48 1 224 48 1 224 48 1 224 48 1 224 48 1 224 48 1 224 48 1 224 48 1 224 48 1 224 48 1 224 48 1 224 48 1 224 48 1 224 48 1 224 48 1 224 48 1 224 48 1 224 48 1 224 48 1 224 48 1 224 48 1 224 48 1 224 48 1 224 48 1 224 48 1 224 48 1 224 48 1 224 48 1 224 48 1 224 48 1 224 48 1 224 48 1 224 48 1 224 48 1 224 48 1 224 48 1 224 48 1 224 48 1 224 48 1 224 48 1 224 48 1 224 48 1 224 48 1 224 48 1 224 48 1 224 48 1 224 48 1 224 48 1 224 48 1 224 48 1 224 48 1 224 48 1 224 48 1 224 48 1 224 48 1 224 48 1 224 48 1 224 48 1 224 48 1 224 48 1 224 48 1 224 48 1 224 48 1 224 48 1 224 48 1 224 48 1 224 48 1 224 48 1 224 48 1 224 48 1 224 48 1 224 48 1 224 48 1 224 48 1 224 48 1 224 48 1 224 48 1 224 48 1 224 48 1 224 48 1 224 48 1 224 48 1 224 48 1
224 48 1 224 48 1 224 48 1 224 48 1 224 48 1 224 48 1 224 48 1 224 48 1 224 48 1 224 48 1 224 48 1 224 48 1 224 48 1 224 48 1 224 48 1 224 48 1 224 48 1 224 48 1 224 48 1 224 48 1 224 48 1 224 48 1 224 48 1 224 48 1 224 48 1 224 48 1 224 48 1 224 48 1 224 48 1 224 48 1 224 48 1 224 48 1 224 48 1 224 48 1 224 48 1 224 48 1 224 48 1 224 48 1 224 48 1 224 48 1 224 48 1 224 48 1 224 48 1 224 48 1 224 48 1 224 48 1 224 48 1 224 48 1 224 48 1 224 48 1 224 48 1 224 48 1 224 48 1 224 48 1 224 48 1 224 48 1 224 48 1 224 48 1 224 48 1 224 48 1 224 48 1 224 48 1 224 48 1 224 48 1 224 48 1 224 48 1 224 48 1 224 48 1 224 48 1 224 48 1 224 48 1 224 48 1 224 48 1 224 48 1 224 48 1 224 48 1 224 48 1 224 48 1 224 48 1 224 48 1 224 48 1 224 48 1 224 48 1 224 48 1 224 48 1 224 48 1 224 48 1 224 48 1 224 48 1 224 48 1 224 48 1 224 48 1 224 48 1 224 48 1 224 48 1 224 48 1 224 48 1 224 48 1 224 48 1 224 48 1 224 48 1 224 48 1 224 48 1 224 48 1 224 48 1 224 48 1 224 48 1 224 48 1 224 48 1 224 48 1 224 48 1 224 48 1 224 48 1 224 48 1 224 48 1 224 48 1 224 48 1 224 48 1 224 48 1 224 48 1 224 48 1 224 48 1 224 48 1 224 48 1 224 48 1 224 48 1 224 48 1 224 48 1 224 48 1 224 48 1 224 48 1 224 48 1 224 48 1 224 48 1 224 48 1 224 48 1 224 48 1 224 48 1 224 48 1 224 48 1 224 48 1 224 48 1 224 48 1 224 48 1 224 48 1 224 48 1 224 48 1 224 48 1 224 48 1 224 48 1 224 48 1 224 48 1 224 48 1 224 48 1 224 48 1 224 48 1 224 48 1 224 48 1 224 48 1 224 48 1 224 48 1 224 48 1 224 48 1 224 48 1 224 48 1 224 48 1 224 48 1 224 48 1 224 48 1 224 48 1 224 48 1 224 48 1 224 48 1 224 48 1 224 48 1 224 48 1 224 48 1 224 48 1 224 48 1 224 48 1 224 48 1 224 48 1 224 48 1 224 48 1 224 48 1 224 48 1 224 48 1 224 48 1 224 48 1 224 48 1 224 48 1 224 48 1 224 48 1 224 48 1 224 48 1 224 48 1 224 48 1 224 48 1 224 48 1 224 48 1 224 48 1 224 48 1 224 48 1 224 48 1 224 48 1 224 48 1 224 48 1 224 48 1 224 48 1 224 48 1 224 48 1 224 48 1 224 48 1 224 48 1 224 48 1 224 48 1 224 48 1 224 48 1 224 48 1 224 48 1 224 48 1 224 48 1 224 48 1 224 48 1 224 48 1 224 48 1 224 48 1 224 48 1 224 48 1 224 48 1 224 48 1 224 48 1 224 48 1 224 48 1 224 48 1 224 48 1 224 48 1 224 48 1 224 48 1 224 48 1
224 48 1 224 48 1 224 48 1 224 48 1 224 48 1 224 48 1 224 48 1 224 48 1 224 48 1 224 48 1 224 48 1 224 48 1 224 48 1 224 48 1 224 48 1 224 48 1 224 48 1 224 48 1 224 48 1 224 48 1 224 48 1 224 48 1 224 48 1 224 48 1 224 48 1 224 48 1 224 48 1 224 48 1 224 48 1 224 48 1 224 48 1 224 48 1 224 48 1 224 48 1 224 48 1 224 48 1 224 48 1 224 48 1 224 48 1 224 48 1 224 48 1 224 48 1 224 48 1 224 48 1 224 48 1 224 48 1 224 48 1 224 48 1 224 48 1 224 48 1 224 48 1 224 48 1 224 48 1 224 48 1 224 48 1 224 48 1 224 48 1 224 48 1 224 48 1 224 48 1 224 48 1 224 48 1 224 48 1 224 48 1 224 48 1 224 48 1 224 48 1 224 48 1 224 48 1 224 48 1 224 48 1 224 48 1 224 48 1 224 48 1 224 48 1 224 48 1 224 48 1 224 48 1 224 48 1 224 48 1 224 48 1 224 48 1 224 48 1 224 48 1 224 48 1 224 48 1 224 48 1 224 48 1 224 48 1 224 48 1 224 48 1 224 48 1 224 48 1 224 48 1 224 48 1 224 48 1 224 48 1 224 48 1 224 48 1 224 48 1 224 48 1 224 48 1 224 48 1 224 48 1 224 48 1 224 48 1 224 48 1 224 48 1 224 48 1 224 48 1 224 48 1 224 48 1 224 48 1 224 48 1 224 48 1 224 48 1 224 48 1 224 48 1 224 48 1 224 48 1 224 48 1 224 48 1 224 48 1 224 48 1 224 48 1 224 48 1 224 48 1 224 48 1 224 48 1 224 48 1 224 48 1 224 48 1 224 48 1 224 48 1 224 48 1 224 48 1 224 48 1 224 48 1 224 48 1 224 48 1 224 48 1 224 48 1 224 48 1 224 48 1 224 48 1 224 48 1 224 48 1 224 48 1 224 48 1 224 48 1 224 48 1 224 48 1 224 48 1 224 48 1 224 48 1 224 48 1 224 48 1 224 48 1 224 48 1 224 48 1 224 48 1 224 48 1 224 48 1 224 48 1 224 48 1 224 48 1 224 48 1 224 48 1 224 48 1 224 48 1 224 48 1 224 48 1 224 48 1 224 48 1 224 48 1 224 48 1 224 48 1 224 48 1 224 48 1 224 48 1 224 48 1 224 48 1 224 48 1 224 48 1 224 48 1 224 48 1 224 48 1 224 48 1 224 48 1 224 48 1 224 48 1 224 48 1 224 48 1 224 48 1 224 48 1 224 48 1 224 48 1 224 48 1 224 48 1 224 48 1 224 48 1 224 48 1 224 48 1 224 48 1 224 48 1 224 48 1 224 48 1 224 48 1 224 48 1 224 48 1 224 48 1 224 48 1 224 48 1 224 48 1 224 48 1 224 48 1 224 48 1 224 48 1 224 48 1 224 48 1 224 48 1 224 48 1 224 48 1 224 48 1 224 48 1 224 48 1 224 48 1 224 48 1 224 48 1 224 48 1 224 48 1 224 48 1 224 48 1 224 48 1 224 48 1 224 48 1 224 48 1 224 48 1 224 48 1 224 48 1
224 48 1 224 48 1 224 48 1 224 48 1 224 48 1 224 48 1 224 48 1 224 48 1 224 48 1 224 48 1 224 48 1 224 48 1 224 48 1 224 48 1 224 48 1 224 48 1 224 48 1 224 48 1 224 48 1 224 48 1 224 48 1 224 48 1 224 48 1 224 48 1 224 48 1 224 48 1 224 48 1 224 48 1 224 48 1 224 48 1 224 48 1 224 48 1 224 48 1 224 48 1 224 48 1 224 48 1 224 48 1 224 48 1 224 48 1 224 48 1 224 48 1 224 48 1 224 48 1 224 48 1 224 48 1 224 48 1 224 48 1 224 48 1 224 48 1 224 48 1 224 48 1 224 48 1 224 48 1 224 48 1 224 48 1 224 48 1 224 48 1 224 48 1 224 48 1 224 48 1 224 48 1 224 48 1 224 48 1 224 48 1 224 48 1 224 48 1 224 48 1 224 48 1 224 48 1 224 48 1 224 48 1 224 48 1 224 48 1 224 48 1 224 48 1 224 48 1 224 48 1 224 48 1 224 48 1 224 48 1 224 48 1 224 48 1 224 48 1 224 48 1 224 48 1 224 48 1 224 48 1 224 48 1 224 48 1 224 48 1 224 48 1 224 48 1 224 48 1 224 48 1 224 48 1 224 48 1 224 48 1 224 48 1 224 48 1 224 48 1 224 48 1 224 48 1 224 48 1 224 48 1 224 48 1 224 48 1 224 48 1 224 48 1 224 48 1 224 48 1 224 48 1 224 48 1 224 48 1 224 48 1 224 48 1 224 48 1 224 48 1 224 48 1 224 48 1 224 48 1 224 48 1 224 48 1 224 48 1 224 48 1 224 48 1 224 48 1 224 48 1 224 48 1 224 48 1 224 48 1 224 48 1 224 48 1 224 48 1 224 48 1 224 48 1 224 48 1 224 48 1 224 48 1 224 48 1 224 48 1 224 48 1 224 48 1 224 48 1 224 48 1 224 48 1 224 48 1 224 48 1 224 48 1 224 48 1 224 48 1 224 48 1 224 48 1 224 48 1 224 48 1 224 48 1 224 48 1 224 48 1 224 48 1 224 48 1 224 48 1 224 48 1 224 48 1 224 48 1 224 48 1 224 48 1 224 48 1 224 48 1 224 48 1 224 48 1 224 48 1 224 48 1 224 48 1 224 48 1 224 48 1 224 48 1 224 48 1 224 48 1 224 48 1 224 48 1 224 48 1 224 48 1 224 48 1 224 48 1 224 48 1 224 48 1 224 48 1 224 48 1 224 48 1 224 48 1 224 48 1 224 48 1 224 48 1 224 48 1 224 48 1 224 48 1 224 48 1 224 48 1 224 48 1 224 48 1 224 48 1 224 48 1 224 48 1 224 48 1 224 48 1 224 48 1 224 48 1 224 48 1 224 48 1 224 48 1 224 48 1 224 48 1 224 48 1 224 48 1 224 48 1 224 48 1 224 48 1 224 48 1 224 48 1 224 48 1 224 48 1 224 48 1 224 48 1 224 48 1 224 48 1 224 48 1 224 48 1 224 48 1 224 48 1 224 48 1 224 48 1 224 48 1 224 48 1 224 48 1 224 48 1 224 48 1 224 48 1 224 48 1 224 48 1 224 48 1 224 48 1
224 48 1 224 48 1 224 48 1 224 48 1 224 48 1 224 48 1 224 48 1 224 48 1 224 48 1 224 48 1 224 48 1 224 48 1 224 48 1 224 48 1 224 48 1 224 48 1 224 48 1 224 48 1 224 48 1 224 48 1 224 48 1 224 48 1 224 48 1 224 48 1 224 48 1 224 48 1 224 48 1 224 48 1 224 48 1 224 48 1 224 48 1 224 48 1 224 48 1 224 48 1 224 48 1 224 48 1 224 48 1 224 48 1 224 48 1 224 48 1 224 48 1 224 48 1 224 48 1 224 48 1 224 48 1 224 48 1 224 48 1 224 48 1 224 48 1 224 48 1 224 48 1 224 48 1 224 48 1 224 48 1 224 48 1 224 48 1 224 48 1 224 48 1 224 48 1 224 48 1 224 48 1 224 48 1 224 48 1 224 48 1 224 48 1 224 48 1 224 48 1 224 48 1 224 48 1 224 48 1 224 48 1 224 48 1 224 48 1 224 48 1 224 48 1 224 48 1 224 48 1 224 48 1 224 48 1 224 48 1 224 48 1 224 48 1 224 48 1 224 48 1 224 48 1 224 48 1 224 48 1 224 48 1 224 48 1 224 48 1 224 48 1 224 48 1 224 48 1 224 48 1 224 48 1 224 48 1 224 48 1 224 48 1 224 48 1 224 48 1 224 48 1 224 48 1 224 48 1 224 48 1 224 48 1 224 48 1 224 48 1 224 48 1 224 48 1 224 48 1 224 48 1 224 48 1 224 48 1 224 48 1 224 48 1 224 48 1 224 48 1 224 48 1 224 48 1 224 48 1 224 48 1 224 48 1 224 48 1 224 48 1 224 48 1 224 48 1 224 48 1 224 48 1 224 48 1 224 48 1 224 48 1 224 48 1 224 48 1 224 48 1 224 48 1 224 48 1 224 48 1 224 48 1 224 48 1 224 48 1 224 48 1 224 48 1 224 48 1 224 48 1 224 48 1 224 48 1 224 48 1 224 48 1 224 48 1 224 48 1 224 48 1 224 48 1 224 48 1 224 48 1 224 48 1 224 48 1 224 48 1 224 48 1 224 48 1 224 48 1 224 48 1 224 48 1 224 48 1 224 48 1 224 48 1 224 48 1 224 48 1 224 48 1 224 48 1 224 48 1 224 48 1 224 48 1 224 48 1 224 48 1 224 48 1 224 48 1 224 48 1 224 48 1 224 48 1 224 48 1 224 48 1 224 48 1 224 48 1 224 48 1 224 48 1 224 48 1 224 48 1 224 48 1 224 48 1 224 48 1 224 48 1 224 48 1 224 48 1 224 48 1 224 48 1 224 48 1 224 48 1 224 48 1 224 48 1 224 48 1 224 48 1 224 48 1 224 48 1 224 48 1 224 48 1 224 48 1 224 48 1 224 48 1 224 48 1 224 48 1 224 48 1 224 48 1 224 48 1 224 48 1 224 48 1 224 48 1 224 48 1 224 48 1 224 48 1 224 48 1 224 48 1 224 48 1 224 48 1 224 48 1 224 48 1 224 48 1 224 48 1 224 48 1 224 48 1 224 48 1 224 48 1 224 48 1 224 48 1 224 48 1 224 48 1 224 48 1 224 48 1 224 48 1 224 48 1 224 48 1
224 48 1 224 48 1 224 48 1 224 48 1 224 48 1 224 48 1 224 48 1 224 48 1 224 48 1 224 48 1 224 48 1 224 48 1 224 48 1 224 48 1 224 48 1 224 48 1 224 48 1 224 48 1 224 48 1 224 48 1 224 48 1 224 48 1 224 48 1 224 48 1 224 48 1 224 48 1 224 48 1 224 48 1 224 48 1 224 48 1 224 48 1 224 48 1 224 48 1 224 48 1 224 48 1 224 48 1 224 48 1 224 48 1 224 48 1 224 48 1 224 48 1 224 48 1 224 48 1 224 48 1 224 48 1 224 48 1 224 48 1 224 48 1 224 48 1 224 48 1 224 48 1 224 48 1 224 48 1 224 48 1 224 48 1 224 48 1 224 48 1 224 48 1 224 48 1 224 48 1 224 48 1 224 48 1 224 48 1 224 48 1 224 48 1 224 48 1 224 48 1 224 48 1 224 48 1 224 48 1 224 48 1 224 48 1 224 48 1 224 48 1 224 48 1 224 48 1 224 48 1 224 48 1 224 48 1 224 48 1 224 48 1 224 48 1 224 48 1 224 48 1 224 48 1 224 48 1 224 48 1 224 48 1 224 48 1 224 48 1 224 48 1 224 48 1 224 48 1 224 48 1 224 48 1 224 48 1 224 48 1 224 48 1 224 48 1 224 48 1 224 48 1 224 48 1 224 48 1 224 48 1 224 48 1 224 48 1 224 48 1 224 48 1 224 48 1 224 48 1 224 48 1 224 48 1 224 48 1 224 48 1 224 48 1 224 48 1 224 48 1 224 48 1 224 48 1 224 48 1 224 48 1 224 48 1 224 48 1 224 48 1 224 48 1 224 48 1 224 48 1 224 48 1 224 48 1 224 48 1 224 48 1 224 48 1 224 48 1 224 48 1 224 48 1 224 48 1 224 48 1 224 48 1 224 48 1 224 48 1 224 48 1 224 48 1 224 48 1 224 48 1 224 48 1 224 48 1 224 48 1 224 48 1 224 48 1 224 48 1 224 48 1 224 48 1 224 48 1 224 48 1 224 48 1 224 48 1 224 48 1 224 48 1 224 48 1 224 48 1 224 48 1 224 48 1 224 48 1 224 48 1 224 48 1 224 48 1 224 48 1 224 48 1 224 48 1 224 48 1 224 48 1 224 48 1 224 48 1 224 48 1 224 48 1 224 48 1 224 48 1 224 48 1 224 48 1 224 48 1 224 48 1 224 48 1 224 48 1 224 48 1 224 48 1 224 48 1 224 48 1 224 48 1 224 48 1 224 48 1 224 48 1 224 48 1 224 48 1 224 48 1 224 48 1 224 48 1 224 48 1 224 48 1 224 48 1 224 48 1 224 48 1 224 48 1 224 48 1 224 48 1 224 48 1 224 48 1 224 48 1 224 48 1 224 48 1 224 48 1 224 48 1 224 48 1 224 48 1 224 48 1 224 48 1 224 48 1 224 48 1 224 48 1 224 48 1 224 48 1 224 48 1 224 48 1 224 48 1 224 48 1 224 48 1 224 48 1 224 48 1 224 48 1 224 48 1 224 48 1 224 48 1 224 48 1 224 48 1 224 48 1 224 48 1 224 48 1 224 48 1 224 48 1 224 48 1 224 48 1
224 48 1 224 48 1 224 48 1 224 48 1 224 48 1 224 48 1 224 48 1 224 48 1 224 48 1 224 48 1 224 48 1 224 48 1 224 48 1 224 48 1 224 48 1 224 48 1 224 48 1 224 48 1 224 48 1 224 48 1 224 48 1 224 48 1 224 48 1 224 48 1 224 48 1 224 48 1 224 48 1 224 48 1 224 48 1 224 48 1 224 48 1 224 48 1 224 48 1 224 48 1 224 48 1 224 48 1 224 48 1 224 48 1 224 48 1 224 48 1 224 48 1 224 48 1 224 48 1 224 48 1 224 48 1 224 48 1 224 48 1 224 48 1 224 48 1 224 48 1 224 48 1 224 48 1 224 48 1 224 48 1 224 48 1 224 48 1 224 48 1 224 48 1 224 48 1 224 48 1 224 48 1 224 48 1 224 48 1 224 48 1 224 48 1 224 48 1 224 48 1 224 48 1 224 48 1 224 48 1 224 48 1 224 48 1 224 48 1 224 48 1 224 48 1 224 48 1 224 48 1 224 48 1 224 48 1 224 48 1 224 48 1 224 48 1 224 48 1 224 48 1 224 48 1 224 48 1 224 48 1 224 48 1 224 48 1 224 48 1 224 48 1 224 48 1 224 48 1 224 48 1 224 48 1 224 48 1 224 48 1 224 48 1 224 48 1 224 48 1 224 48 1 224 48 1 224 48 1 224 48 1 224 48 1 224 48 1 224 48 1 224 48 1 224 48 1 224 48 1 224 48 1 224 48 1 224 48 1 224 48 1 224 48 1 224 48 1 224 48 1 224 48 1 224 48 1 224 48 1 224 48 1 224 48 1 224 48 1 224 48 1 224 48 1 224 48 1 224 48 1 224 48 1 224 48 1 224 48 1 224 48 1 224 48 1 224 48 1 224 48 1 224 48 1 224 48 1 224 48 1 224 48 1 224 48 1 224 48 1 224 48 1 224 48 1 224 48 1 224 48 1 224 48 1 224 48 1 224 48 1 224 48 1 224 48 1 224 48 1 224 48 1 224 48 1 224 48 1 224 48 1 224 48 1 224 48 1 224 48 1 224 48 1 224 48 1 224 48 1 224 48 1 224 48 1 224 48 1 224 48 1 224 48 1 224 48 1 224 48 1 224 48 1 224 48 1 224 48 1 224 48 1 224 48 1 224 48 1 224 48 1 224 48 1 224 48 1 224 48 1 224 48 1 224 48 1 224 48 1 224 48 1 224 48 1 224 48 1 224 48 1 224 48 1 224 48 1 224 48 1 224 48 1 224 48 1 224 48 1 224 48 1 224 48 1 224 48 1 224 48 1 224 48 1 224 48 1 224 48 1 224 48 1 224 48 1 224 48 1 224 48 1 224 48 1 224 48 1 224 48 1 224 48 1 224 48 1 224 48 1 224 48 1 224 48 1 224 48 1 224 48 1 224 48 1 224 48 1 224 48 1 224 48 1 224 48 1 224 48 1 224 48 1 224 48 1 224 48 1 224 48 1 224 48 1 224 48 1 224 48 1 224 48 1 224 48 1 224 48 1 224 48 1 224 48 1 224 48 1 224 48 1 224 48 1 224 48 1 224 48 1 224 48 1 224 48 1 224 48 1 224 48 1 224 48 1 224 48 1
224 48 1 224 48 1 224 48 1 224 48 1 224 48 1 224 48 1 224 48 1 224 48 1 224 48 1 224 48 1 224 48 1 224 48 1 224 48 1 224 48 1 224 48 1 224 48 1 224 48 1 224 48 1 224 48 1 224 48 1 224 48 1 224 48 1 224 48 1 224 48 1 224 48 1 224 48 1 224 48 1 224 48 1 224 48 1 224 48 1 224 48 1 224 48 1 224 48 1 224 48 1 224 48 1 224 48 1 224 48 1 224 48 1 224 48 1 224 48 1 224 48 1 224 48 1 224 48 1 224 48 1 224 48 1 224 48 1 224 48 1 224 48 1 224 48 1 224 48 1 224 48 1 224 48 1 224 48 1 224 48 1 224 48 1 224 48 1 224 48 1 224 48 1 224 48 1 224 48 1 224 48 1 224 48 1 224 48 1 224 48 1 224 48 1 224 48 1 224 48 1 224 48 1 224 48 1 224 48 1 224 48 1 224 48 1 224 48 1 224 48 1 224 48 1 224 48 1 224 48 1 224 48 1 224 48 1 224 48 1 224 48 1 224 48 1 224 48 1 224 48 1 224 48 1 224 48 1 224 48 1 224 48 1 224 48 1 224 48 1 224 48 1 224 48 1 224 48 1 224 48 1 224 48 1 224 48 1 224 48 1 224 48 1 224 48 1 224 48 1 224 48 1 224 48 1 224 48 1 224 48 1 224 48 1 224 48 1 224 48 1 224 48 1 224 48 1 224 48 1 224 48 1 224 48 1 224 48 1 224 48 1 224 48 1 224 48 1 224 48 1 224 48 1 224 48 1 224 48 1 224 48 1 224 48 1 224 48 1 224 48 1 224 48 1 224 48 1 224 48 1 224 48 1 224 48 1 224 48 1 224 48 1 224 48 1 224 48 1 224 48 1 224 48 1 224 48 1 224 48 1 224 48 1 224 48 1 224 48 1 224 48 1 224 48 1 224 48 1 224 48 1 224 48 1 224 48 1 224 48 1 224 48 1 224 48 1 224 48 1 224 48 1 224 48 1 224 48 1 224 48 1 224 48 1 224 48 1 224 48 1 224 48 1 224 48 1 224 48 1 224 48 1 224 48 1 224 48 1 224 48 1 224 48 1 224 48 1 224 48 1 224 48 1 224 48 1 224 48 1 224 48 1 224 48 1 224 48 1 224 48 1 224 48 1 224 48 1 224 48 1 224 48 1 224 48 1 224 48 1 224 48 1 224 48 1 224 48 1 224 48 1 224 48 1 224 48 1 224 48 1 224 48 1 224 48 1 224 48 1 224 48 1 224 48 1 224 48 1 224 48 1 224 48 1 224 48 1 224 48 1 224 48 1 224 48 1 224 48 1 224 48 1 224 48 1 224 48 1 224 48 1 224 48 1 224 48 1 224 48 1 224 48 1 224 48 1 224 48 1 224 48 1 224 48 1 224 48 1 224 48 1 224 48 1 224 48 1 224 48 1 224 48 1 224 48 1 224 48 1 224 48 1 224 48 1 224 48 1 224 48 1 224 48 1 224 48 1 224 48 1 224 48 1 224 48 1 224 48 1 224 48 1 224 48 1 224 48 1 224 48 1 224 48 1 224 48 1 224 48 1 224 48 1 224 48 1 224 48 1
224 48 1 224 48 1 224 48 1 224 48 1 224 48 1 224 48 1 224 48 1 224 48 1 224 48 1 224 48 1 224 48 1 224 48 1 224 48 1 224 48 1 224 48 1 224 48 1 224 48 1 224 48 1 224 48 1 224 48 1 224 48 1 224 48 1 224 48 1 224 48 1 224 48 1 224 48 1 224 48 1 224 48 1 224 48 1 224 48 1 224 48 1 224 48 1 224 48 1 224 48 1 224 48 1 224 48 1 224 48 1 224 48 1 224 48 1 224 48 1 224 48 1 224 48 1 224 48 1 224 48 1 224 48 1 224 48 1 224 48 1 224 48 1 224 48 1 224 48 1 224 48 1 224 48 1 224 48 1 224 48 1 224 48 1 224 48 1 224 48 1 224 48 1 224 48 1 224 48 1 224 48 1 224 48 1 224 48 1 224 48 1 224 48 1 224 48 1 224 48 1 224 48 1 224 48 1 224 48 1 224 48 1 224 48 1 224 48 1 224 48 1 224 48 1 224 48 1 224 48 1 224 48 1 224 48 1 224 48 1 224 48 1 224 48 1 224 48 1 224 48 1 224 48 1 224 48 1 224 48 1 224 48 1 224 48 1 224 48 1 224 48 1 224 48 1 224 48 1 224 48 1 224 48 1 224 48 1 224 48 1 224 48 1 224 48 1 224 48 1 224 48 1 224 48 1 224 48 1 224 48 1 224 48 1 224 48 1 224 48 1 224 48 1 224 48 1 224 48 1 224 48 1 224 48 1 224 48 1 224 48 1 224 48 1 224 48 1 224 48 1 224 48 1 224 48 1 224 48 1 224 48 1 224 48 1 224 48 1 224 48 1 224 48 1 224 48 1 224 48 1 224 48 1 224 48 1 224 48 1 224 48 1 224 48 1 224 48 1 224 48 1 224 48 1 224 48 1 224 48 1 224 48 1 224 48 1 224 48 1 224 48 1 224 48 1 224 48 1 224 48 1 224 48 1 224 48 1 224 48 1 224 48 1 224 48 1 224 48 1 224 48 1 224 48 1 224 48 1 224 48 1 224 48 1 224 48 1 224 48 1 224 48 1 224 48 1 224 48 1 224 48 1 224 48 1 224 48 1 224 48 1 224 48 1 224 48 1 224 48 1 224 48 1 224 48 1 224 48 1 224 48 1 224 48 1 224 48 1 224 48 1 224 48 1 224 48 1 224 48 1 224 48 1 224 48 1 224 48 1 224 48 1 224 48 1 224 48 1 224 48 1 224 48 1 224 48 1 224 48 1 224 48 1 224 48 1 224 48 1 224 48 1 224 48 1 224 48 1 224 48 1 224 48 1 224 48 1 224 48 1 224 48 1 224 48 1 224 48 1 224 48 1 224 48 1 224 48 1 224 48 1 224 48 1 224 48 1 224 48 1 224 48 1 224 48 1 224 48 1 224 48 1 224 48 1 224 48 1 224 48 1 224 48 1 224 48 1 224 48 1 224 48 1 224 48 1 224 48 1 224 48 1 224 48 1 224 48 1 224 48 1 224 48 1 224 48 1 224 48 1 224 48 1 224 48 1 224 48 1 224 48 1 224 48 1 224 48 1 224 48 1 224 48 1 224 48 1 224 48 1 224 48 1 224 48 1 224 48 1
224 48 1 224 48 1 224 48 1 224 48 1 224 48 1 224 48 1 224 48 1 224 48 1 224 48 1 224 48 1 224 48 1 224 48 1 224 48 1 224 48 1 224 48 1 224 48 1 224 48 1 224 48 1 224 48 1 224 48 1 224 48 1 224 48 1 224 48 1 224 48 1 224 48 1 224 48 1 224 48 1 224 48 1 224 48 1 224 48 1 224 48 1 224 48 1 224 48 1 224 48 1 224 48 1 224 48 1 224 48 1 224 48 1 224 48 1 224 48 1 224 48 1 224 48 1 224 48 1 224 48 1 224 48 1 224 48 1 224 48 1 224 48 1 224 48 1 224 48 1 224 48 1 224 48 1 224 48 1 224 48 1 224 48 1 224 48 1 224 48 1 224 48 1 224 48 1 224 48 1 224 48 1 224 48 1 224 48 1 224 48 1 224 48 1 224 48 1 224 48 1 224 48 1 224 48 1 224 48 1 224 48 1 224 48 1 224 48 1 224 48 1 224 48 1 224 48 1 224 48 1 224 48 1 224 48 1 224 48 1 224 48 1 224 48 1 224 48 1 224 48 1 224 48 1 224 48 1 224 48 1 224 48 1 224 48 1 224 48 1 224 48 1 224 48 1 224 48 1 224 48 1 224 48 1 224 48 1 224 48 1 224 48 1 224 48 1 224 48 1 224 48 1 224 48 1 224 48 1 224 48 1 224 48 1 224 48 1 224 48 1 224 48 1 224 48 1 224 48 1 224 48 1 224 48 1 224 48 1 224 48 1 224 48 1 224 48 1 224 48 1 224 48 1 224 48 1 224 48 1 224 48 1 224 48 1 224 48 1 224 48 1 224 48 1 224 48 1 224 48 1 224 48 1 224 48 1 224 48 1 224 48 1 224 48 1 224 48 1 224 48 1 224 48 1 224 48 1 224 48 1 224 48 1 224 48 1 224 48 1 224 48 1 224 48 1 224 48 1 224 48 1 224 48 1 224 48 1 224 48 1 224 48 1 224 48 1 224 48 1 224 48 1 224 48 1 224 48 1 224 48 1 224 48 1 224 48 1 224 48 1 224 48 1 224 48 1 224 48 1 224 48 1 224 48 1 224 48 1 224 48 1 224 48 1 224 48 1 224 48 1 224 48 1 224 48 1 224 48 1 224 48 1 224 48 1 224 48 1 224 48 1 224 48 1 224 48 1 224 48 1 224 48 1 224 48 1 224 48 1 224 48 1 224 48 1 224 48 1 224 48 1 224 48 1 224 48 1 224 48 1 224 48 1 224 48 1 224 48 1 224 48 1 224 48 1 224 48 1 224 48 1 224 48 1 224 48 1 224 48 1 224 48 1 224 48 1 224 48 1 224 48 1 224 48 1 224 48 1 224 48 1 224 48 1 224 48 1 224 48 1 224 48 1 224 48 1 224 48 1 224 48 1 224 48 1 224 48 1 224 48 1 224 48 1 224 48 1 224 48 1 224 48 1 224 48 1 224 48 1 224 48 1 224 48 1 224 48 1 224 48 1 224 48 1 224 48 1 224 48 1 224 48 1 224 48 1 224 48 1 224 48 1 224 48 1 224 48 1 224 48 1 224 48 1 224 48 1 224 48 1 224 48 1 224 48 1 224 48 1
224 48 1 224 48 1 224 48 1 224 48 1 224 48 1 224 48 1 224 48 1 224 48 1 224 48 1 224 48 1 224 48 1 224 48 1 224 48 1 224 48 1 224 48 1 224 48 1 224 48 1 224 48 1 224 48 1 224 48 1 224 48 1 224 48 1 224 48 1 224 48 1 224 48 1 224 48 1 224 48 1 224 48 1 224 48 1 224 48 1 224 48 1 224 48 1 224 48 1 224 48 1 224 48 1 224 48 1 224 48 1 224 48 1 224 48 1 224 48 1 224 48 1 224 48 1 224 48 1 224 48 1 224 48 1 224 48 1 224 48 1 224 48 1 224 48 1 224 48 1 224 48 1 224 48 1 224 48 1 224 48 1 224 48 1 224 48 1 224 48 1 224 48 1 224 48 1 224 48 1 224 48 1 224 48 1 224 48 1 224 48 1 224 48 1 224 48 1 224 48 1 224 48 1 224 48 1 224 48 1 224 48 1 224 48 1 224 48 1 224 48 1 224 48 1 224 48 1 224 48 1 224 48 1 224 48 1 224 48 1 224 48 1 224 48 1 224 48 1 224 48 1 224 48 1 224 48 1 224 48 1 224 48 1 224 48 1 224 48 1 224 48 1 224 48 1 224 48 1 224 48 1 224 48 1 224 48 1 224 48 1 224 48 1 224 48 1 224 48 1 224 48 1 224 48 1 224 48 1 224 48 1 224 48 1 224 48 1 224 48 1 224 48 1 224 48 1 224 48 1 224 48 1 224 48 1 224 48 1 224 48 1 224 48 1 224 48 1 224 48 1 224 48 1 224 48 1 224 48 1 224 48 1 224 48 1 224 48 1 224 48 1 224 48 1 224 48 1 224 48 1 224 48 1 224 48 1 224 48 1 224 48 1 224 48 1 224 48 1 224 48 1 224 48 1 224 48 1 224 48 1 224 48 1 224 48 1 224 48 1 224 48 1 224 48 1 224 48 1 224 48 1 224 48 1 224 48 1 224 48 1 224 48 1 224 48 1 224 48 1 224 48 1 224 48 1 224 48 1 224 48 1 224 48 1 224 48 1 224 48 1 224 48 1 224 48 1 224 48 1 224 48 1 224 48 1 224 48 1 224 48 1 224 48 1 224 48 1 224 48 1 224 48 1 224 48 1 224 48 1 224 48 1 224 48 1 224 48 1 224 48 1 224 48 1 224 48 1 224 48 1 224 48 1 224 48 1 224 48 1 224 48 1 224 48 1 224 48 1 224 48 1 224 48 1 224 48 1 224 48 1 224 48 1 224 48 1 224 48 1 224 48 1 224 48 1 224 48 1 224 48 1 224 48 1 224 48 1 224 48 1 224 48 1 224 48 1 224 48 1 224 48 1 224 48 1 224 48 1 224 48 1 224 48 1 224 48 1 224 48 1 224 48 1 224 48 1 224 48 1 224 48 1 224 48 1 224 48 1 224 48 1 224 48 1 224 48 1 224 48 1 224 48 1 224 48 1 224 48 1 224 48 1 224 48 1 224 48 1 224 48 1 224 48 1 224 48 1 224 48 1 224 48 1 224 48 1 224 48 1 224 48 1 224 48 1 224 48 1 224 48 1 224 48 1 224 48 1 224 48 1 224 48 1 224 48 1 224 48 1
224 48 1 224 48 1 224 48 1 224 48 1 224 48 1 224 48 1 224 48 1 224 48 1 224 48 1 224 48 1 224 48 1 224 48 1 224 48 1 224 48 1 224 48 1 224 48 1 224 48 1 224 48 1 224 48 1 224 48 1 224 48 1 224 48 1 224 48 1 224 48 1 224 48 1 224 48 1 224 48 1 224 48 1 224 48 1 224 48 1 224 48 1 224 48 1 224 48 1 224 48 1 224 48 1 224 48 1 224 48 1 224 48 1 224 48 1 224 48 1 224 48 1 224 48 1 224 48 1 224 48 1 224 48 1 224 48 1 224 48 1 224 48 1 224 48 1 224 48 1 224 48 1 224 48 1 224 48 1 224 48 1 224 48 1 224 48 1 224 48 1 224 48 1 224 48 1 224 48 1 224 48 1 224 48 1 224 48 1 224 48 1 224 48 1 224 48 1 224 48 1 224 48 1 224 48 1 224 48 1 224 48 1 224 48 1 224 48 1 224 48 1 224 48 1 224 48 1 224 48 1 224 48 1 224 48 1 224 48 1 224 48 1 224 48 1 224 48 1 224 48 1 224 48 1 224 48 1 224 48 1 224 48 1 224 48 1 224 48 1 224 48 1 224 48 1 224 48 1 224 48 1 224 48 1 224 48 1 224 48 1 224 48 1 224 48 1 224 48 1 224 48 1 224 48 1 224 48 1 224 48 1 224 48 1 224 48 1 224 48 1 224 48 1 224 48 1 224 48 1 224 48 1 224 48 1 224 48 1 224 48 1 224 48 1 224 48 1 224 48 1 224 48 1 224 48 1 224 48 1 224 48 1 224 48 1 224 48 1 224 48 1 224 48 1 224 48 1 224 48 1 224 48 1 224 48 1 224 48 1 224 48 1 224 48 1 224 48 1 224 48 1 224 48 1 224 48 1 224 48 1 224 48 1 224 48 1 224 48 1 224 48 1 224 48 1 224 48 1 224 48 1 224 48 1 224 48 1 224 48 1 224 48 1 224 48 1 224 48 1 224 48 1 224 48 1 224 48 1 224 48 1 224 48 1 224 48 1 224 48 1 224 48 1 224 48 1 224 48 1 224 48 1 224 48 1 224 48 1 224 48 1 224 48 1 224 48 1 224 48 1 224 48 1 224 48 1 224 48 1 224 48 1 224 48 1 224 48 1 224 48 1 224 48 1 224 48 1 224 48 1 224 48 1 224 48 1 224 48 1 224 48 1 224 48 1 224 48 1 224 48 1 224 48 1 224 48 1 224 48 1 224 48 1 224 48 1 224 48 1 224 48 1 224 48 1 224 48 1 224 48 1 224 48 1 224 48 1 224 48 1 224 48 1 224 48 1 224 48 1 224 48 1 224 48 1 224 48 1 224 48 1 224 48 1 224 48 1 224 48 1 224 48 1 224 48 1 224 48 1 224 48 1 224 48 1 224 48 1 224 48 1 224 48 1 224 48 1 224 48 1 224 48 1 224 48 1 224 48 1 224 48 1 224 48 1 224 48 1 224 48 1 224 48 1 224 48 1 224 48 1 224 48 1 224 48 1 224 48 1 224 48 1 224 48 1 224 48 1 224 48 1 224 48 1 224 48 1 224 48 1 224 48 1 224 48 1 224 48 1
224 48 1 224 48 1 224 48 1 224 48 1 224 48 1 224 48 1 224 48 1 224 48 1 224 48 1 224 48 1 224 48 1 224 48 1 224 48 1 224 48 1 224 48 1 224 48 1 224 48 1 224 48 1 224 48 1 224 48 1 224 48 1 224 48 1 224 48 1 224 48 1 224 48 1 224 48 1 224 48 1 224 48 1 224 48 1 224 48 1 224 48 1 224 48 1 224 48 1 224 48 1 224 48 1 224 48 1 224 48 1 224 48 1 224 48 1 224 48 1 224 48 1 224 48 1 224 48 1 224 48 1 224 48 1 224 48 1 224 48 1 224 48 1 224 48 1 224 48 1 224 48 1 224 48 1 224 48 1 224 48 1 224 48 1 224 48 1 224 48 1 224 48 1 224 48 1 224 48 1 224 48 1 224 48 1 224 48 1 224 48 1 224 48 1 224 48 1 224 48 1 224 48 1 224 48 1 224 48 1 224 48 1 224 48 1 224 48 1 224 48 1 224 48 1 224 48 1 224 48 1 224 48 1 224 48 1 224 48 1 224 48 1 224 48 1 224 48 1 224 48 1 224 48 1 224 48 1 224 48 1 224 48 1 224 48 1 224 48 1 224 48 1 224 48 1 224 48 1 224 48 1 224 48 1 224 48 1 224 48 1 224 48 1 224 48 1 224 48 1 224 48 1 224 48 1 224 48 1 224 48 1 224 48 1 224 48 1 224 48 1 224 48 1 224 48 1 224 48 1 224 48 1 224 48 1 224 48 1 224 48 1 224 48 1 224 48 1 224 48 1 224 48 1 224 48 1 224 48 1 224 48 1 224 48 1 224 48 1 224 48 1 224 48 1 224 48 1 224 48 1 224 48 1 224 48 1 224 48 1 224 48 1 224 48 1 224 48 1 224 48 1 224 48 1 224 48 1 224 48 1 224 48 1 224 48 1 224 48 1 224 48 1 224 48 1 224 48 1 224 48 1 224 48 1 224 48 1 224 48 1 224 48 1 224 48 1 224 48 1 224 48 1 224 48 1 224 48 1 224 48 1 224 48 1 224 48 1 224 48 1 224 48 1 224 48 1 224 48 1 224 48 1 224 48 1 224 48 1 224 48 1 224 48 1 224 48 1 224 48 1 224 48 1 224 48 1 224 48 1 224 48 1 224 48 1 224 48 1 224 48 1 224 48 1 224 48 1 224 48 1 224 48 1 224 48 1 224 48 1 224 48 1 224 48 1 224 48 1 224 48 1 224 48 1 224 48 1 224 48 1 224 48 1 224 48 1 224 48 1 224 48 1 224 48 1 224 48 1 224 48 1 224 48 1 224 48 1 224 48 1 224 48 1 224 48 1 224 48 1 224 48 1 224 48 1 224 48 1 224 48 1 224 48 1 224 48 1 224 48 1 224 48 1 224 48 1 224 48 1 224 48 1 224 48 1 224 48 1 224 48 1 224 48 1 224 48 1 224 48 1 224 48 1 224 48 1 224 48 1 224 48 1 224 48 1 224 48 1 224 48 1 224 48 1 224 48 1 224 48 1 224 48 1 224 48 1 224 48 1 224 48 1 224 48 1 224 48 1 224 48 1 224 48 1 224 48 1 224 48 1 224 48 1 224 48 1 224 48 1
224 48 1 224 48 1 224 48 1 224 48 1 224 48 1 224 48 1 224 48 1 224 48 1 224 48 1 224 48 1 224 48 1 224 48 1 224 48 1 224 48 1 224 48 1 224 48 1 224 48 1 224 48 1 224 48 1 224 48 1 224 48 1 224 48 1 224 48 1 224 48 1 224 48 1 224 48 1 224 48 1 224 48 1 224 48 1 224 48 1 224 48 1 224 48 1 224 48 1 224 48 1 224 48 1 224 48 1 224 48 1 224 48 1 224 48 1 224 48 1 224 48 1 224 48 1 224 48 1 224 48 1 224 48 1 224 48 1 224 48 1 224 48 1 224 48 1 224 48 1 224 48 1 224 48 1 224 48 1 224 48 1 224 48 1 224 48 1 224 48 1 224 48 1 224 48 1 224 48 1 224 48 1 224 48 1 224 48 1 224 48 1 224 48 1 224 48 1 224 48 1 224 48 1 224 48 1 224 48 1 224 48 1 224 48 1 224 48 1 224 48 1 224 48 1 224 48 1 224 48 1 224 48 1 224 48 1 224 48 1 224 48 1 224 48 1 224 48 1 224 48 1 224 48 1 224 48 1 224 48 1 224 48 1 224 48 1 224 48 1 224 48 1 224 48 1 224 48 1 224 48 1 224 48 1 224 48 1 224 48 1 224 48 1 224 48 1 224 48 1 224 48 1 224 48 1 224 48 1 224 48 1 224 48 1 224 48 1 224 48 1 224 48 1 224 48 1 224 48 1 224 48 1 224 48 1 224 48 1 224 48 1 224 48 1 224 48 1 224 48 1 224 48 1 224 48 1 224 48 1 224 48 1 224 48 1 224 48 1 224 48 1 224 48 1 224 48 1 224 48 1 224 48 1 224 48 1 224 48 1 224 48 1 224 48 1 224 48 1 224 48 1 224 48 1 224 48 1 224 48 1 224 48 1 224 48 1 224 48 1 224 48 1 224 48 1 224 48 1 224 48 1 224 48 1 224 48 1 224 48 1 224 48 1 224 48 1 224 48 1 224 48 1 224 48 1 224 48 1 224 48 1 224 48 1 224 48 1 224 48 1 224 48 1 224 48 1 224 48 1 224 48 1 224 48 1 224 48 1 224 48 1 224 48 1 224 48 1 224 48 1 224 48 1 224 48 1 224 48 1 224 48 1 224 48 1 224 48 1 224 48 1 224 48 1 224 48 1 224 48 1 224 48 1 224 48 1 224 48 1 224 48 1 224 48 1 224 48 1 224 48 1 224 48 1 224 48 1 224 48 1 224 48 1 224 48 1 224 48 1 224 48 1 224 48 1 224 48 1 224 48 1 224 48 1 224 48 1 224 48 1 224 48 1 224 48 1 224 48 1 224 48 1 224 48 1 224 48 1 224 48 1 224 48 1 224 48 1 224 48 1 224 48 1 224 48 1 224 48 1 224 48 1 224 48 1 224 48 1 224 48 1 224 48 1 224 48 1 224 48 1 224 48 1 224 48 1 224 48 1 224 48 1 224 48 1 224 48 1 224 48 1 224 48 1 224 48 1 224 48 1 224 48 1 224 48 1 224 48 1 224 48 1 224 48 1 224 48 1 224 48 1 224 48 1 224 48 1 224 48 1 224 48 1 224 48 1 224 48 1
224 48 1 224 48 1 224 48 1 224 48 1 224 48 1 224 48 1 224 48 1 224 48 1 224 48 1 224 48 1 224 48 1 224 48 1 224 48 1 224 48 1 224 48 1 224 48 1 224 48 1 224 48 1 224 48 1 224 48 1 224 48 1 224 48 1 224 48 1 224 48 1 224 48 1 224 48 1 224 48 1 224 48 1 224 48 1 224 48 1 224 48 1 224 48 1 224 48 1 224 48 1 224 48 1 224 48 1 224 48 1 224 48 1 224 48 1 224 48 1 224 48 1 224 48 1 224 48 1 224 48 1 224 48 1 224 48 1 224 48 1 224 48 1 224 48 1 224 48 1 224 48 1 224 48 1 224 48 1 224 48 1 224 48 1 224 48 1 224 48 1 224 48 1 224 48 1 224 48 1 224 48 1 224 48 1 224 48 1 224 48 1 224 48 1 224 48 1 224 48 1 224 48 1 224 48 1 224 48 1 224 48 1 224 48 1 224 48 1 224 48 1 224 48 1 224 48 1 224 48 1 224 48 1 224 48 1 224 48 1 224 48 1 224 48 1 224 48 1 224 48 1 224 48 1 224 48 1 224 48 1 224 48 1 224 48 1 224 48 1 224 48 1 224 48 1 224 48 1 224 48 1 224 48 1 224 48 1 224 48 1 224 48 1 224 48 1 224 48 1 224 48 1 224 48 1 224 48 1 224 48 1 224 48 1 224 48 1 224 48 1 224 48 1 224 48 1 224 48 1 224 48 1 224 48 1 224 48 1 224 48 1 224 48 1 224 48 1 224 48 1 224 48 1 224 48 1 224 48 1 224 48 1 224 48 1 224 48 1 224 48 1 224 48 1 224 48 1 224 48 1 224 48 1 224 48 1 224 48 1 224 48 1 224 48 1 224 48 1 224 48 1 224 48 1 224 48 1 224 48 1 224 48 1 224 48 1 224 48 1 224 48 1 224 48 1 224 48 1 224 48 1 224 48 1 224 48 1 224 48 1 224 48 1 224 48 1 224 48 1 224 48 1 224 48 1 224 48 1 224 48 1 224 48 1 224 48 1 224 48 1 224 48 1 224 48 1 224 48 1 224 48 1 224 48 1 224 48 1 224 48 1 224 48 1 224 48 1 224 48 1 224 48 1 224 48 1 224 48 1 224 48 1 224 48 1 224 48 1 224 48 1 224 48 1 224 48 1 224 48 1 224 48 1 224 48 1 224 48 1 224 48 1 224 48 1 224 48 1 224 48 1 224 48 1 224 48 1 224 48 1 224 48 1 224 48 1 224 48 1 224 48 1 224 48 1 224 48 1 224 48 1 224 48 1 224 48 1 224 48 1 224 48 1 224 48 1 224 48 1 224 48 1 224 48 1 224 48 1 224 48 1 224 48 1 224 48 1 224 48 1 224 48 1 224 48 1 224 48 1 224 48 1 224 48 1 224 48 1 224 48 1 224 48 1 224 48 1 224 48 1 224 48 1 224 48 1 224 48 1 224 48 1 224 48 1 224 48 1 224 48 1 224 48 1 224 48 1 224 48 1 224 48 1 224 48 1 224 48 1 224 48 1 224 48 1 224 48 1 224 48 1 224 48 1 224 48 1 224 48 1 224 48 1 224 48 1 224 48 1
224 48 1 224 48 1 224 48 1 224 48 1 224 48 1 224 48 1 224 48 1 224 48 1 224 48 1 224 48 1 224 48 1 224 48 1 224 48 1 224 48 1 224 48 1 224 48 1 224 48 1 224 48 1 224 48 1 224 48 1 224 48 1 224 48 1 224 48 1 224 48 1 224 48 1 224 48 1 224 48 1 224 48 1 224 48 1 224 48 1 224 48 1 224 48 1 224 48 1 224 48 1 224 48 1 224 48 1 224 48 1 224 48 1 224 48 1 224 48 1 224 48 1 224 48 1 224 48 1 224 48 1 224 48 1 224 48 1 224 48 1 224 48 1 224 48 1 224 48 1 224 48 1 224 48 1 224 48 1 224 48 1 224 48 1 224 48 1 224 48 1 224 48 1 224 48 1 224 48 1 224 48 1 224 48 1 224 48 1 224 48 1 224 48 1 224 48 1 224 48 1 224 48 1 224 48 1 224 48 1 224 48 1 224 48 1 224 48 1 224 48 1 224 48 1 224 48 1 224 48 1 224 48 1 224 48 1 224 48 1 224 48 1 224 48 1 224 48 1 224 48 1 224 48 1 224 48 1 224 48 1 224 48 1 224 48 1 224 48 1 224 48 1 224 48 1 224 48 1 224 48 1 224 48 1 224 48 1 224 48 1 224 48 1 224 48 1 224 48 1 224 48 1 224 48 1 224 48 1 224 48 1 224 48 1 224 48 1 224 48 1 224 48 1 224 48 1 224 48 1 224 48 1 224 48 1 224 48 1 224 48 1 224 48 1 224 48 1 224 48 1 224 48 1 224 48 1 224 48 1 224 48 1 224 48 1 224 48 1 224 48 1 224 48 1 224 48 1 224 48 1 224 48 1 224 48 1 224 48 1 224 48 1 224 48 1 224 48 1 224 48 1 224 48 1 224 48 1 224 48 1 224 48 1 224 48 1 224 48 1 224 48 1 224 48 1 224 48 1 224 48 1 224 48 1 224 48 1 224 48 1 224 48 1 224 48 1 224 48 1 224 48 1 224 48 1 224 48 1 224 48 1 224 48 1 224 48 1 224 48 1 224 48 1 224 48 1 224 48 1 224 48 1 224 48 1 224 48 1 224 48 1 224 48 1 224 48 1 224 48 1 224 48 1 224 48 1 224 48 1 224 48 1 224 48 1 224 48 1 224 48 1 224 48 1 224 48 1 224 48 1 224 48 1 224 48 1 224 48 1 224 48 1 224 48 1 224 48 1 224 48 1 224 48 1 224 48 1 224 48 1 224 48 1 224 48 1 224 48 1 224 48 1 224 48 1 224 48 1 224 48 1 224 48 1 224 48 1 224 48 1 224 48 1 224 48 1 224 48 1 224 48 1 224 48 1 224 48 1 224 48 1 224 48 1 224 48 1 224 48 1 224 48 1 224 48 1 224 48 1 224 48 1 224 48 1 224 48 1 224 48 1 224 48 1 224 48 1 224 48 1 224 48 1 224 48 1 224 48 1 224 48 1 224 48 1 224 48 1 224 48 1 224 48 1 224 48 1 224 48 1 224 48 1 224 48 1 224 48 1 224 48 1 224 48 1 224 48 1 224 48 1 224 48 1 224 48 1 224 48 1 224 48 1 224 48 1 224 48 1
224 48 1 224 48 1 224 48 1 224 48 1 224 48 1 224 48 1 224 48 1 224 48 1 224 48 1 224 48 1 224 48 1 224 48 1 224 48 1 224 48 1 224 48 1 224 48 1 224 48 1 224 48 1 224 48 1 224 48 1 224 48 1 224 48 1 224 48 1 224 48 1 224 48 1 224 48 1 224 48 1 224 48 1 224 48 1 224 48 1 224 48 1 224 48 1 224 48 1 224 48 1 224 48 1 224 48 1 224 48 1 224 48 1 224 48 1 224 48 1 224 48 1 224 48 1 224 48 1 224 48 1 224 48 1 224 48 1 224 48 1 224 48 1 224 48 1 224 48 1 224 48 1 224 48 1 224 48 1 224 48 1 224 48 1 224 48 1 224 48 1 224 48 1 224 48 1 224 48 1 224 48 1 224 48 1 224 48 1 224 48 1 224 48 1 224 48 1 224 48 1 224 48 1 224 48 1 224 48 1 224 48 1 224 48 1 224 48 1 224 48 1 224 48 1 224 48 1 224 48 1 224 48 1 224 48 1 224 48 1 224 48 1 224 48 1 224 48 1 224 48 1 224 48 1 224 48 1 224 48 1 224 48 1 224 48 1 224 48 1 224 48 1 224 48 1 224 48 1 224 48 1 224 48 1 224 48 1 224 48 1 224 48 1 224 48 1 224 48 1 224 48 1 224 48 1 224 48 1 224 48 1 224 48 1 224 48 1 224 48 1 224 48 1 224 48 1 224 48 1 224 48 1 224 48 1 224 48 1 224 48 1 224 48 1 224 48 1 224 48 1 224 48 1 224 48 1 224 48 1 224 48 1 224 48 1 224 48 1 224 48 1 224 48 1 224 48 1 224 48 1 224 48 1 224 48 1 224 48 1 224 48 1 224 48 1 224 48 1 224 48 1 224 48 1 224 48 1 224 48 1 224 48 1 224 48 1 224 48 1 224 48 1 224 48 1 224 48 1 224 48 1 224 48 1 224 48 1 224 48 1 224 48 1 224 48 1 224 48 1 224 48 1 224 48 1 224 48 1 224 48 1 224 48 1 224 48 1 224 48 1 224 48 1 224 48 1 224 48 1 224 48 1 224 48 1 224 48 1 224 48 1 224 48 1 224 48 1 224 48 1 224 48 1 224 48 1 224 48 1 224 48 1 224 48 1 224 48 1 224 48 1 224 48 1 224 48 1 224 48 1 224 48 1 224 48 1 224 48 1 224 48 1 224 48 1 224 48 1 224 48 1 224 48 1 224 48 1 224 48 1 224 48 1 224 48 1 224 48 1 224 48 1 224 48 1 224 48 1 224 48 1 224 48 1 224 48 1 224 48 1 224 48 1 224 48 1 224 48 1 224 48 1 224 48 1 224 48 1 224 48 1 224 48 1 224 48 1 224 48 1 224 48 1 224 48 1 224 48 1 224 48 1 224 48 1 224 48 1 224 48 1 224 48 1 224 48 1 224 48 1 224 48 1 224 48 1 224 48 1 224 48 1 224 48 1 224 48 1 224 48 1 224 48 1 224 48 1 224 48 1 224 48 1 224 48 1 224 48 1 224 48 1 224 48 1 224 48 1 224 48 1 224 48 1 224 48 1 224 48 1 224 48 1 224 48 1 224 48 1
224 48 1 224 48 1 224 48 1 224 48 1 224 48 1 224 48 1 224 48 1 224 48 1 224 48 1 224 48 1 224 48 1 224 48 1 224 48 1 224 48 1 224 48 1 224 48 1 224 48 1 224 48 1 224 48 1 224 48 1 224 48 1 224 48 1 224 48 1 224 48 1 224 48 1 224 48 1 224 48 1 224 48 1 224 48 1 224 48 1 224 48 1 224 48 1 224 48 1 224 48 1 224 48 1 224 48 1 224 48 1 224 48 1 224 48 1 224 48 1 224 48 1 224 48 1 224 48 1 224 48 1 224 48 1 224 48 1 224 48 1 224 48 1 224 48 1 224 48 1 224 48 1 224 48 1 224 48 1 224 48 1 224 48 1 224 48 1 224 48 1 224 48 1 224 48 1 224 48 1 224 48 1 224 48 1 224 48 1 224 48 1 224 48 1 224 48 1 224 48 1 224 48 1 224 48 1 224 48 1 224 48 1 224 48 1 224 48 1 224 48 1 224 48 1 224 48 1 224 48 1 224 48 1 224 48 1 224 48 1 224 48 1 224 48 1 224 48 1 224 48 1 224 48 1 224 48 1 224 48 1 224 48 1 224 48 1 224 48 1 224 48 1 224 48 1 224 48 1 224 48 1 224 48 1 224 48 1 224 48 1 224 48 1 224 48 1 224 48 1 224 48 1 224 48 1 224 48 1 224 48 1 224 48 1 224 48 1 224 48 1 224 48 1 224 48 1 224 48 1 224 48 1 224 48 1 224 48 1 224 48 1 224 48 1 224 48 1 224 48 1 224 48 1 224 48 1 224 48 1 224 48 1 224 48 1 224 48 1 224 48 1 224 48 1 224 48 1 224 48 1 224 48 1 224 48 1 224 48 1 224 48 1 224 48 1 224 48 1 224 48 1 224 48 1 224 48 1 224 48 1 224 48 1 224 48 1 224 48 1 224 48 1 224 48 1 224 48 1 224 48 1 224 48 1 224 48 1 224 48 1 224 48 1 224 48 1 224 48 1 224 48 1 224 48 1 224 48 1 224 48 1 224 48 1 224 48 1 224 48 1 224 48 1 224 48 1 224 48 1 224 48 1 224 48 1 224 48 1 224 48 1 224 48 1 224 48 1 224 48 1 224 48 1 224 48 1 224 48 1 224 48 1 224 48 1 224 48 1 224 48 1 224 48 1 224 48 1 224 48 1 224 48 1 224 48 1 224 48 1 224 48 1 224 48 1 224 48 1 224 48 1 224 48 1 224 48 1 224 48 1 224 48 1 224 48 1 224 48 1 224 48 1 224 48 1 224 48 1 224 48 1 224 48 1 224 48 1 224 48 1 224 48 1 224 48 1 224 48 1 224 48 1 224 48 1 224 48 1 224 48 1 224 48 1 224 48 1 224 48 1 224 48 1 224 48 1 224 48 1 224 48 1 224 48 1 224 48 1 224 48 1 224 48 1 224 48 1 224 48 1 224 48 1 224 48 1 224 48 1 224 48 1 224 48 1 224 48 1 224 48 1 224 48 1 224 48 1 224 48 1 224 48 1 224 48 1 224 48 1 224 48 1 224 48 1 224 48 1 224 48 1 224 48 1 224 48 1 224 48 1 224 48 1 224 48 1 224 48 1
224 48 1 224 48 1 224 48 1 224 48 1 224 48 1 224 48 1 224 48 1 224 48 1 224 48 1 224 48 1 224 48 1 224 48 1 224 48 1 224 48 1 224 48 1 224 48 1 224 48 1 224 48 1 224 48 1 224 48 1 224 48 1 224 48 1 224 48 1 224 48 1 224 48 1 224 48 1 224 48 1 224 48 1 224 48 1 224 48 1 224 48 1 224 48 1 224 48 1 224 48 1 224 48 1 224 48 1 224 48 1 224 48 1 224 48 1 224 48 1 224 48 1 224 48 1 224 48 1 224 48 1 224 48 1 224 48 1 224 48 1 224 48 1 224 48 1 224 48 1 224 48 1 224 48 1 224 48 1 224 48 1 224 48 1 224 48 1 224 48 1 224 48 1 224 48 1 224 48 1 224 48 1 224 48 1 224 48 1 224 48 1 224 48 1 224 48 1 224 48 1 224 48 1 224 48 1 224 48 1 224 48 1 224 48 1 224 48 1 224 48 1 224 48 1 224 48 1 224 48 1 224 48 1 224 48 1 224 48 1 224 48 1 224 48 1 224 48 1 224 48 1 224 48 1 224 48 1 224 48 1 224 48 1 224 48 1 224 48 1 224 48 1 224 48 1 224 48 1 224 48 1 224 48 1 224 48 1 224 48 1 224 48 1 224 48 1 224 48 1 224 48 1 224 48 1 224 48 1 224 48 1 224 48 1 224 48 1 224 48 1 224 48 1 224 48 1 224 48 1 224 48 1 224 48 1 224 48 1 224 48 1 224 48 1 224 48 1 224 48 1 224 48 1 224 48 1 224 48 1 224 48 1 224 48 1 224 48 1 224 48 1 224 48 1 224 48 1 224 48 1 224 48 1 224 48 1 224 48 1 224 48 1 224 48 1 224 48 1 224 48 1 224 48 1 224 48 1 224 48 1 224 48 1 224 48 1 224 48 1 224 48 1 224 48 1 224 48 1 224 48 1 224 48 1 224 48 1 224 48 1 224 48 1 224 48 1 224 48 1 224 48 1 224 48 1 224 48 1 224 48 1 224 48 1 224 48 1 224 48 1 224 48 1 224 48 1 224 48 1 224 48 1 224 48 1 224 48 1 224 48 1 224 48 1 224 48 1 224 48 1 224 48 1 224 48 1 224 48 1 224 48 1 224 48 1 224 48 1 224 48 1 224 48 1 224 48 1 224 48 1 224 48 1 224 48 1 224 48 1 224 48 1 224 48 1 224 48 1 224 48 1 224 48 1 224 48 1 224 48 1 224 48 1 224 48 1 224 48 1 224 48 1 224 48 1 224 48 1 224 48 1 224 48 1 224 48 1 224 48 1 224 48 1 224 48 1 224 48 1 224 48 1 224 48 1 224 48 1 224 48 1 224 48 1 224 48 1 224 48 1 224 48 1 224 48 1 224 48 1 224 48 1 224 48 1 224 48 1 224 48 1 224 48 1 224 48 1 224 48 1 224 48 1 224 48 1 224 48 1 224 48 1 224 48 1 224 48 1 224 48 1 224 48 1 224 48 1 224 48 1 224 48 1 224 48 1 224 48 1 224 48 1 224 48 1 224 48 1 224 48 1 224 48 1 224 48 1 224 48 1 224 48 1 224 48 1 224 48 1
224 48 1 224 48 1 224 48 1 224 48 1 224 48 1 224 48 1 224 48 1 224 48 1 224 48 1 224 48 1 224 48 1 224 48 1 224 48 1 224 48 1 224 48 1 224 48 1 224 48 1 224 48 1 224 48 1 224 48 1 224 48 1 224 48 1 224 48 1 224 48 1 224 48 1 224 48 1 224 48 1 224 48 1 224 48 1 224 48 1 224 48 1 224 48 1 224 48 1 224 48 1 224 48 1 224 48 1 224 48 1 224 48 1 224 48 1 224 48 1 224 48 1 224 48 1 224 48 1 224 48 1 224 48 1 224 48 1 224 48 1 224 48 1 224 48 1 224 48 1 224 48 1 224 48 1 224 48 1 224 48 1 224 48 1 224 48 1 224 48 1 224 48 1 224 48 1 224 48 1 224 48 1 224 48 1 224 48 1 224 48 1 224 48 1 224 48 1 224 48 1 224 48 1 224 48 1 224 48 1 224 48 1 224 48 1 224 48 1 224 48 1 224 48 1 224 48 1 224 48 1 224 48 1 224 48 1 224 48 1 224 48 1 224 48 1 224 48 1 224 48 1 224 48 1 224 48 1 224 48 1 224 48 1 224 48 1 224 48 1 224 48 1 224 48 1 224 48 1 224 48 1 224 48 1 224 48 1 224 48 1 224 48 1 224 48 1 224 48 1 224 48 1 224 48 1 224 48 1 224 48 1 224 48 1 224 48 1 224 48 1 224 48 1 224 48 1 224 48 1 224 48 1 224 48 1 224 48 1 224 48 1 224 48 1 224 48 1 224 48 1 224 48 1 224 48 1 224 48 1 224 48 1 224 48 1 224 48 1 224 48 1 224 48 1 224 48 1 224 48 1 224 48 1 224 48 1 224 48 1 224 48 1 224 48 1 224 48 1 224 48 1 224 48 1 224 48 1 224 48 1 224 48 1 224 48 1 224 48 1 224 48 1 224 48 1 224 48 1 224 48 1 224 48 1 224 48 1 224 48 1 224 48 1 224 48 1 224 48 1 224 48 1 224 48 1 224 48 1 224 48 1 224 48 1 224 48 1 224 48 1 224 48 1 224 48 1 224 48 1 224 48 1 224 48 1 224 48 1 224 48 1 224 48 1 224 48 1 224 48 1 224 48 1 224 48 1 224 48 1 224 48 1 224 48 1 224 48 1 224 48 1 224 48 1 224 48 1 224 48 1 224 48 1 224 48 1 224 48 1 224 48 1 224 48 1 224 48 1 224 48 1 224 48 1 224 48 1 224 48 1 224 48 1 224 48 1 224 48 1 224 48 1 224 48 1 224 48 1 224 48 1 224 48 1 224 48 1 224 48 1 224 48 1 224 48 1 224 48 1 224 48 1 224 48 1 224 48 1 224 48 1 224 48 1 224 48 1 224 48 1 224 48 1 224 48 1 224 48 1 224 48 1 224 48 1 224 48 1 224 48 1 224 48 1 224 48 1 224 48 1 224 48 1 224 48 1 224 48 1 224 48 1 224 48 1 224 48 1 224 48 1 224 48 1 224 48 1 224 48 1 224 48 1 224 48 1 224 48 1 224 48 1 224 48 1 224 48 1 224 48 1 224 48 1 224 48 1 224 48 1 224 48 1 224 48 1 224 48 1
224 48 1 224 48 1 224 48 1 224 48 1 224 48 1 224 48 1 224 48 1 224 48 1 224 48 1 224 48 1 224 48 1 224 48 1 224 48 1 224 48 1 224 48 1 224 48 1 224 48 1 224 48 1 224 48 1 224 48 1 224 48 1 224 48 1 224 48 1 224 48 1 224 48 1 224 48 1 224 48 1 224 48 1 224 48 1 224 48 1 224 48 1 224 48 1 224 48 1 224 48 1 224 48 1 224 48 1 224 48 1 224 48 1 224 48 1 224 48 1 224 48 1 224 48 1 224 48 1 224 48 1 224 48 1 224 48 1 224 48 1 224 48 1 224 48 1 224 48 1 224 48 1 224 48 1 224 48 1 224 48 1 224 48 1 224 48 1 224 48 1 224 48 1 224 48 1 224 48 1 224 48 1 224 48 1 224 48 1 224 48 1 224 48 1 224 48 1 224 48 1 224 48 1 224 48 1 224 48 1 224 48 1 224 48 1 224 48 1 224 48 1 224 48 1 224 48 1 224 48 1 224 48 1 224 48 1 224 48 1 224 48 1 224 48 1 224 48 1 224 48 1 224 48 1 224 48 1 224 48 1 224 48 1 224 48 1 224 48 1 224 48 1 224 48 1 224 48 1 224 48 1 224 48 1 224 48 1 224 48 1 224 48 1 224 48 1 224 48 1 224 48 1 224 48 1 224 48 1 224 48 1 224 48 1 224 48 1 224 48 1 224 48 1 224 48 1 224 48 1 224 48 1 224 48 1 224 48 1 224 48 1 224 48 1 224 48 1 224 48 1 224 48 1 224 48 1 224 48 1 224 48 1 224 48 1 224 48 1 224 48 1 224 48 1 224 48 1 224 48 1 224 48 1 224 48 1 224 48 1 224 48 1 224 48 1 224 48 1 224 48 1 224 48 1 224 48 1 224 48 1 224 48 1 224 48 1 224 48 1 224 48 1 224 48 1 224 48 1 224 48 1 224 48 1 224 48 1 224 48 1 224 48 1 224 48 1 224 48 1 224 48 1 224 48 1 224 48 1 224 48 1 224 48 1 224 48 1 224 48 1 224 48 1 224 48 1 224 48 1 224 48 1 224 48 1 224 48 1 224 48 1 224 48 1 224 48 1 224 48 1 224 48 1 224 48 1 224 48 1 224 48 1 224 48 1 224 48 1 224 48 1 224 48 1 224 48 1 224 48 1 224 48 1 224 48 1 224 48 1 224 48 1 224 48 1 224 48 1 224 48 1 224 48 1 224 48 1 224 48 1 224 48 1 224 48 1 224 48 1 224 48 1 224 48 1 224 48 1 224 48 1 224 48 1 224 48 1 224 48 1 224 48 1 224 48 1 224 48 1 224 48 1 224 48 1 224 48 1 224 48 1 224 48 1 224 48 1 224 48 1 224 48 1 224 48 1 224 48 1 224 48 1 224 48 1 224 48 1 224 48 1 224 48 1 224 48 1 224 48 1 224 48 1 224 48 1 224 48 1 224 48 1 224 48 1 224 48 1 224 48 1 224 48 1 224 48 1 224 48 1 224 48 1 224 48 1 224 48 1 224 48 1 224 48 1 224 48 1 224 48 1 224 48 1 224 48 1 224 48 1 224 48 1 224 48 1 224 48 1
224 48 1 224 48 1 224 48 1 224 48 1 224 48 1 224 48 1 224 48 1 224 48 1 224 48 1 224 48 1 224 48 1 224 48 1 224 48 1 224 48 1 224 48 1 224 48 1 224 48 1 224 48 1 224 48 1 224 48 1 224 48 1 224 48 1 224 48 1 224 48 1 224 48 1 224 48 1 224 48 1 224 48 1 224 48 1 224 48 1 224 48 1 224 48 1 224 48 1 224 48 1 224 48 1 224 48 1 224 48 1 224 48 1 224 48 1 224 48 1 224 48 1 224 48 1 224 48 1 224 48 1 224 48 1 224 48 1 224 48 1 224 48 1 224 48 1 224 48 1 224 48 1 224 48 1 224 48 1 224 48 1 224 48 1 224 48 1 224 48 1 224 48 1 224 48 1 224 48 1 224 48 1 224 48 1 224 48 1 224 48 1 224 48 1 224 48 1 224 48 1 224 48 1 224 48 1 224 48 1 224 48 1 224 48 1 224 48 1 224 48 1 224 48 1 224 48 1 224 48 1 224 48 1 224 48 1 224 48 1 224 48 1 224 48 1 224 48 1 224 48 1 224 48 1 224 48 1 224 48 1 224 48 1 224 48 1 224 48 1 224 48 1 224 48 1 224 48 1 224 48 1 224 48 1 224 48 1 224 48 1 224 48 1 224 48 1 224 48 1 224 48 1 224 48 1 224 48 1 224 48 1 224 48 1 224 48 1 224 48 1 224 48 1 224 48 1 224 48 1 224 48 1 224 48 1 224 48 1 224 48 1 224 48 1 224 48 1 224 48 1 224 48 1 224 48 1 224 48 1 224 48 1 224 48 1 224 48 1 224 48 1 224 48 1 224 48 1 224 48 1 224 48 1 224 48 1 224 48 1 224 48 1 224 48 1 224 48 1 224 48 1 224 48 1 224 48 1 224 48 1 224 48 1 224 48 1 224 48 1 224 48 1 224 48 1 224 48 1 224 48 1 224 48 1 224 48 1 224 48 1 224 48 1 224 48 1 224 48 1 224 48 1 224 48 1 224 48 1 224 48 1 224 48 1 224 48 1 224 48 1 224 48 1 224 48 1 224 48 1 224 48 1 224 48 1 224 48 1 224 48 1 224 48 1 224 48 1 224 48 1 224 48 1 224 48 1 224 48 1 224 48 1 224 48 1 224 48 1 224 48 1 224 48 1 224 48 1 224 48 1 224 48 1 224 48 1 224 48 1 224 48 1 224 48 1 224 48 1 224 48 1 224 48 1 224 48 1 224 48 1 224 48 1 224 48 1 224 48 1 224 48 1 224 48 1 224 48 1 224 48 1 224 48 1 224 48 1 224 48 1 224 48 1 224 48 1 224 48 1 224 48 1 224 48 1 224 48 1 224 48 1 224 48 1 224 48 1 224 48 1 224 48 1 224 48 1 224 48 1 224 48 1 224 48 1 224 48 1 224 48 1 224 48 1 224 48 1 224 48 1 224 48 1 224 48 1 224 48 1 224 48 1 224 48 1 224 48 1 224 48 1 224 48 1 224 48 1 224 48 1 224 48 1 224 48 1 224 48 1 224 48 1 224 48 1 224 48 1 224 48 1 224 48 1 224 48 1 224 48 1 224 48 1 224 48 1 224 48 1
224 48 1 224 48 1 224 48 1 224 48 1 224 48 1 224 48 1 224 48 1 224 48 1 224 48 1 224 48 1 224 48 1 224 48 1 224 48 1 224 48 1 224 48 1 224 48 1 224 48 1 224 48 1 224 48 1 224 48 1 224 48 1 224 48 1 224 48 1 224 48 1 224 48 1 224 48 1 224 48 1 224 48 1 224 48 1 224 48 1 224 48 1 224 48 1 224 48 1 224 48 1 224 48 1 224 48 1 224 48 1 224 48 1 224 48 1 224 48 1 224 48 1 224 48 1 224 48 1 224 48 1 224 48 1 224 48 1 224 48 1 224 48 1 224 48 1 224 48 1 224 48 1 224 48 1 224 48 1 224 48 1 224 48 1 224 48 1 224 48 1 224 48 1 224 48 1 224 48 1 224 48 1 224 48 1 224 48 1 224 48 1 224 48 1 224 48 1 224 48 1 224 48 1 224 48 1 224 48 1 224 48 1 224 48 1 224 48 1 224 48 1 224 48 1 224 48 1 224 48 1 224 48 1 224 48 1 224 48 1 224 48 1 224 48 1 224 48 1 224 48 1 224 48 1 224 48 1 224 48 1 224 48 1 224 48 1 224 48 1 224 48 1 224 48 1 224 48 1 224 48 1 224 48 1 224 48 1 224 48 1 224 48 1 224 48 1 224 48 1 224 48 1 224 48 1 224 48 1 224 48 1 224 48 1 224 48 1 224 48 1 224 48 1 224 48 1 224 48 1 224 48 1 224 48 1 224 48 1 224 48 1 224 48 1 224 48 1 224 48 1 224 48 1 224 48 1 224 48 1 224 48 1 224 48 1 224 48 1 224 48 1 224 48 1 224 48 1 224 48 1 224 48 1 224 48 1 224 48 1 224 48 1 224 48 1 224 48 1 224 48 1 224 48 1 224 48 1 224 48 1 224 48 1 224 48 1 224 48 1 224 48 1 224 48 1 224 48 1 224 48 1 224 48 1 224 48 1 224 48 1 224 48 1 224 48 1 224 48 1 224 48 1 224 48 1 224 48 1 224 48 1 224 48 1 224 48 1 224 48 1 224 48 1 224 48 1 224 48 1 224 48 1 224 48 1 224 48 1 224 48 1 224 48 1 224 48 1 224 48 1 224 48 1 224 48 1 224 48 1 224 48 1 224 48 1 224 48 1 224 48 1 224 48 1 224 48 1 224 48 1 224 48 1 224 48 1 224 48 1 224 48 1 224 48 1 224 48 1 224 48 1 224 48 1 224 48 1 224 48 1 224 48 1 224 48 1 224 48 1 224 48 1 224 48 1 224 48 1 224 48 1 224 48 1 224 48 1 224 48 1 224 48 1 224 48 1 224 48 1 224 48 1 224 48 1 224 48 1 224 48 1 224 48 1 224 48 1 224 48 1 224 48 1 224 48 1 224 48 1 224 48 1 224 48 1 224 48 1 224 48 1 224 48 1 224 48 1 224 48 1 224 48 1 224 48 1 224 48 1 224 48 1 224 48 1 224 48 1 224 48 1 224 48 1 224 48 1 224 48 1 224 48 1 224 48 1 224 48 1 224 48 1 224 48 1 224 48 1 224 48 1 224 48 1 224 48 1 224 48 1 224 48 1 224 48 1 224 48 1
224 48 1 224 48 1 224 48 1 224 48 1 224 48 1 224 48 1 224 48 1 224 48 1 224 48 1 224 48 1 224 48 1 224 48 1 224 48 1 224 48 1 224 48 1 224 48 1 224 48 1 224 48 1 224 48 1 224 48 1 224 48 1 224 48 1 224 48 1 224 48 1 224 48 1 224 48 1 224 48 1 224 48 1 224 48 1 224 48 1 224 48 1 224 48 1 224 48 1 224 48 1 224 48 1 224 48 1 224 48 1 224 48 1 224 48 1 224 48 1 224 48 1 224 48 1 224 48 1 224 48 1 224 48 1 224 48 1 224 48 1 224 48 1 224 48 1 224 48 1 224 48 1 224 48 1 224 48 1 224 48 1 224 48 1 224 48 1 224 48 1 224 48 1 224 48 1 224 48 1 224 48 1 224 48 1 224 48 1 224 48 1 224 48 1 224 48 1 224 48 1 224 48 1 224 48 1 224 48 1 224 48 1 224 48 1 224 48 1 224 48 1 224 48 1 224 48 1 224 48 1 224 48 1 224 48 1 224 48 1 224 48 1 224 48 1 224 48 1 224 48 1 224 48 1 224 48 1 224 48 1 224 48 1 224 48 1 224 48 1 224 48 1 224 48 1 224 48 1 224 48 1 224 48 1 224 48 1 224 48 1 224 48 1 224 48 1 224 48 1 224 48 1 224 48 1 224 48 1 224 48 1 224 48 1 224 48 1 224 48 1 224 48 1 224 48 1 224 48 1 224 48 1 224 48 1 224 48 1 224 48 1 224 48 1 224 48 1 224 48 1 224 48 1 224 48 1 224 48 1 224 48 1 224 48 1 224 48 1 224 48 1 224 48 1 224 48 1 224 48 1 224 48 1 224 48 1 224 48 1 224 48 1 224 48 1 224 48 1 224 48 1 224 48 1 224 48 1 224 48 1 224 48 1 224 48 1 224 48 1 224 48 1 224 48 1 224 48 1 224 48 1 224 48 1 224 48 1 224 48 1 224 48 1 224 48 1 224 48 1 224 48 1 224 48 1 224 48 1 224 48 1 224 48 1 224 48 1 224 48 1 224 48 1 224 48 1 224 48 1 224 48 1 224 48 1 224 48 1 224 48 1 224 48 1 224 48 1 224 48 1 224 48 1 224 48 1 224 48 1 224 48 1 224 48 1 224 48 1 224 48 1 224 48 1 224 48 1 224 48 1 224 48 1 224 48 1 224 48 1 224 48 1 224 48 1 224 48 1 224 48 1 224 48 1 224 48 1 224 48 1 224 48 1 224 48 1 224 48 1 224 48 1 224 48 1 224 48 1 224 48 1 224 48 1 224 48 1 224 48 1 224 48 1 224 48 1 224 48 1 224 48 1 224 48 1 224 48 1 224 48 1 224 48 1 224 48 1 224 48 1 224 48 1 224 48 1 224 48 1 224 48 1 224 48 1 224 48 1 224 48 1 224 48 1 224 48 1 224 48 1 224 48 1 224 48 1 224 48 1 224 48 1 224 48 1 224 48 1 224 48 1 224 48 1 224 48 1 224 48 1 224 48 1 224 48 1 224 48 1 224 48 1 224 48 1 224 48 1 224 48 1 224 48 1 224 48 1 224 48 1 224 48 1 224 48 1 224 48 1
224 48 1 224 48 1 224 48 1 224 48 1 224 48 1 224 48 1 224 48 1 224 48 1 224 48 1 224 48 1 224 48 1 224 48 1 224 48 1 224 48 1 224 48 1 224 48 1 224 48 1 224 48 1 224 48 1 224 48 1 224 48 1 224 48 1 224 48 1 224 48 1 224 48 1 224 48 1 224 48 1 224 48 1 224 48 1 224 48 1 224 48 1 224 48 1 224 48 1 224 48 1 224 48 1 224 48 1 224 48 1 224 48 1 224 48 1 224 48 1 224 48 1 224 48 1 224 48 1 224 48 1 224 48 1 224 48 1 224 48 1 224 48 1 224 48 1 224 48 1 224 48 1 224 48 1 224 48 1 224 48 1 224 48 1 224 48 1 224 48 1 224 48 1 224 48 1 224 48 1 224 48 1 224 48 1 224 48 1 224 48 1 224 48 1 224 48 1 224 48 1 224 48 1 224 48 1 224 48 1 224 48 1 224 48 1 224 48 1 224 48 1 224 48 1 224 48 1 224 48 1 224 48 1 224 48 1 224 48 1 224 48 1 224 48 1 224 48 1 224 48 1 224 48 1 224 48 1 224 48 1 224 48 1 224 48 1 224 48 1 224 48 1 224 48 1 224 48 1 224 48 1 224 48 1 224 48 1 224 48 1 224 48 1 224 48 1 224 48 1 224 48 1 224 48 1 224 48 1 224 48 1 224 48 1 224 48 1 224 48 1 224 48 1 224 48 1 224 48 1 224 48 1 224 48 1 224 48 1 224 48 1 224 48 1 224 48 1 224 48 1 224 48 1 224 48 1 224 48 1 224 48 1 224 48 1 224 48 1 224 48 1 224 48 1 224 48 1 224 48 1 224 48 1 224 48 1 224 48 1 224 48 1 224 48 1 224 48 1 224 48 1 224 48 1 224 48 1 224 48 1 224 48 1 224 48 1 224 48 1 224 48 1 224 48 1 224 48 1 224 48 1 224 48 1 224 48 1 224 48 1 224 48 1 224 48 1 224 48 1 224 48 1 224 48 1 224 48 1 224 48 1 224 48 1 224 48 1 224 48 1 224 48 1 224 48 1 224 48 1 224 48 1 224 48 1 224 48 1 224 48 1 224 48 1 224 48 1 224 48 1 224 48 1 224 48 1 224 48 1 224 48 1 224 48 1 224 48 1 224 48 1 224 48 1 224 48 1 224 48 1 224 48 1 224 48 1 224 48 1 224 48 1 224 48 1 224 48 1 224 48 1 224 48 1 224 48 1 224 48 1 224 48 1 224 48 1 224 48 1 224 48 1 224 48 1 224 48 1 224 48 1 224 48 1 224 48 1 224 48 1 224 48 1 224 48 1 224 48 1 224 48 1 224 48 1 224 48 1 224 48 1 224 48 1 224 48 1 224 48 1 224 48 1 224 48 1 224 48 1 224 48 1 224 48 1 224 48 1 224 48 1 224 48 1 224 48 1 224 48 1 224 48 1 224 48 1 224 48 1 224 48 1 224 48 1 224 48 1 224 48 1 224 48 1 224 48 1 224 48 1 224 48 1 224 48 1 224 48 1 224 48 1 224 48 1 224 48 1 224 48 1 224 48 1 224 48 1 224 48 1 224 48 1 224 48 1 224 48 1
224 48 1 224 48 1 224 48 1 224 48 1 224 48 1 224 48 1 224 48 1 224 48 1 224 48 1 224 48 1 224 48 1 224 48 1 224 48 1 224 48 1 224 48 1 224 48 1 224 48 1 224 48 1 224 48 1 224 48 1 224 48 1 224 48 1 224 48 1 224 48 1 224 48 1 224 48 1 224 48 1 224 48 1 224 48 1 224 48 1 224 48 1 224 48 1 224 48 1 224 48 1 224 48 1 224 48 1 224 48 1 224 48 1 224 48 1 224 48 1 224 48 1 224 48 1 224 48 1 224 48 1 224 48 1 224 48 1 224 48 1 224 48 1 224 48 1 224 48 1 224 48 1 224 48 1 224 48 1 224 48 1 224 48 1 224 48 1 224 48 1 224 48 1 224 48 1 224 48 1 224 48 1 224 48 1 224 48 1 224 48 1 224 48 1 224 48 1 224 48 1 224 48 1 224 48 1 224 48 1 224 48 1 224 48 1 224 48 1 224 48 1 224 48 1 224 48 1 224 48 1 224 48 1 224 48 1 224 48 1 224 48 1 224 48 1 224 48 1 224 48 1 224 48 1 224 48 1 224 48 1 224 48 1 224 48 1 224 48 1 224 48 1 224 48 1 224 48 1 224 48 1 224 48 1 224 48 1 224 48 1 224 48 1 224 48 1 224 48 1 224 48 1 224 48 1 224 48 1 224 48 1 224 48 1 224 48 1 224 48 1 224 48 1 224 48 1 224 48 1 224 48 1 224 48 1 224 48 1 224 48 1 224 48 1 224 48 1 224 48 1 224 48 1 224 48 1 224 48 1 224 48 1 224 48 1 224 48 1 224 48 1 224 48 1 224 48 1 224 48 1 224 48 1 224 48 1 224 48 1 224 48 1 224 48 1 224 48 1 224 48 1 224 48 1 224 48 1 224 48 1 224 48 1 224 48 1 224 48 1 224 48 1 224 48 1 224 48 1 224 48 1 224 48 1 224 48 1 224 48 1 224 48 1 224 48 1 224 48 1 224 48 1 224 48 1 224 48 1 224 48 1 224 48 1 224 48 1 224 48 1 224 48 1 224 48 1 224 48 1 224 48 1 224 48 1 224 48 1 224 48 1 224 48 1 224 48 1 224 48 1 224 48 1 224 48 1 224 48 1 224 48 1 224 48 1 224 48 1 224 48 1 224 48 1 224 48 1 224 48 1 224 48 1 224 48 1 224 48 1 224 48 1 224 48 1 224 48 1 224 48 1 224 48 1 224 48 1 224 48 1 224 48 1 224 48 1 224 48 1 224 48 1 224 48 1 224 48 1 224 48 1 224 48 1 224 48 1 224 48 1 224 48 1 224 48 1 224 48 1 224 48 1 224 48 1 224 48 1 224 48 1 224 48 1 224 48 1 224 48 1 224 48 1 224 48 1 224 48 1 224 48 1 224 48 1 224 48 1 224 48 1 224 48 1 224 48 1 224 48 1 224 48 1 224 48 1 224 48 1 224 48 1 224 48 1 224 48 1 224 48 1 224 48 1 224 48 1 224 48 1 224 48 1 224 48 1 224 48 1 224 48 1 224 48 1 224 48 1 224 48 1 224 48 1 224 48 1 224 48 1 224 48 1 224 48 1 224 48 1
224 48 1 224 48 1 224 48 1 224 48 1 224 48 1 224 48 1 224 48 1 224 48 1 224 48 1 224 48 1 224 48 1 224 48 1 224 48 1 224 48 1 224 48 1 224 48 1 224 48 1 224 48 1 224 48 1 224 48 1 224 48 1 224 48 1 224 48 1 224 48 1 224 48 1 224 48 1 224 48 1 224 48 1 224 48 1 224 48 1 224 48 1 224 48 1 224 48 1 224 48 1 224 48 1 224 48 1 224 48 1 224 48 1 224 48 1 224 48 1 224 48 1 224 48 1 224 48 1 224 48 1 224 48 1 224 48 1 224 48 1 224 48 1 224 48 1 224 48 1 224 48 1 224 48 1 224 48 1 224 48 1 224 48 1 224 48 1 224 48 1 224 48 1 224 48 1 224 48 1 224 48 1 224 48 1 224 48 1 224 48 1 224 48 1 224 48 1 224 48 1 224 48 1 224 48 1 224 48 1 224 48 1 224 48 1 224 48 1 224 48 1 224 48 1 224 48 1 224 48 1 224 48 1 224 48 1 224 48 1 224 48 1 224 48 1 224 48 1 224 48 1 224 48 1 224 48 1 224 48 1 224 48 1 224 48 1 224 48 1 224 48 1 224 48 1 224 48 1 224 48 1 224 48 1 224 48 1 224 48 1 224 48 1 224 48 1 224 48 1 224 48 1 224 48 1 224 48 1 224 48 1 224 48 1 224 48 1 224 48 1 224 48 1 224 48 1 224 48 1 224 48 1 224 48 1 224 48 1 224 48 1 224 48 1 224 48 1 224 48 1 224 48 1 224 48 1 224 48 1 224 48 1 224 48 1 224 48 1 224 48 1 224 48 1 224 48 1 224 48 1 224 48 1 224 48 1 224 48 1 224 48 1 224 48 1 224 48 1 224 48 1 224 48 1 224 48 1 224 48 1 224 48 1 224 48 1 224 48 1 224 48 1 224 48 1 224 48 1 224 48 1 224 48 1 224 48 1 224 48 1 224 48 1 224 48 1 224 48 1 224 48 1 224 48 1 224 48 1 224 48 1 224 48 1 224 48 1 224 48 1 224 48 1 224 48 1 224 48 1 224 48 1 224 48 1 224 48 1 224 48 1 224 48 1 224 48 1 224 48 1 224 48 1 224 48 1 224 48 1 224 48 1 224 48 1 224 48 1 224 48 1 224 48 1 224 48 1 224 48 1 224 48 1 224 48 1 224 48 1 224 48 1 224 48 1 224 48 1 224 48 1 224 48 1 224 48 1 224 48 1 224 48 1 224 48 1 224 48 1 224 48 1 224 48 1 224 48 1 224 48 1 224 48 1 224 48 1 224 48 1 224 48 1 224 48 1 224 48 1 224 48 1 224 48 1 224 48 1 224 48 1 224 48 1 224 48 1 224 48 1 224 48 1 224 48 1 224 48 1 224 48 1 224 48 1 224 48 1 224 48 1 224 48 1 224 48 1 224 48 1 224 48 1 224 48 1 224 48 1 224 48 1 224 48 1 224 48 1 224 48 1 224 48 1 224 48 1 224 48 1 224 48 1 224 48 1 224 48 1 224 48 1 224 48 1 224 48 1 224 48 1 224 48 1 224 48 1 224 48 1 224 48 1 224 48 1 224 48 1
224 48 1 224 48 1 224 48 1 224 48 1 224 48 1 224 48 1 224 48 1 224 48 1 224 48 1 224 48 1 224 48 1 224 48 1 224 48 1 224 48 1 224 48 1 224 48 1 224 48 1 224 48 1 224 48 1 224 48 1 224 48 1 224 48 1 224 48 1 224 48 1 224 48 1 224 48 1 224 48 1 224 48 1 224 48 1 224 48 1 224 48 1 224 48 1 224 48 1 224 48 1 224 48 1 224 48 1 224 48 1 224 48 1 224 48 1 224 48 1 224 48 1 224 48 1 224 48 1 224 48 1 224 48 1 224 48 1 224 48 1 224 48 1 224 48 1 224 48 1 224 48 1 224 48 1 224 48 1 224 48 1 224 48 1 224 48 1 224 48 1 224 48 1 224 48 1 224 48 1 224 48 1 224 48 1 224 48 1 224 48 1 224 48 1 224 48 1 224 48 1 224 48 1 224 48 1 224 48 1 224 48 1 224 48 1 224 48 1 224 48 1 224 48 1 224 48 1 224 48 1 224 48 1 224 48 1 224 48 1 224 48 1 224 48 1 224 48 1 224 48 1 224 48 1 224 48 1 224 48 1 224 48 1 224 48 1 224 48 1 224 48 1 224 48 1 224 48 1 224 48 1 224 48 1 224 48 1 224 48 1 224 48 1 224 48 1 224 48 1 224 48 1 224 48 1 224 48 1 224 48 1 224 48 1 224 48 1 224 48 1 224 48 1 224 48 1 224 48 1 224 48 1 224 48 1 224 48 1 224 48 1 224 48 1 224 48 1 224 48 1 224 48 1 224 48 1 224 48 1 224 48 1 224 48 1 224 48 1 224 48 1 224 48 1 224 48 1 224 48 1 224 48 1 224 48 1 224 48 1 224 48 1 224 48 1 224 48 1 224 48 1 224 48 1 224 48 1 224 48 1 224 48 1 224 48 1 224 48 1 224 48 1 224 48 1 224 48 1 224 48 1 224 48 1 224 48 1 224 48 1 224 48 1 224 48 1 224 48 1 224 48 1 224 48 1 224 48 1 224 48 1 224 48 1 224 48 1 224 48 1 224 48 1 224 48 1 224 48 1 224 48 1 224 48 1 224 48 1 224 48 1 224 48 1 224 48 1 224 48 1 224 48 1 224 48 1 224 48 1 224 48 1 224 48 1 224 48 1 224 48 1 224 48 1 224 48 1 224 48 1 224 48 1 224 48 1 224 48 1 224 48 1 224 48 1 224 48 1 224 48 1 224 48 1 224 48 1 224 48 1 224 48 1 224 48 1 224 48 1 224 48 1 224 48 1 224 48 1 224 48 1 224 48 1 224 48 1 224 48 1 224 48 1 224 48 1 224 48 1 224 48 1 224 48 1 224 48 1 224 48 1 224 48 1 224 48 1 224 48 1 224 48 1 224 48 1 224 48 1 224 48 1 224 48 1 224 48 1 224 48 1 224 48 1 224 48 1 224 48 1 224 48 1 224 48 1 224 48 1 224 48 1 224 48 1 224 48 1 224 48 1 224 48 1 224 48 1 224 48 1 224 48 1 224 48 1 224 48 1 224 48 1 224 48 1 224 48 1 224 48 1 224 48 1 224 48 1 224 48 1 224 48 1 224 48 1 224 48 1
224 48 1 224 48 1 224 48 1 224 48 1 224 48 1 224 48 1 224 48 1 224 48 1 224 48 1 224 48 1 224 48 1 224 48 1 224 48 1 224 48 1 224 48 1 224 48 1 224 48 1 224 48 1 224 48 1 224 48 1 224 48 1 224 48 1 224 48 1 224 48 1 224 48 1 224 48 1 224 48 1 224 48 1 224 48 1 224 48 1 224 48 1 224 48 1 224 48 1 224 48 1 224 48 1 224 48 1 224 48 1 224 48 1 224 48 1 224 48 1 224 48 1 224 48 1 224 48 1 224 48 1 224 48 1 224 48 1 224 48 1 224 48 1 224 48 1 224 48 1 224 48 1 224 48 1 224 48 1 224 48 1 224 48 1 224 48 1 224 48 1 224 48 1 224 48 1 224 48 1 224 48 1 224 48 1 224 48 1 224 48 1 224 48 1 224 48 1 224 48 1 224 48 1 224 48 1 224 48 1 224 48 1 224 48 1 224 48 1 224 48 1 224 48 1 224 48 1 224 48 1 224 48 1 224 48 1 224 48 1 224 48 1 224 48 1 224 48 1 224 48 1 224 48 1 224 48 1 224 48 1 224 48 1 224 48 1 224 48 1 224 48 1 224 48 1 224 48 1 224 48 1 224 48 1 224 48 1 224 48 1 224 48 1 224 48 1 224 48 1 224 48 1 224 48 1 224 48 1 224 48 1 224 48 1 224 48 1 224 48 1 224 48 1 224 48 1 224 48 1 224 48 1 224 48 1 224 48 1 224 48 1 224 48 1 224 48 1 224 48 1 224 48 1 224 48 1 224 48 1 224 48 1 224 48 1 224 48 1 224 48 1 224 48 1 224 48 1 224 48 1 224 48 1 224 48 1 224 48 1 224 48 1 224 48 1 224 48 1 224 48 1 224 48 1 224 48 1 224 48 1 224 48 1 224 48 1 224 48 1 224 48 1 224 48 1 224 48 1 224 48 1 224 48 1 224 48 1 224 48 1 224 48 1 224 48 1 224 48 1 224 48 1 224 48 1 224 48 1 224 48 1 224 48 1 224 48 1 224 48 1 224 48 1 224 48 1 224 48 1 224 48 1 224 48 1 224 48 1 224 48 1 224 48 1 224 48 1 224 48 1 224 48 1 224 48 1 224 48 1 224 48 1 224 48 1 224 48 1 224 48 1 224 48 1 224 48 1 224 48 1 224 48 1 224 48 1 224 48 1 224 48 1 224 48 1 224 48 1 224 48 1 224 48 1 224 48 1 224 48 1 224 48 1 224 48 1 224 48 1 224 48 1 224 48 1 224 48 1 224 48 1 224 48 1 224 48 1 224 48 1 224 48 1 224 48 1 224 48 1 224 48 1 224 48 1 224 48 1 224 48 1 224 48 1 224 48 1 224 48 1 224 48 1 224 48 1 224 48 1 224 48 1 224 48 1 224 48 1 224 48 1 224 48 1 224 48 1 224 48 1 224 48 1 224 48 1 224 48 1 224 48 1 224 48 1 224 48 1 224 48 1 224 48 1 224 48 1 224 48 1 224 48 1 224 48 1 224 48 1 224 48 1 224 48 1 224 48 1 224 48 1 224 48 1 224 48 1 224 48 1 224 48 1 224 48 1 224 48 1
224 48 1 224 48 1 224 48 1 224 48 1 224 48 1 224 48 1 224 48 1 224 48 1 224 48 1 224 48 1 224 48 1 224 48 1 224 48 1 224 48 1 224 48 1 224 48 1 224 48 1 224 48 1 224 48 1 224 48 1 224 48 1 224 48 1 224 48 1 224 48 1 224 48 1 224 48 1 224 48 1 224 48 1 224 48 1 224 48 1 224 48 1 224 48 1 224 48 1 224 48 1 224 48 1 224 48 1 224 48 1 224 48 1 224 48 1 224 48 1 224 48 1 224 48 1 224 48 1 224 48 1 224 48 1 224 48 1 224 48 1 224 48 1 224 48 1 224 48 1 224 48 1 224 48 1 224 48 1 224 48 1 224 48 1 224 48 1 224 48 1 224 48 1 224 48 1 224 48 1 224 48 1 224 48 1 224 48 1 224 48 1 224 48 1 224 48 1 224 48 1 224 48 1 224 48 1 224 48 1 224 48 1 224 48 1 224 48 1 224 48 1 224 48 1 224 48 1 224 48 1 224 48 1 224 48 1 224 48 1 224 48 1 224 48 1 224 48 1 224 48 1 224 48 1 224 48 1 224 48 1 224 48 1 224 48 1 224 48 1 224 48 1 224 48 1 224 48 1 224 48 1 224 48 1 224 48 1 224 48 1 224 48 1 224 48 1 224 48 1 224 48 1 224 48 1 224 48 1 224 48 1 224 48 1 224 48 1 224 48 1 224 48 1 224 48 1 224 48 1 224 48 1 224 48 1 224 48 1 224 48 1 224 48 1 224 48 1 224 48 1 224 48 1 224 48 1 224 48 1 224 48 1 224 48 1 224 48 1 224 48 1 224 48 1 224 48 1 224 48 1 224 48 1 224 48 1 224 48 1 224 48 1 224 48 1 224 48 1 224 48 1 224 48 1 224 48 1 224 48 1 224 48 1 224 48 1 224 48 1 224 48 1 224 48 1 224 48 1 224 48 1 224 48 1 224 48 1 224 48 1 224 48 1 224 48 1 224 48 1 224 48 1 224 48 1 224 48 1 224 48 1 224 48 1 224 48 1 224 48 1 224 48 1 224 48 1 224 48 1 224 48 1 224 48 1 224 48 1 224 48 1 224 48 1 224 48 1 224 48 1 224 48 1 224 48 1 224 48 1 224 48 1 224 48 1 224 48 1 224 48 1 224 48 1 224 48 1 224 48 1 224 48 1 224 48 1 224 48 1 224 48 1 224 48 1 224 48 1 224 48 1 224 48 1 224 48 1 224 48 1 224 48 1 224 48 1 224 48 1 224 48 1 224 48 1 224 48 1 224 48 1 224 48 1 224 48 1 224 48 1 224 48 1 224 48 1 224 48 1 224 48 1 224 48 1 224 48 1 224 48 1 224 48 1 224 48 1 224 48 1 224 48 1 224 48 1 224 48 1 224 48 1 224 48 1 224 48 1 224 48 1 224 48 1 224 48 1 224 48 1 224 48 1 224 48 1 224 48 1 224 48 1 224 48 1 224 48 1 224 48 1 224 48 1 224 48 1 224 48 1 224 48 1 224 48 1 224 48 1 224 48 1 224 48 1 224 48 1 224 48 1 224 48 1 224 48 1 224 48 1 224 48 1 224 48 1 224 48 1
20 2 0 20 2 0 20 2 0 20 2 0 20 2 0 20 2 0 20 2 0 20 2 0 20 2 0 20 2 0 20 2 0 20 2 0 20 2 0 20 2 0 20 2 0 20 2 0 20 2 0 20 2 0 20 2 0 20 2 0 20 2 0 20 2 0 20 2 0 20 2 0 20 2 0 20 2 0 20 2 0 20 2 0 20 2 0 20 2 0 20 2 0 20 2 0 20 2 0 20 2 0 20 2 0 20 2 0 20 2 0 20 2 0 20 2 0 20 2 0 20 2 0 20 2 0 20 2 0 20 2 0 20 2 0 20 2 0 20 2 0 20 2 0 20 2 0 20 2 0 20 2 0 20 2 0 20 2 0 20 2 0 20 2 0 20 2 0 20 2 0 20 2 0 20 2 0 20 2 0 20 2 0 20 2 0 20 2 0 20 2 0 20 2 0 20 2 0 20 2 0 20 2 0 20 2 0 20 2 0 20 2 0 20 2 0 20 2 0 20 2 0 20 2 0 20 2 0 20 2 0 20 2 0 20 2 0 20 2 0 20 2 0 20 2 0 20 2 0 20 2 0 20 2 0 20 2 0 20 2 0 20 2 0 20 2 0 20 2 0 20 2 0 20 2 0 20 2 0 20 2 0 20 2 0 20 2 0 20 2 0 20 2 0 20 2 0 20 2 0 20 2 0 20 2 0 20 2 0 20 2 0 20 2 0 20 2 0 20 2 0 20 2 0 20 2 0 20 2 0 20 2 0 20 2 0 20 2 0 20 2 0 20 2 0 20 2 0 20 2 0 20 2 0 20 2 0 20 2 0 20 2 0 20 2 0 20 2 0 20 2 0 20 2 0 20 2 0 20 2 0 20 2 0 20 2 0 20 2 0 20 2 0 20 2 0 20 2 0 20 2 0 20 2 0 20 2 0 20 2 0 20 2 0 20 2 0 20 2 0 20 2 0 20 2 0 20 2 0 20 2 0 20 2 0 20 2 0 20 2 0 20 2 0 20 2 0 20 2 0 20 2 0 20 2 0 20 2 0 20 2 0 20 2 0 20 2 0 20 2 0 20 2 0 20 2 0 20 2 0 20 2 0 20 2 0 20 2 0 20 2 0 20 2 0 20 2 0 20 2 0 20 2 0 20 2 0 20 2 0 20 2 0 20 2 0 20 2 0 20 2 0 20 2 0 20 2 0 20 2 0 20 2 0 20 2 0 20 2 0 20 2 0 20 2 0 20 2 0 20 2 0 20 2 0 20 2 0 20 2 0 20 2 0 20 2 0 20 2 0 20 2 0 20 2 0 20 2 0 20 2 0 20 2 0 20 2 0 20 2 0 20 2 0 20 2 0 20 2 0 20 2 0 20 2 0 20 2 0 20 2 0 20 2 0 20 2 0 20 2 0 20 2 0 20 2 0 20 2 0 20 2 0 20 2 0 20 2 0 20 2 0 20 2 0 20 2 0 20 2 0 20 2 0 20 2 0 20 2 0 20 2 0 20 2 0 20 2 0 20 2 0 20 2 0 20 2 0 20 2 0 20 2 0 20 2 0 20 2 0 20 2 0 20 2 0 20 2 0 20 2 0 20 2 0 20 2 0 20 2 0 20 2 0 20 2 0 20 2 0
20 2 0 20 2 0 20 2 0 20 2 0 20 2 0 20 2 0 20 2 0 20 2 0 20 2 0 20 2 0 20 2 0 20 2 0 20 2 0 20 2 0 20 2 0 20 2 0 20 2 0 20 2 0 20 2 0 20 2 0 20 2 0 20 2 0 20 2 0 20 2 0 20 2 0 20 2 0 20 2 0 20 2 0 20 2 0 20 2 0 20 2 0 20 2 0 20 2 0 20 2 0 20 2 0 20 2 0 20 2 0 20 2 0 20 2 0 20 2 0 20 2 0 20 2 0 20 2 0 20 2 0 20 2 0 20 2 0 20 2 0 20 2 0 20 2 0 20 2 0 20 2 0 20 2 0 20 2 0 20 2 0 20 2 0 20 2 0 20 2 0 20 2 0 20 2 0 20 2 0 20 2 0 20 2 0 20 2 0 20 2 0 20 2 0 20 2 0 20 2 0 20 2 0 20 2 0 20 2 0 20 2 0 20 2 0 20 2 0 20 2 0 20 2 0 20 2 0 20 2 0 20 2 0 20 2 0 20 2 0 20 2 0 20 2 0 20 2 0 20 2 0 20 2 0 20 2 0 20 2 0 20 2 0 20 2 0 20 2 0 20 2 0 20 2 0 20 2 0 20 2 0 20 2 0 20 2 0 20 2 0 20 2 0 20 2 0 20 2 0 20 2 0 20 2 0 20 2 0 20 2 0 20 2 0 20 2 0 20 2 0 20 2 0 20 2 0 20 2 0 20 2 0 20 2 0 20 2 0 20 2 0 20 2 0 20 2 0 20 2 0 20 2 0 20 2 0 20 2 0 20 2 0 20 2 0 20 2 0 20 2 0 20 2 0 20 2 0 20 2 0 20 2 0 20 2 0 20 2 0 20 2 0 20 2 0 20 2 0 20 2 0 20 2 0 20 2 0 20 2 0 20 2 0 20 2 0 20 2 0 20 2 0 20 2 0 20 2 0 20 2 0 20 2 0 20 2 0 20 2 0 20 2 0 20 2 0 20 2 0 20 2 0 20 2 0 20 2 0 20 2 0 20 2 0 20 2 0 20 2 0 20 2 0 20 2 0 20 2 0 20 2 0 20 2 0 20 2 0 20 2 0 20 2 0 20 2 0 20 2 0 20 2 0 20 2 0 20 2 0 20 2 0 20 2 0 20 2 0 20 2 0 20 2 0 20 2 0 20 2 0 20 2 0 20 2 0 20 2 0 20 2 0 20 2 0 20 2 0 20 2 0 20 2 0 20 2 0 20 2 0 20 2 0 20 2 0 20 2 0 20 2 0 20 2 0 20 2 0 20 2 0 20 2 0 20 2 0 20 2 0 20 2 0 20 2 0 20 2 0 20 2 0 20 2 0 20 2 0 20 2 0 20 2 0 20 2 0 20 2 0 20 2 0 20 2 0 20 2 0 20 2 0 20 2 0 20 2 0 20 2 0 20 2 0 20 2 0 20 2 0 20 2 0 20 2 0 20 2 0 20 2 0 20 2 0 20 2 0 20 2 0 20 2 0 20 2 0 20 2 0 20 2 0 20 2 0 20 2 0 20 2 0 20 2 0 20 2 0 20 2 0 20 2 0 20 2 0 20 2 0 20 2 0 20 2 0 20 2 0
20 2 0 20 2 0 20 2 0 20 2 0 20 2 0 20 2 0 20 2 0 20 2 0 20 2 0 20 2 0 20 2 0 20 2 0 20 2 0 20 2 0 20 2 0 20 2 0 20 2 0 20 2 0 20 2 0 20 2 0 20 2 0 20 2 0 20 2 0 20 2 0 20 2 0 20 2 0 20 2 0 20 2 0 20 2 0 20 2 0 20 2 0 20 2 0 20 2 0 20 2 0 20 2 0 20 2 0 20 2 0 20 2 0 20 2 0 20 2 0 20 2 0 20 2 0 20 2 0 20 2 0 20 2 0 20 2 0 20 2 0 20 2 0 20 2 0 20 2 0 20 2 0 20 2 0 20 2 0 20 2 0 20 2 0 20 2 0 20 2 0 20 2 0 20 2 0 20 2 0 20 2 0 20 2 0 20 2 0 20 2 0 20 2 0 20 2 0 20 2 0 20 2 0 20 2 0 20 2 0 20 2 0 20 2 0 20 2 0 20 2 0 20 2 0 20 2 0 20 2 0 20 2 0 20 2 0 20 2 0 20 2 0 20 2 0 20 2 0 20 2 0 20 2 0 20 2 0 20 2 0 20 2 0 20 2 0 20 2 0 20 2 0 20 2 0 20 2 0 20 2 0 20 2 0 20 2 0 20 2 0 20 2 0 20 2 0 20 2 0 20 2 0 20 2 0 20 2 0 20 2 0 20 2 0 20 2 0 20 2 0 20 2 0 20 2 0 20 2 0 20 2 0 20 2 0 20 2 0 20 2 0 20 2 0 20 2 0 20 2 0 20 2 0 20 2 0 20 2 0 20 2 0 20 2 0 20 2 0 20 2 0 20 2 0 20 2 0 20 2 0 20 2 0 20 2 0 20 2 0 20 2 0 20 2 0 20 2 0 20 2 0 20 2 0 20 2 0 20 2 0 20 2 0 20 2 0 20 2 0 20 2 0 20 2 0 20 2 0 20 2 0 20 2 0 20 2 0 20 2 0 20 2 0 20 2 0 20 2 0 20 2 0 20 2 0 20 2 0 20 2 0 20 2 0 20 2 0 20 2 0 20 2 0 20 2 0 20 2 0 20 2 0 20 2 0 20 2 0 20 2 0 20 2 0 20 2 0 20 2 0 20 2 0 20 2 0 20 2 0 20 2 0 20 2 0 20 2 0 20 2 0 20 2 0 20 2 0 20 2 0 20 2 0 20 2 0 20 2 0 20 2 0 20 2 0 20 2 0 20 2 0 20 2 0 20 2 0 20 2 0 20 2 0 20 2 0 20 2 0 20 2 0 20 2 0 20 2 0 20 2 0 20 2 0 20 2 0 20 2 0 20 2 0 20 2 0 20 2 0 20 2 0 20 2 0 20 2 0 20 2 0 20 2 0 20 2 0 20 2 0 20 2 0 20 2 0 20 2 0 20 2 0 20 2 0 20 2 0 20 2 0 20 2 0 20 2 0 20 2 0 20 2 0 20 2 0 20 2 0 20 2 0 20 2 0 20 2 0 20 2 0 20 2 0 20 2 0 20 2 0 20 2 0 20 2 0 20 2 0 20 2 0 20 2 0 20 2 0 20 2 0 20 2 0 20 2 0 20 2 0 20 2 0 20 2 0 20 2 0
20 2 0 20 2 0 20 2 0 20 2 0 20 2 0 20 2 0 20 2 0 20 2 0 20 2 0 20 2 0 20 2 0 20 2 0 20 2 0 20 2 0 20 2 0 20 2 0 20 2 0 20 2 0 20 2 0 20 2 0 20 2 0 20 2 0 20 2 0 20 2 0 20 2 0 20 2 0 20 2 0 20 2 0 20 2 0 20 2 0 20 2 0 20 2 0 20 2 0 20 2 0 20 2 0 20 2 0 20 2 0 20 2 0 20 2 0 20 2 0 20 2 0 20 2 0 20 2 0 20 2 0 20 2 0 20 2 0 20 2 0 20 2 0 20 2 0 20 2 0 20 2 0 20 2 0 20 2 0 20 2 0 20 2 0 20 2 0 20 2 0 20 2 0 20 2 0 20 2 0 20 2 0 20 2 0 20 2 0 20 2 0 20 2 0 20 2 0 20 2 0 20 2 0 20 2 0 20 2 0 20 2 0 20 2 0 20 2 0 20 2 0 20 2 0 20 2 0 20 2 0 20 2 0 20 2 0 20 2 0 20 2 0 20 2 0 20 2 0 20 2 0 20 2 0 20 2 0 20 2 0 20 2 0 20 2 0 20 2 0 20 2 0 20 2 0 20 2 0 20 2 0 20 2 0 20 2 0 20 2 0 20 2 0 20 2 0 20 2 0 20 2 0 20 2 0 20 2 0 20 2 0 20 2 0 20 2 0 20 2 0 20 2 0 20 2 0 20 2 0 20 2 0 20 2 0 20 2 0 20 2 0 20 2 0 20 2 0 20 2 0 20 2 0 20 2 0 20 2 0 20 2 0 20 2 0 20 2 0 20 2 0 20 2 0 20 2 0 20 2 0 20 2 0 20 2 0 20 2 0 20 2 0 20 2 0 20 2 0 20 2 0 20 2 0 20 2 0 20 2 0 20 2 0 20 2 0 20 2 0 20 2 0 20 2 0 20 2 0 20 2 0 20 2 0 20 2 0 20 2 0 20 2 0 20 2 0 20 2 0 20 2 0 20 2 0 20 2 0 20 2 0 20 2 0 20 2 0 20 2 0 20 2 0 20 2 0 20 2 0 20 2 0 20 2 0 20 2 0 20 2 0 20 2 0 20 2 0 20 2 0 20 2 0 20 2 0 20 2 0 20 2 0 20 2 0 20 2 0 20 2 0 20 2 0 20 2 0 20 2 0 20 2 0 20 2 0 20 2 0 20 2 0 20 2 0 20 2 0 20 2 0 20 2 0 20 2 0 20 2 0 20 2 0 20 2 0 20 2 0 20 2 0 20 2 0 20 2 0 20 2 0 20 2 0 20 2 0 20 2 0 20 2 0 20 2 0 20 2 0 20 2 0 20 2 0 20 2 0 20 2 0 20 2 0 20 2 0 20 2 0 20 2 0 20 2 0 20 2 0 20 2 0 20 2 0 20 2 0 20 2 0 20 2 0 20 2 0 20 2 0 20 2 0 20 2 0 20 2 0 20 2 0 20 2 0 20 2 0 20 2 0 20 2 0 20 2 0 20 2 0 20 2 0 20 2 0 20 2 0 20 2 0 20 2 0 20 2 0 20 2 0 20 2 0 20 2 0 20 2 0 20 2 0 20 2 0 20 2 0
20 2 0 20 2 0 20 2 0 20 2 0 20 2 0 20 2 0 20 2 0 20 2 0 20 2 0 20 2 0 20 2 0 20 2 0 20 2 0 20 2 0 20 2 0 20 2 0 20 2 0 20 2 0 20 2 0 20 2 0 20 2 0 20 2 0 20 2 0 20 2 0 20 2 0 20 2 0 20 2 0 20 2 0 20 2 0 20 2 0 20 2 0 20 2 0 20 2 0 20 2 0 20 2 0 20 2 0 20 2 0 20 2 0 20 2 0 20 2 0 20 2 0 20 2 0 20 2 0 20 2 0 20 2 0 20 2 0 20 2 0 20 2 0 20 2 0 20 2 0 20 2 0 20 2 0 20 2 0 20 2 0 20 2 0 20 2 0 20 2 0 20 2 0 20 2 0 20 2 0 20 2 0 20 2 0 20 2 0 20 2 0 20 2 0 20 2 0 20 2 0 20 2 0 20 2 0 20 2 0 20 2 0 20 2 0 20 2 0 20 2 0 20 2 0 20 2 0 20 2 0 20 2 0 20 2 0 20 2 0 20 2 0 20 2 0 20 2 0 20 2 0 20 2 0 20 2 0 20 2 0 20 2 0 20 2 0 20 2 0 20 2 0 20 2 0 20 2 0 20 2 0 20 2 0 20 2 0 20 2 0 20 2 0 20 2 0 20 2 0 20 2 0 20 2 0 20 2 0 20 2 0 20 2 0 20 2 0 20 2 0 20 2 0 20 2 0 20 2 0 20 2 0 20 2 0 20 2 0 20 2 0 20 2 0 20 2 0 20 2 0 20 2 0 20 2 0 20 2 0 20 2 0 20 2 0 20 2 0 20 2 0 20 2 0 20 2 0 20 2 0 20 2 0 20 2 0 20 2 0 20 2 0 20 2 0 20 2 0 20 2 0 20 2 0 20 2 0 20 2 0 20 2 0 20 2 0 20 2 0 20 2 0 20 2 0 20 2 0 20 2 0 20 2 0 20 2 0 20 2 0 20 2 0 20 2 0 20 2 0 20 2 0 20 2 0 20 2 0 20 2 0 20 2 0 20 2 0 20 2 0 20 2 0 20 2 0 20 2 0 20 2 0 20 2 0 20 2 0 20 2 0 20 2 0 20 2 0 20 2 0 20 2 0 20 2 0 20 2 0 20 2 0 20 2 0 20 2 0 20 2 0 20 2 0 20 2 0 20 2 0 20 2 0 20 2 0 20 2 0 20 2 0 20 2 0 20 2 0 20 2 0 20 2 0 20 2 0 20 2 0 20 2 0 20 2 0 20 2 0 20 2 0 20 2 0 20 2 0 20 2 0 20 2 0 20 2 0 20 2 0 20 2 0 20 2 0 20 2 0 20 2 0 20 2 0 20 2 0 20 2 0 20 2 0 20 2 0 20 2 0 20 2 0 20 2 0 20 2 0 20 2 0 20 2 0 20 2 0 20 2 0 20 2 0 20 2 0 20 2 0 20 2 0 20 2 0 20 2 0 20 2 0 20 2 0 20 2 0 20 2 0 20 2 0 20 2 0 20 2 0 20 2 0 20 2 0 20 2 0 20 2 0 20 2 0 20 2 0 20 2 0 20 2 0 20 2 0 20 2 0 20 2 0 20 2 0 20 2 0
20 2 0 20 2 0 20 2 0 20 2 0 20 2 0 20 2 0 20 2 0 20 2 0 20 2 0 20 2 0 20 2 0 20 2 0 20 2 0 20 2 0 20 2 0 20 2 0 20 2 0 20 2 0 20 2 0 20 2 0 20 2 0 20 2 0 20 2 0 20 2 0 20 2 0 20 2 0 20 2 0 20 2 0 20 2 0 20 2 0 20 2 0 20 2 0 20 2 0 20 2 0 20 2 0 20 2 0 20 2 0 20 2 0 20 2 0 20 2 0 20 2 0 20 2 0 20 2 0 20 2 0 20 2 0 20 2 0 20 2 0 20 2 0 20 2 0 20 2 0 20 2 0 20 2 0 20 2 0 20 2 0 20 2 0 20 2 0 20 2 0 20 2 0 20 2 0 20 2 0 20 2 0 20 2 0 20 2 0 20 2 0 20 2 0 20 2 0 20 2 0 20 2 0 20 2 0 20 2 0 20 2 0 20 2 0 20 2 0 20 2 0 20 2 0 20 2 0 20 2 0 20 2 0 20 2 0 20 2 0 20 2 0 20 2 0 20 2 0 20 2 0 20 2 0 20 2 0 20 2 0 20 2 0 20 2 0 20 2 0 20 2 0 20 2 0 20 2 0 20 2 0 20 2 0 20 2 0 20 2 0 20 2 0 20 2 0 20 2 0 20 2 0 20 2 0 20 2 0 20 2 0 20 2 0 20 2 0 20 2 0 20 2 0 20 2 0 20 2 0 20 2 0 20 2 0 20 2 0 20 2 0 20 2 0 20 2 0 20 2 0 20 2 0 20 2 0 20 2 0 20 2 0 20 2 0 20 2 0 20 2 0 20 2 0 20 2 0 20 2 0 20 2 0 20 2 0 20 2 0 20 2 0 20 2 0 20 2 0 20 2 0 20 2 0 20 2 0 20 2 0 20 2 0 20 2 0 20 2 0 20 2 0 20 2 0 20 2 0 20 2 0 20 2 0 20 2 0 20 2 0 20 2 0 20 2 0 20 2 0 20 2 0 20 2 0 20 2 0 20 2 0 20 2 0 20 2 0 20 2 0 20 2 0 20 2 0 20 2 0 20 2 0 20 2 0 20 2 0 20 2 0 20 2 0 20 2 0 20 2 0 20 2 0 20 2 0 20 2 0 20 2 0 20 2 0 20 2 0 20 2 0 20 2 0 20 2 0 20 2 0 20 2 0 20 2 0 20 2 0 20 2 0 20 2 0 20 2 0 20 2 0 20 2 0 20 2 0 20 2 0 20 2 0 20 2 0 20 2 0 20 2 0 20 2 0 20 2 0 20 2 0 20 2 0 20 2 0 20 2 0 20 2 0 20 2 0 20 2 0 20 2 0 20 2 0 20 2 0 20 2 0 20 2 0 20 2 0 20 2 0 20 2 0 20 2 0 20 2 0 20 2 0 20 2 0 20 2 0 20 2 0 20 2 0 20 2 0 20 2 0 20 2 0 20 2 0 20 2 0 20 2 0 20 2 0 20 2 0 20 2 0 20 2 0 20 2 0 20 2 0 20 2 0 20 2 0 20 2 0 20 2 0 20 2 0 20 2 0 20 2 0 20 2 0 20 2 0 20 2 0 20 2 0 20 2 0 20 2 0
20 2 0 20 2 0 20 2 0 20 2 0 20 2 0 20 2 0 20 2 0 20 2 0 20 2 0 20 2 0 20 2 0 20 2 0 20 2 0 20 2 0 20 2 0 20 2 0 20 2 0 20 2 0 20 2 0 20 2 0 20 2 0 20 2 0 20 2 0 20 2 0 20 2 0 20 2 0 20 2 0 20 2 0 20 2 0 20 2 0 20 2 0 20 2 0 20 2 0 20 2 0 20 2 0 20 2 0 20 2 0 20 2 0 20 2 0 20 2 0 20 2 0 20 2 0 20 2 0 20 2 0 20 2 0 20 2 0 20 2 0 20 2 0 20 2 0 20 2 0 20 2 0 20 2 0 20 2 0 20 2 0 20 2 0 20 2 0 20 2 0 20 2 0 20 2 0 20 2 0 20 2 0 20 2 0 20 2 0 20 2 0 20 2 0 20 2 0 20 2 0 20 2 0 20 2 0 20 2 0 20 2 0 20 2 0 20 2 0 20 2 0 20 2 0 20 2 0 20 2 0 20 2 0 20 2 0 20 2 0 20 2 0 20 2 0 20 2 0 20 2 0 20 2 0 20 2 0 20 2 0 20 2 0 20 2 0 20 2 0 20 2 0 20 2 0 20 2 0 20 2 0 20 2 0 20 2 0 20 2 0 20 2 0 20 2 0 20 2 0 20 2 0 20 2 0 20 2 0 20 2 0 20 2 0 20 2 0 20 2 0 20 2 0 20 2 0 20 2 0 20 2 0 20 2 0 20 2 0 20 2 0 20 2 0 20 2 0 20 2 0 20 2 0 20 2 0 20 2 0 20 2 0 20 2 0 20 2 0 20 2 0 20 2 0 20 2 0 20 2 0 20 2 0 20 2 0 20 2 0 20 2 0 20 2 0 20 2 0 20 2 0 20 2 0 20 2 0 20 2 0 20 2 0 20 2 0 20 2 0 20 2 0 20 2 0 20 2 0 20 2 0 20 2 0 20 2 0 20 2 0 20 2 0 20 2 0 20 2 0 20 2 0 20 2 0 20 2 0 20 2 0 20 2 0 20 2 0 20 2 0 20 2 0 20 2 0 20 2 0 20 2 0 20 2 0 20 2 0 20 2 0 20 2 0 20 2 0 20 2 0 20 2 0 20 2 0 20 2 0 20 2 0 20 2 0 20 2 0 20 2 0 20 2 0 20 2 0 20 2 0 20 2 0 20 2 0 20 2 0 20 2 0 20 2 0 20 2 0 20 2 0 20 2 0 20 2 0 20 2 0 20 2 0 20 2 0 20 2 0 20 2 0 20 2 0 20 2 0 20 2 0 20 2 0 20 2 0 20 2 0 20 2 0 20 2 0 20 2 0 20 2 0 20 2 0 20 2 0 20 2 0 20 2 0 20 2 0 20 2 0 20 2 0 20 2 0 20 2 0 20 2 0 20 2 0 20 2 0 20 2 0 20 2 0 20 2 0 20 2 0 20 2 0 20 2 0 20 2 0 20 2 0 20 2 0 20 2 0 20 2 0 20 2 0 20 2 0 20 2 0 20 2 0 20 2 0 20 2 0 20 2 0 20 2 0 20 2 0 20 2 0 20 2 0 20 2 0 20 2 0 20 2 0 20 2 0 20 2 0
20 2 0 20 2 0 20 2 0 20 2 0 20 2 0 20 2 0 20 2 0 20 2 0 20 2 0 20 2 0 20 2 0 20 2 0 20 2 0 20 2 0 20 2 0 20 2 0 20 2 0 20 2 0 20 2 0 20 2 0 20 2 0 20 2 0 20 2 0 20 2 0 20 2 0 20 2 0 20 2 0 20 2 0 20 2 0 20 2 0 20 2 0 20 2 0 20 2 0 20 2 0 20 2 0 20 2 0 20 2 0 20 2 0 20 2 0 20 2 0 20 2 0 20 2 0 20 2 0 20 2 0 20 2 0 20 2 0 20 2 0 20 2 0 20 2 0 20 2 0 20 2 0 20 2 0 20 2 0 20 2 0 20 2 0 20 2 0 20 2 0 20 2 0 20 2 0 20 2 0 20 2 0 20 2 0 20 2 0 20 2 0 20 2 0 20 2 0 20 2 0 20 2 0 20 2 0 20 2 0 20 2 0 20 2 0 20 2 0 20 2 0 20 2 0 20 2 0 20 2 0 20 2 0 20 2 0 20 2 0 20 2 0 20 2 0 20 2 0 20 2 0 20 2 0 20 2 0 20 2 0 20 2 0 20 2 0 20 2 0 20 2 0 20 2 0 20 2 0 20 2 0 20 2 0 20 2 0 20 2 0 20 2 0 20 2 0 20 2 0 20 2 0 20 2 0 20 2 0 20 2 0 20 2 0 20 2 0 20 2 0 20 2 0 20 2 0 20 2 0 20 2 0 20 2 0 20 2 0 20 2 0 20 2 0 20 2 0 20 2 0 20 2 0 20 2 0 20 2 0 20 2 0 20 2 0 20 2 0 20 2 0 20 2 0 20 2 0 20 2 0 20 2 0 20 2 0 20 2 0 20 2 0 20 2 0 20 2 0 20 2 0 20 2 0 20 2 0 20 2 0 20 2 0 20 2 0 20 2 0 20 2 0 20 2 0 20 2 0 20 2 0 20 2 0 20 2 0 20 2 0 20 2 0 20 2 0 20 2 0 20 2 0 20 2 0 20 2 0 20 2 0 20 2 0 20 2 0 20 2 0 20 2 0 20 2 0 20 2 0 20 2 0 20 2 0 20 2 0 20 2 0 20 2 0 20 2 0 20 2 0 20 2 0 20 2 0 20 2 0 20 2 0 20 2 0 20 2 0 20 2 0 20 2 0 20 2 0 20 2 0 20 2 0 20 2 0 20 2 0 20 2 0 20 2 0 20 2 0 20 2 0 20 2 0 20 2 0 20 2 0 20 2 0 20 2 0 20 2 0 20 2 0 20 2 0 20 2 0 20 2 0 20 2 0 20 2 0 20 2 0 20 2 0 20 2 0 20 2 0 20 2 0 20 2 0 20 2 0 20 2 0 20 2 0 20 2 0 20 2 0 20 2 0 20 2 0 20 2 0 20 2 0 20 2 0 20 2 0 20 2 0 20 2 0 20 2 0 20 2 0 20 2 0 20 2 0 20 2 0 20 2 0 20 2 0 20 2 0 20 2 0 20 2 0 20 2 0 20 2 0 20 2 0 20 2 0 20 2 0 20 2 0 20 2 0 20 2 0 20 2 0 20 2 0 20 2 0 20 2 0 20 2 0 20 2 0 20 2 0
20 2 0 20 2 0 20 2 0 20 2 0 20 2 0 20 2 0 20 2 0 20 2 0 20 2 0 20 2 0 20 2 0 20 2 0 20 2 0 20 2 0 20 2 0 20 2 0 20 2 0 20 2 0 20 2 0 20 2 0 20 2 0 20 2 0 20 2 0 20 2 0 20 2 0 20 2 0 20 2 0 20 2 0 20 2 0 20 2 0 20 2 0 20 2 0 20 2 0 20 2 0 20 2 0 20 2 0 20 2 0 20 2 0 20 2 0 20 2 0 20 2 0 20 2 0 20 2 0 20 2 0 20 2 0 20 2 0 20 2 0 20 2 0 20 2 0 20 2 0 20 2 0 20 2 0 20 2 0 20 2 0 20 2 0 20 2 0 20 2 0 20 2 0 20 2 0 20 2 0 20 2 0 20 2 0 20 2 0 20 2 0 20 2 0 20 2 0 20 2 0 20 2 0 20 2 0 20 2 0 20 2 0 20 2 0 20 2 0 20 2 0 20 2 0 20 2 0 20 2 0 20 2 0 20 2 0 20 2 0 20 2 0 20 2 0 20 2 0 20 2 0 20 2 0 20 2 0 20 2 0 20 2 0 20 2 0 20 2 0 20 2 0 20 2 0 20 2 0 20 2 0 20 2 0 20 2 0 20 2 0 20 2 0 20 2 0 20 2 0 20 2 0 20 2 0 20 2 0 20 2 0 20 2 0 20 2 0 20 2 0 20 2 0 20 2 0 20 2 0 20 2 0 20 2 0 20 2 0 20 2 0 20 2 0 20 2 0 20 2 0 20 2 0 20 2 0 20 2 0 20 2 0 20 2 0 20 2 0 20 2 0 20 2 0 20 2 0 20 2 0 20 2 0 20 2 0 20 2 0 20 2 0 20 2 0 20 2 0 20 2 0 20 2 0 20 2 0 20 2 0 20 2 0 20 2 0 20 2 0 20 2 0 20 2 0 20 2 0 20 2 0 20 2 0 20 2 0 20 2 0 20 2 0 20 2 0 20 2 0 20 2 0 20 2 0 20 2 0 20 2 0 20 2 0 20 2 0 20 2 0 20 2 0 20 2 0 20 2 0 20 2 0 20 2 0 20 2 0 20 2 0 20 2 0 20 2 0 20 2 0 20 2 0 20 2 0 20 2 0 20 2 0 20 2 0 20 2 0 20 2 0 20 2 0 20 2 0 20 2 0 20 2 0 20 2 0 20 2 0 20 2 0 20 2 0 20 2 0 20 2 0 20 2 0 20 2 0 20 2 0 20 2 0 20 2 0 20 2 0 20 2 0 20 2 0 20 2 0 20 2 0 20 2 0 20 2 0 20 2 0 20 2 0 20 2 0 20 2 0 20 2 0 20 2 0 20 2 0 20 2 0 20 2 0 20 2 0 20 2 0 20 2 0 20 2 0 20 2 0 20 2 0 20 2 0 20 2 0 20 2 0 20 2 0 20 2 0 20 2 0 20 2 0 20 2 0 20 2 0 20 2 0 20 2 0 20 2 0 20 2 0 20 2 0 20 2 0 20 2 0 20 2 0 20 2 0 20 2 0 20 2 0 20 2 0 20 2 0 20 2 0 20 2 0 20 2 0 20 2 0 20 2 0 20 2 0 20 2 0
20 2 0 20 2 0 20 2 0 20 2 0 20 2 0 20 2 0 20 2 0 20 2 0 20 2 0 20 2 0 20 2 0 20 2 0 20 2 0 20 2 0 20 2 0 20 2 0 20 2 0 20 2 0 20 2 0 20 2 0 20 2 0 20 2 0 20 2 0 20 2 0 20 2 0 20 2 0 20 2 0 20 2 0 20 2 0 20 2 0 20 2 0 20 2 0 20 2 0 20 2 0 20 2 0 20 2 0 20 2 0 20 2 0 20 2 0 20 2 0 20 2 0 20 2 0 20 2 0 20 2 0 20 2 0 20 2 0 20 2 0 20 2 0 20 2 0 20 2 0 20 2 0 20 2 0 20 2 0 20 2 0 20 2 0 20 2 0 20 2 0 20 2 0 20 2 0 20 2 0 20 2 0 20 2 0 20 2 0 20 2 0 20 2 0 20 2 0 20 2 0 20 2 0 20 2 0 20 2 0 20 2 0 20 2 0 20 2 0 20 2 0 20 2 0 20 2 0 20 2 0 20 2 0 20 2 0 20 2 0 20 2 0 20 2 0 20 2 0 20 2 0 20 2 0 20 2 0 20 2 0 20 2 0 20 2 0 20 2 0 20 2 0 20 2 0 20 2 0 20 2 0 20 2 0 20 2 0 20 2 0 20 2 0 20 2 0 20 2 0 20 2 0 20 2 0 20 2 0 20 2 0 20 2 0 20 2 0 20 2 0 20 2 0 20 2 0 20 2 0 20 2 0 20 2 0 20 2 0 20 2 0 20 2 0 20 2 0 20 2 0 20 2 0 20 2 0 20 2 0 20 2 0 20 2 0 20 2 0 20 2 0 20 2 0 20 2 0 20 2 0 20 2 0 20 2 0 20 2 0 20 2 0 20 2 0 20 2 0 20 2 0 20 2 0 20 2 0 20 2 0 20 2 0 20 2 0 20 2 0 20 2 0 20 2 0 20 2 0 20 2 0 20 2 0 20 2 0 20 2 0 20 2 0 20 2 0 20 2 0 20 2 0 20 2 0 20 2 0 20 2 0 20 2 0 20 2 0 20 2 0 20 2 0 20 2 0 20 2 0 20 2 0 20 2 0 20 2 0 20 2 0 20 2 0 20 2 0 20 2 0 20 2 0 20 2 0 20 2 0 20 2 0 20 2 0 20 2 0 20 2 0 20 2 0 20 2 0 20 2 0 20 2 0 20 2 0 20 2 0 20 2 0 20 2 0 20 2 0 20 2 0 20 2 0 20 2 0 20 2 0 20 2 0 20 2 0 20 2 0 20 2 0 20 2 0 20 2 0 20 2 0 20 2 0 20 2 0 20 2 0 20 2 0 20 2 0 20 2 0 20 2 0 20 2 0 20 2 0 20 2 0 20 2 0 20 2 0 20 2 0 20 2 0 20 2 0 20 2 0 20 2 0 20 2 0 20 2 0 20 2 0 20 2 0 20 2 0 20 2 0 20 2 0 20 2 0 20 2 0 20 2 0 20 2 0 20 2 0 20 2 0 20 2 0 20 2 0 20 2 0 20 2 0 20 2 0 20 2 0 20 2 0 20 2 0 20 2 0 20 2 0 20 2 0 20 2 0 20 2 0 20 2 0 20 2 0 20 2 0
20 2 0 20 2 0 20 2 0 20 2 0 20 2 0 20 2 0 20 2 0 20 2 0 20 2 0 20 2 0 20 2 0 20 2 0 20 2 0 20 2 0 20 2 0 20 2 0 20 2 0 20 2 0 20 2 0 20 2 0 20 2 0 20 2 0 20 2 0 20 2 0 20 2 0 20 2 0 20 2 0 20 2 0 20 2 0 20 2 0 20 2 0 20 2 0 20 2 0 20 2 0 20 2 0 20 2 0 20 2 0 20 2 0 20 2 0 20 2 0 20 2 0 20 2 0 20 2 0 20 2 0 20 2 0 20 2 0 20 2 0 20 2 0 20 2 0 20 2 0 20 2 0 20 2 0 20 2 0 20 2 0 20 2 0 20 2 0 20 2 0 20 2 0 20 2 0 20 2 0 20 2 0 20 2 0 20 2 0 20 2 0 20 2 0 20 2 0 20 2 0 20 2 0 20 2 0 20 2 0 20 2 0 20 2 0 20 2 0 20 2 0 20 2 0 20 2 0 20 2 0 20 2 0 20 2 0 20 2 0 20 2 0 20 2 0 20 2 0 20 2 0 20 2 0 20 2 0 20 2 0 20 2 0 20 2 0 20 2 0 20 2 0 20 2 0 20 2 0 20 2 0 20 2 0 20 2 0 20 2 0 20 2 0 20 2 0 20 2 0 20 2 0 20 2 0 20 2 0 20 2 0 20 2 0 20 2 0 20 2 0 20 2 0 20 2 0 20 2 0 20 2 0 20 2 0 20 2 0 20 2 0 20 2 0 20 2 0 20 2 0 20 2 0 20 2 0 20 2 0 20 2 0 20 2 0 20 2 0 20 2 0 20 2 0 20 2 0 20 2 0 20 2 0 20 2 0 20 2 0 20 2 0 20 2 0 20 2 0 20 2 0 20 2 0 20 2 0 20 2 0 20 2 0 20 2 0 20 2 0 20 2 0 20 2 0 20 2 0 20 2 0 20 2 0 20 2 0 20 2 0 20 2 0 20 2 0 20 2 0 20 2 0 20 2 0 20 2 0 20 2 0 20 2 0 20 2 0 20 2 0 20 2 0 20 2 0 20 2 0 20 2 0 20 2 0 20 2 0 20 2 0 20 2 0 20 2 0 20 2 0 20 2 0 20 2 0 20 2 0 20 2 0 20 2 0 20 2 0 20 2 0 20 2 0 20 2 0 20 2 0 20 2 0 20 2 0 20 2 0 20 2 0 20 2 0 20 2 0 20 2 0 20 2 0 20 2 0 20 2 0 20 2 0 20 2 0 20 2 0 20 2 0 20 2 0 20 2 0 20 2 0 20 2 0 20 2 0 20 2 0 20 2 0 20 2 0 20 2 0 20 2 0 20 2 0 20 2 0 20 2 0 20 2 0 20 2 0 20 2 0 20 2 0 20 2 0 20 2 0 20 2 0 20 2 0 20 2 0 20 2 0 20 2 0 20 2 0 20 2 0 20 2 0 20 2 0 20 2 0 20 2 0 20 2 0 20 2 0 20 2 0 20 2 0 20 2 0 20 2 0 20 2 0 20 2 0 20 2 0 20 2 0 20 2 0 20 2 0 20 2 0 20 2 0 20 2 0 20 2 0 20 2 0 20 2 0 20 2 0
20 2 0 20 2 0 20 2 0 20 2 0 20 2 0 20 2 0 20 2 0 20 2 0 20 2 0 20 2 0 20 2 0 20 2 0 20 2 0 20 2 0 20 2 0 20 2 0 20 2 0 20 2 0 20 2 0 20 2 0 20 2 0 20 2 0 20 2 0 20 2 0 20 2 0 20 2 0 20 2 0 20 2 0 20 2 0 20 2 0 20 2 0 20 2 0 20 2 0 20 2 0 20 2 0 20 2 0 20 2 0 20 2 0 20 2 0 20 2 0 20 2 0 20 2 0 20 2 0 20 2 0 20 2 0 20 2 0 20 2 0 20 2 0 20 2 0 20 2 0 20 2 0 20 2 0 20 2 0 20 2 0 20 2 0 20 2 0 20 2 0 20 2 0 20 2 0 20 2 0 20 2 0 20 2 0 20 2 0 20 2 0 20 2 0 20 2 0 20 2 0 20 2 0 20 2 0 20 2 0 20 2 0 20 2 0 20 2 0 20 2 0 20 2 0 20 2 0 20 2 0 20 2 0 20 2 0 20 2 0 20 2 0 20 2 0 20 2 0 20 2 0 20 2 0 20 2 0 20 2 0 20 2 0 20 2 0 20 2 0 20 2 0 20 2 0 20 2 0 20 2 0 20 2 0 20 2 0 20 2 0 20 2 0 20 2 0 20 2 0 20 2 0 20 2 0 20 2 0 20 2 0 20 2 0 20 2 0 20 2 0 20 2 0 20 2 0 20 2 0 20 2 0 20 2 0 20 2 0 20 2 0 20 2 0 20 2 0 20 2 0 20 2 0 20 2 0 20 2 0 20 2 0 20 2 0 20 2 0 20 2 0 20 2 0 20 2 0 20 2 0 20 2 0 20 2 0 20 2 0 20 2 0 20 2 0 20 2 0 20 2 0 20 2 0 20 2 0 20 2 0 20 2 0 20 2 0 20 2 0 20 2 0 20 2 0 20 2 0 20 2 0 20 2 0 20 2 0 20 2 0 20 2 0 20 2 0 20 2 0 20 2 0 20 2 0 20 2 0 20 2 0 20 2 0 20 2 0 20 2 0 20 2 0 20 2 0 20 2 0 20 2 0 20 2 0 20 2 0 20 2 0 20 2 0 20 2 0 20 2 0 20 2 0 20 2 0 20 2 0 20 2 0 20 2 0 20 2 0 20 2 0 20 2 0 20 2 0 20 2 0 20 2 0 20 2 0 20 2 0 20 2 0 20 2 0 20 2 0 20 2 0 20 2 0 20 2 0 20 2 0 20 2 0 20 2 0 20 2 0 20 2 0 20 2 0 20 2 0 20 2 0 20 2 0 20 2 0 20 2 0 20 2 0 20 2 0 20 2 0 20 2 0 20 2 0 20 2 0 20 2 0 20 2 0 20 2 0 20 2 0 20 2 0 20 2 0 20 2 0 20 2 0 20 2 0 20 2 0 20 2 0 20 2 0 20 2 0 20 2 0 20 2 0 20 2 0 20 2 0 20 2 0 20 2 0 20 2 0 20 2 0 20 2 0 20 2 0 20 2 0 20 2 0 20 2 0 20 2 0 20 2 0 20 2 0 20 2 0 20 2 0 20 2 0 20 2 0 20 2 0 20 2 0 20 2 0 20 2 0
20 2 0 20 2 0 20 2 0 20 2 0 20 2 0 20 2 0 20 2 0 20 2 0 20 2 0 20 2 0 20 2 0 20 2 0 20 2 0 20 2 0 20 2 0 20 2 0 20 2 0 20 2 0 20 2 0 20 2 0 20 2 0 20 2 0 20 2 0 20 2 0 20 2 0 20 2 0 20 2 0 20 2 0 20 2 0 20 2 0 20 2 0 20 2 0 20 2 0 20 2 0 20 2 0 20 2 0 20 2 0 20 2 0 20 2 0 20 2 0 20 2 0 20 2 0 20 2 0 20 2 0 20 2 0 20 2 0 20 2 0 20 2 0 20 2 0 20 2 0 20 2 0 20 2 0 20 2 0 20 2 0 20 2 0 20 2 0 20 2 0 20 2 0 20 2 0 20 2 0 20 2 0 20 2 0 20 2 0 20 2 0 20 2 0 20 2 0 20 2 0 20 2 0 20 2 0 20 2 0 20 2 0 20 2 0 20 2 0 20 2 0 20 2 0 20 2 0 20 2 0 20 2 0 20 2 0 20 2 0 20 2 0 20 2 0 20 2 0 20 2 0 20 2 0 20 2 0 20 2 0 20 2 0 20 2 0 20 2 0 20 2 0 20 2 0 20 2 0 20 2 0 20 2 0 20 2 0 20 2 0 20 2 0 20 2 0 20 2 0 20 2 0 20 2 0 20 2 0 20 2 0 20 2 0 20 2 0 20 2 0 20 2 0 20 2 0 20 2 0 20 2 0 20 2 0 20 2 0 20 2 0 20 2 0 20 2 0 20 2 0 20 2 0 20 2 0 20 2 0 20 2 0 20 2 0 20 2 0 20 2 0 20 2 0 20 2 0 20 2 0 20 2 0 20 2 0 20 2 0 20 2 0 20 2 0 20 2 0 20 2 0 20 2 0 20 2 0 20 2 0 20 2 0 20 2 0 20 2 0 20 2 0 20 2 0 20 2 0 20 2 0 20 2 0 20 2 0 20 2 0 20 2 0 20 2 0 20 2 0 20 2 0 20 2 0 20 2 0 20 2 0 20 2 0 20 2 0 20 2 0 20 2 0 20 2 0 20 2 0 20 2 0 20 2 0 20 2 0 20 2 0 20 2 0 20 2 0 20 2 0 20 2 0 20 2 0 20 2 0 20 2 0 20 2 0 20 2 0 20 2 0 20 2 0 20 2 0 20 2 0 20 2 0 20 2 0 20 2 0 20 2 0 20 2 0 20 2 0 20 2 0 20 2 0 20 2 0 20 2 0 20 2 0 20 2 0 20 2 0 20 2 0 20 2 0 20 2 0 20 2 0 20 2 0 20 2 0 20 2 0 20 2 0 20 2 0 20 2 0 20 2 0 20 2 0 20 2 0 20 2 0 20 2 0 20 2 0 20 2 0 20 2 0 20 2 0 20 2 0 20 2 0 20 2 0 20 2 0 20 2 0 20 2 0 20 2 0 20 2 0 20 2 0 20 2 0 20 2 0 20 2 0 20 2 0 20 2 0 20 2 0 20 2 0 20 2 0 20 2 0 20 2 0 20 2 0 20 2 0 20 2 0 20 2 0 20 2 0 20 2 0 20 2 0 20 2 0 20 2 0 20 2 0 20 2 0 20 2 0
20 2 0 20 2 0 20 2 0 20 2 0 20 2 0 20 2 0 20 2 0 20 2 0 20 2 0 20 2 0 20 2 0 20 2 0 20 2 0 20 2 0 20 2 0 20 2 0 20 2 0 20 2 0 20 2 0 20 2 0 20 2 0 20 2 0 20 2 0 20 2 0 20 2 0 20 2 0 20 2 0 20 2 0 20 2 0 20 2 0 20 2 0 20 2 0 20 2 0 20 2 0 20 2 0 20 2 0 20 2 0 20 2 0 20 2 0 20 2 0 20 2 0 20 2 0 20 2 0 20 2 0 20 2 0 20 2 0 20 2 0 20 2 0 20 2 0 20 2 0 20 2 0 20 2 0 20 2 0 20 2 0 20 2 0 20 2 0 20 2 0 20 2 0 20 2 0 20 2 0 20 2 0 20 2 0 20 2 0 20 2 0 20 2 0 20 2 0 20 2 0 20 2 0 20 2 0 20 2 0 20 2 0 20 2 0 20 2 0 20 2 0 20 2 0 20 2 0 20 2 0 20 2 0 20 2 0 20 2 0 20 2 0 20 2 0 20 2 0 20 2 0 20 2 0 20 2 0 20 2 0 20 2 0 20 2 0 20 2 0 20 2 0 20 2 0 20 2 0 20 2 0 20 2 0 20 2 0 20 2 0 20 2 0 20 2 0 20 2 0 20 2 0 20 2 0 20 2 0 20 2 0 20 2 0 20 2 0 20 2 0 20 2 0 20 2 0 20 2 0 20 2 0 20 2 0 20 2 0 20 2 0 20 2 0 20 2 0 20 2 0 20 2 0 20 2 0 20 2 0 20 2 0 20 2 0 20 2 0 20 2 0 20 2 0 20 2 0 20 2 0 20 2 0 20 2 0 20 2 0 20 2 0 20 2 0 20 2 0 20 2 0 20 2 0 20 2 0 20 2 0 20 2 0 20 2 0 20 2 0 20 2 0 20 2 0 20 2 0 20 2 0 20 2 0 20 2 0 20 2 0 20 2 0 20 2 0 20 2 0 20 2 0 20 2 0 20 2 0 20 2 0 20 2 0 20 2 0 20 2 0 20 2 0 20 2 0 20 2 0 20 2 0 20 2 0 20 2 0 20 2 0 20 2 0 20 2 0 20 2 0 20 2 0 20 2 0 20 2 0 20 2 0 20 2 0 20 2 0 20 2 0 20 2 0 20 2 0 20 2 0 20 2 0 20 2 0 20 2 0 20 2 0 20 2 0 20 2 0 20 2 0 20 2 0 20 2 0 20 2 0 20 2 0 20 2 0 20 2 0 20 2 0 20 2 0 20 2 0 20 2 0 20 2 0 20 2 0 20 2 0 20 2 0 20 2 0 20 2 0 20 2 0 20 2 0 20 2 0 20 2 0 20 2 0 20 2 0 20 2 0 20 2 0 20 2 0 20 2 0 20 2 0 20 2 0 20 2 0 20 2 0 20 2 0 20 2 0 20 2 0 20 2 0 20 2 0 20 2 0 20 2 0 20 2 0 20 2 0 20 2 0 20 2 0 20 2 0 20 2 0 20 2 0 20 2 0 20 2 0 20 2 0 20 2 0 20 2 0 20 2 0 20 2 0 20 2 0 20 2 0 20 2 0 20 2 0 20 2 0
20 2 0 20 2 0 20 2 0 20 2 0 20 2 0 20 2 0 20 2 0 20 2 0 20 2 0 20 2 0 20 2 0 20 2 0 20 2 0 20 2 0 20 2 0 20 2 0 20 2 0 20 2 0 20 2 0 20 2 0 20 2 0 20 2 0 20 2 0 20 2 0 20 2 0 20 2 0 20 2 0 20 2 0 20 2 0 20 2 0 20 2 0 20 2 0 20 2 0 20 2 0 20 2 0 20 2 0 20 2 0 20 2 0 20 2 0 20 2 0 20 2 0 20 2 0 20 2 0 20 2 0 20 2 0 20 2 0 20 2 0 20 2 0 20 2 0 20 2 0 20 2 0 20 2 0 20 2 0 20 2 0 20 2 0 20 2 0 20 2 0 20 2 0 20 2 0 20 2 0 20 2 0 20 2 0 20 2 0 20 2 0 20 2 0 20 2 0 20 2 0 20 2 0 20 2 0 20 2 0 20 2 0 20 2 0 20 2 0 20 2 0 20 2 0 20 2 0 20 2 0 20 2 0 20 2 0 20 2 0 20 2 0 20 2 0 20 2 0 20 2 0 20 2 0 20 2 0 20 2 0 20 2 0 20 2 0 20 2 0 20 2 0 20 2 0 20 2 0 20 2 0 20 2 0 20 2 0 20 2 0 20 2 0 20 2 0 20 2 0 20 2 0 20 2 0 20 2 0 20 2 0 20 2 0 20 2 0 20 2 0 20 2 0 20 2 0 20 2 0 20 2 0 20 2 0 20 2 0 20 2 0 20 2 0 20 2 0 20 2 0 20 2 0 20 2 0 20 2 0 20 2 0 20 2 0 20 2 0 20 2 0 20 2 0 20 2 0 20 2 0 20 2 0 20 2 0 20 2 0 20 2 0 20 2 0 20 2 0 20 2 0 20 2 0 20 2 0 20 2 0 20 2 0 20 2 0 20 2 0 20 2 0 20 2 0 20 2 0 20 2 0 20 2 0 20 2 0 20 2 0 20 2 0 20 2 0 20 2 0 20 2 0 20 2 0 20 2 0 20 2 0 20 2 0 20 2 0 20 2 0 20 2 0 20 2 0 20 2 0 20 2 0 20 2 0 20 2 0 20 2 0 20 2 0 20 2 0 20 2 0 20 2 0 20 2 0 20 2 0 20 2 0 20 2 0 20 2 0 20 2 0 20 2 0 20 2 0 20 2 0 20 2 0 20 2 0 20 2 0 20 2 0 20 2 0 20 2 0 20 2 0 20 2 0 20 2 0 20 2 0 20 2 0 20 2 0 20 2 0 20 2 0 20 2 0 20 2 0 20 2 0 20 2 0 20 2 0 20 2 0 20 2 0 20 2 0 20 2 0 20 2 0 20 2 0 20 2 0 20 2 0 20 2 0 20 2 0 20 2 0 20 2 0 20 2 0 20 2 0 20 2 0 20 2 0 20 2 0 20 2 0 20 2 0 20 2 0 20 2 0 20 2 0 20 2 0 20 2 0 20 2 0 20 2 0 20 2 0 20 2 0 20 2 0 20 2 0 20 2 0 20 2 0 20 2 0 20 2 0 20 2 0 20 2 0 20 2 0 20 2 0 20 2 0 20 2 0 20 2 0 20 2 0 20 2 0 20 2 0
20 2 0 20 2 0 20 2 0 20 2 0 20 2 0 20 2 0 20 2 0 20 2 0 20 2 0 20 2 0 20 2 0 20 2 0 20 2 0 20 2 0 20 2 0 20 2 0 20 2 0 20 2 0 20 2 0 20 2 0 20 2 0 20 2 0 20 2 0 20 2 0 20 2 0 20 2 0 20 2 0 20 2 0 20 2 0 20 2 0 20 2 0 20 2 0 20 2 0 20 2 0 20 2 0 20 2 0 20 2 0 20 2 0 20 2 0 20 2 0 20 2 0 20 2 0 20 2 0 20 2 0 20 2 0 20 2 0 20 2 0 20 2 0 20 2 0 20 2 0 20 2 0 20 2 0 20 2 0 20 2 0 20 2 0 20 2 0 20 2 0 20 2 0 20 2 0 20 2 0 20 2 0 20 2 0 20 2 0 20 2 0 20 2 0 20 2 0 20 2 0 20 2 0 20 2 0 20 2 0 20 2 0 20 2 0 20 2 0 20 2 0 20 2 0 20 2 0 20 2 0 20 2 0 20 2 0 20 2 0 20 2 0 20 2 0 20 2 0 20 2 0 20 2 0 20 2 0 20 2 0 20 2 0 20 2 0 20 2 0 20 2 0 20 2 0 20 2 0 20 2 0 20 2 0 20 2 0 20 2 0 20 2 0 20 2 0 20 2 0 20 2 0 20 2 0 20 2 0 20 2 0 20 2 0 20 2 0 20 2 0 20 2 0 20 2 0 20 2 0 20 2 0 20 2 0 20 2 0 20 2 0 20 2 0 20 2 0 20 2 0 20 2 0 20 2 0 20 2 0 20 2 0 20 2 0 20 2 0 20 2 0 20 2 0 20 2 0 20 2 0 20 2 0 20 2 0 20 2 0 20 2 0 20 2 0 20 2 0 20 2 0 20 2 0 20 2 0 20 2 0 20 2 0 20 2 0 20 2 0 20 2 0 20 2 0 20 2 0 20 2 0 20 2 0 20 2 0 20 2 0 20 2 0 20 2 0 20 2 0 20 2 0 20 2 0 20 2 0 20 2 0 20 2 0 20 2 0 20 2 0 20 2 0 20 2 0 20 2 0 20 2 0 20 2 0 20 2 0 20 2 0 20 2 0 20 2 0 20 2 0 20 2 0 20 2 0 20 2 0 20 2 0 20 2 0 20 2 0 20 2 0 20 2 0 20 2 0 20 2 0 20 2 0 20 2 0 20 2 0 20 2 0 20 2 0 20 2 0 20 2 0 20 2 0 20 2 0 20 2 0 20 2 0 20 2 0 20 2 0 20 2 0 20 2 0 20 2 0 20 2 0 20 2 0 20 2 0 20 2 0 20 2 0 20 2 0 20 2 0 20 2 0 20 2 0 20 2 0 20 2 0 20 2 0 20 2 0 20 2 0 20 2 0 20 2 0 20 2 0 20 2 0 20 2 0 20 2 0 20 2 0 20 2 0 20 2 0 20 2 0 20 2 0 20 2 0 20 2 0 20 2 0 20 2 0 20 2 0 20 2 0 20 2 0 20 2 0 20 2 0 20 2 0 20 2 0 20 2 0 20 2 0 20 2 0 20 2 0 20 2 0 20 2 0 20 2 0 20 2 0 20 2 0 20 2 0 20 2 0
20 2 0 20 2 0 20 2 0 20 2 0 20 2 0 20 2 0 20 2 0 20 2 0 20 2 0 20 2 0 20 2 0 20 2 0 20 2 0 20 2 0 20 2 0 20 2 0 20 2 0 20 2 0 20 2 0 20 2 0 20 2 0 20 2 0 20 2 0 20 2 0 20 2 0 20 2 0 20 2 0 20 2 0 20 2 0 20 2 0 20 2 0 20 2 0 20 2 0 20 2 0 20 2 0 20 2 0 20 2 0 20 2 0 20 2 0 20 2 0 20 2 0 20 2 0 20 2 0 20 2 0 20 2 0 20 2 0 20 2 0 20 2 0 20 2 0 20 2 0 20 2 0 20 2 0 20 2 0 20 2 0 20 2 0 20 2 0 20 2 0 20 2 0 20 2 0 20 2 0 20 2 0 20 2 0 20 2 0 20 2 0 20 2 0 20 2 0 20 2 0 20 2 0 20 2 0 20 2 0 20 2 0 20 2 0 20 2 0 20 2 0 20 2 0 20 2 0 20 2 0 20 2 0 20 2 0 20 2 0 20 2 0 20 2 0 20 2 0 20 2 0 20 2 0 20 2 0 20 2 0 20 2 0 20 2 0 20 2 0 20 2 0 20 2 0 20 2 0 20 2 0 20 2 0 20 2 0 20 2 0 20 2 0 20 2 0 20 2 0 20 2 0 20 2 0 20 2 0 20 2 0 20 2 0 20 2 0 20 2 0 20 2 0 20 2 0 20 2 0 20 2 0 20 2 0 20 2 0 20 2 0 20 2 0 20 2 0 20 2 0 20 2 0 20 2 0 20 2 0 20 2 0 20 2 0 20 2 0 20 2 0 20 2 0 20 2 0 20 2 0 20 2 0 20 2 0 20 2 0 20 2 0 20 2 0 20 2 0 20 2 0 20 2 0 20 2 0 20 2 0 20 2 0 20 2 0 20 2 0 20 2 0 20 2 0 20 2 0 20 2 0 20 2 0 20 2 0 20 2 0 20 2 0 20 2 0 20 2 0 20 2 0 20 2 0 20 2 0 20 2 0 20 2 0 20 2 0 20 2 0 20 2 0 20 2 0 20 2 0 20 2 0 20 2 0 20 2 0 20 2 0 20 2 0 20 2 0 20 2 0 20 2 0 20 2 0 20 2 0 20 2 0 20 2 0 20 2 0 20 2 0 20 2 0 20 2 0 20 2 0 20 2 0 20 2 0 20 2 0 20 2 0 20 2 0 20 2 0 20 2 0 20 2 0 20 2 0 20 2 0 20 2 0 20 2 0 20 2 0 20 2 0 20 2 0 20 2 0 20 2 0 20 2 0 20 2 0 20 2 0 20 2 0 20 2 0 20 2 0 20 2 0 20 2 0 20 2 0 20 2 0 20 2 0 20 2 0 20 2 0 20 2 0 20 2 0 20 2 0 20 2 0 20 2 0 20 2 0 20 2 0 20 2 0 20 2 0 20 2 0 20 2 0 20 2 0 20 2 0 20 2 0 20 2 0 20 2 0 20 2 0 20 2 0 20 2 0 20 2 0 20 2 0 20 2 0 20 2 0 20 2 0 20 2 0 20 2 0 20 2 0 20 2 0 20 2 0 20 2 0 20 2 0 20 2 0 20 2 0
20 2 0 20 2 0 20 2 0 20 2 0 20 2 0 20 2 0 20 2 0 20 2 0 20 2 0 20 2 0 20 2 0 20 2 0 20 2 0 20 2 0 20 2 0 20 2 0 20 2 0 20 2 0 20 2 0 20 2 0 20 2 0 20 2 0 20 2 0 20 2 0 20 2 0 20 2 0 20 2 0 20 2 0 20 2 0 20 2 0 20 2 0 20 2 0 20 2 0 20 2 0 20 2 0 20 2 0 20 2 0 20 2 0 20 2 0 20 2 0 20 2 0 20 2 0 20 2 0 20 2 0 20 2 0 20 2 0 20 2 0 20 2 0 20 2 0 20 2 0 20 2 0 20 2 0 20 2 0 20 2 0 20 2 0 20 2 0 20 2 0 20 2 0 20 2 0 20 2 0 20 2 0 20 2 0 20 2 0 20 2 0 20 2 0 20 2 0 20 2 0 20 2 0 20 2 0 20 2 0 20 2 0 20 2 0 20 2 0 20 2 0 20 2 0 20 2 0 20 2 0 20 2 0 20 2 0 20 2 0 20 2 0 20 2 0 20 2 0 20 2 0 20 2 0 20 2 0 20 2 0 20 2 0 20 2 0 20 2 0 20 2 0 20 2 0 20 2 0 20 2 0 20 2 0 20 2 0 20 2 0 20 2 0 20 2 0 20 2 0 20 2 0 20 2 0 20 2 0 20 2 0 20 2 0 20 2 0 20 2 0 20 2 0 20 2 0 20 2 0 20 2 0 20 2 0 20 2 0 20 2 0 20 2 0 20 2 0 20 2 0 20 2 0 20 2 0 20 2 0 20 2 0 20 2 0 20 2 0 20 2 0 20 2 0 20 2 0 20 2 0 20 2 0 20 2 0 20 2 0 20 2 0 20 2 0 20 2 0 20 2 0 20 2 0 20 2 0 20 2 0 20 2 0 20 2 0 20 2 0 20 2 0 20 2 0 20 2 0 20 2 0 20 2 0 20 2 0 20 2 0 20 2 0 20 2 0 20 2 0 20 2 0 20 2 0 20 2 0 20 2 0 20 2 0 20 2 0 20 2 0 20 2 0 20 2 0 20 2 0 20 2 0 20 2 0 20 2 0 20 2 0 20 2 0 20 2 0 20 2 0 20 2 0 20 2 0 20 2 0 20 2 0 20 2 0 20 2 0 20 2 0 20 2 0 20 2 0 20 2 0 20 2 0 20 2 0 20 2 0 20 2 0 20 2 0 20 2 0 20 2 0 20 2 0 20 2 0 20 2 0 20 2 0 20 2 0 20 2 0 20 2 0 20 2 0 20 2 0 20 2 0 20 2 0 20 2 0 20 2 0 20 2 0 20 2 0 20 2 0 20 2 0 20 2 0 20 2 0 20 2 0 20 2 0 20 2 0 20 2 0 20 2 0 20 2 0 20 2 0 20 2 0 20 2 0 20 2 0 20 2 0 20 2 0 20 2 0 20 2 0 20 2 0 20 2 0 20 2 0 20 2 0 20 2 0 20 2 0 20 2 0 20 2 0 20 2 0 20 2 0 20 2 0 20 2 0 20 2 0 20 2 0 20 2 0 20 2 0 20 2 0 20 2 0 20 2 0 20 2 0 20 2 0 20 2 0 20 2 0
20 2 0 20 2 0 20 2 0 20 2 0 20 2 0 20 2 0 20 2 0 20 2 0 20 2 0 20 2 0 20 2 0 20 2 0 20 2 0 20 2 0 20 2 0 20 2 0 20 2 0 20 2 0 20 2 0 20 2 0 20 2 0 20 2 0 20 2 0 20 2 0 20 2 0 20 2 0 20 2 0 20 2 0 20 2 0 20 2 0 20 2 0 20 2 0 20 2 0 20 2 0 20 2 0 20 2 0 20 2 0 20 2 0 20 2 0 20 2 0 20 2 0 20 2 0 20 2 0 20 2 0 20 2 0 20 2 0 20 2 0 20 2 0 20 2 0 20 2 0 20 2 0 20 2 0 20 2 0 20 2 0 20 2 0 20 2 0 20 2 0 20 2 0 20 2 0 20 2 0 20 2 0 20 2 0 20 2 0 20 2 0 20 2 0 20 2 0 20 2 0 20 2 0 20 2 0 20 2 0 20 2 0 20 2 0 20 2 0 20 2 0 20 2 0 20 2 0 20 2 0 20 2 0 20 2 0 20 2 0 20 2 0 20 2 0 20 2 0 20 2 0 20 2 0 20 2 0 20 2 0 20 2 0 20 2 0 20 2 0 20 2 0 20 2 0 20 2 0 20 2 0 20 2 0 20 2 0 20 2 0 20 2 0 20 2 0 20 2 0 20 2 0 20 2 0 20 2 0 20 2 0 20 2 0 20 2 0 20 2 0 20 2 0 20 2 0 20 2 0 20 2 0 20 2 0 20 2 0 20 2 0 20 2 0 20 2 0 20 2 0 20 2 0 20 2 0 20 2 0 20 2 0 20 2 0 20 2 0 20 2 0 20 2 0 20 2 0 20 2 0 20 2 0 20 2 0 20 2 0 20 2 0 20 2 0 20 2 0 20 2 0 20 2 0 20 2 0 20 2 0 20 2 0 20 2 0 20 2 0 20 2 0 20 2 0 20 2 0 20 2 0 20 2 0 20 2 0 20 2 0 20 2 0 20 2 0 20 2 0 20 2 0 20 2 0 20 2 0 20 2 0 20 2 0 20 2 0 20 2 0 20 2 0 20 2 0 20 2 0 20 2 0 20 2 0 20 2 0 20 2 0 20 2 0 20 2 0 20 2 0 20 2 0 20 2 0 20 2 0 20 2 0 20 2 0 20 2 0 20 2 0 20 2 0 20 2 0 20 2 0 20 2 0 20 2 0 20 2 0 20 2 0 20 2 0 20 2 0 20 2 0 20 2 0 20 2 0 20 2 0 20 2 0 20 2 0 20 2 0 20 2 0 20 2 0 20 2 0 20 2 0 20 2 0 20 2 0 20 2 0 20 2 0 20 2 0 20 2 0 20 2 0 20 2 0 20 2 0 20 2 0 20 2 0 20 2 0 20 2 0 20 2 0 20 2 0 20 2 0 20 2 0 20 2 0 20 2 0 20 2 0 20 2 0 20 2 0 20 2 0 20 2 0 20 2 0 20 2 0 20 2 0 20 2 0 20 2 0 20 2 0 20 2 0 20 2 0 20 2 0 20 2 0 20 2 0 20 2 0 20 2 0 20 2 0 20 2 0 20 2 0 20 2 0 20 2 0 20 2 0 20 2 0 20 2 0 20 2 0
20 2 0 20 2 0 20 2 0 20 2 0 20 2 0 20 2 0 20 2 0 20 2 0 20 2 0 20 2 0 20 2 0 20 2 0 20 2 0 20 2 0 20 2 0 20 2 0 20 2 0 20 2 0 20 2 0 20 2 0 20 2 0 20 2 0 20 2 0 20 2 0 20 2 0 20 2 0 20 2 0 20 2 0 20 2 0 20 2 0 20 2 0 20 2 0 20 2 0 20 2 0 20 2 0 20 2 0 20 2 0 20 2 0 20 2 0 20 2 0 20 2 0 20 2 0 20 2 0 20 2 0 20 2 0 20 2 0 20 2 0 20 2 0 20 2 0 20 2 0 20 2 0 20 2 0 20 2 0 20 2 0 20 2 0 20 2 0 20 2 0 20 2 0 20 2 0 20 2 0 20 2 0 20 2 0 20 2 0 20 2 0 20 2 0 20 2 0 20 2 0 20 2 0 20 2 0 20 2 0 20 2 0 20 2 0 20 2 0 20 2 0 20 2 0 20 2 0 20 2 0 20 2 0 20 2 0 20 2 0 20 2 0 20 2 0 20 2 0 20 2 0 20 2 0 20 2 0 20 2 0 20 2 0 20 2 0 20 2 0 20 2 0 20 2 0 20 2 0 20 2 0 20 2 0 20 2 0 20 2 0 20 2 0 20 2 0 20 2 0 20 2 0 20 2 0 20 2 0 20 2 0 20 2 0 20 2 0 20 2 0 20 2 0 20 2 0 20 2 0 20 2 0 20 2 0 20 2 0 20 2 0 20 2 0 20 2 0 20 2 0 20 2 0 20 2 0 20 2 0 20 2 0 20 2 0 20 2 0 20 2 0 20 2 0 20 2 0 20 2 0 20 2 0 20 2 0 20 2 0 20 2 0 20 2 0 20 2 0 20 2 0 20 2 0 20 2 0 20 2 0 20 2 0 20 2 0 20 2 0 20 2 0 20 2 0 20 2 0 20 2 0 20 2 0 20 2 0 20 2 0 20 2 0 20 2 0 20 2 0 20 2 0 20 2 0 20 2 0 20 2 0 20 2 0 20 2 0 20 2 0 20 2 0 20 2 0 20 2 0 20 2 0 20 2 0 20 2 0 20 2 0 20 2 0 20 2 0 20 2 0 20 2 0 20 2 0 20 2 0 20 2 0 20 2 0 20 2 0 20 2 0 20 2 0 20 2 0 20 2 0 20 2 0 20 2 0 20 2 0 20 2 0 20 2 0 20 2 0 20 2 0 20 2 0 20 2 0 20 2 0 20 2 0 20 2 0 20 2 0 20 2 0 20 2 0 20 2 0 20 2 0 20 2 0 20 2 0 20 2 0 20 2 0 20 2 0 20 2 0 20 2 0 20 2 0 20 2 0 20 2 0 20 2 0 20 2 0 20 2 0 20 2 0 20 2 0 20 2 0 20 2 0 20 2 0 20 2 0 20 2 0 20 2 0 20 2 0 20 2 0 20 2 0 20 2 0 20 2 0 20 2 0 20 2 0 20 2 0 20 2 0 20 2 0 20 2 0 20 2 0 20 2 0 20 2 0 20 2 0 20 2 0 20 2 0 20 2 0 20 2 0 20 2 0 20 2 0 20 2 0 20 2 0 20 2 0 20 2 0
20 2 0 20 2 0 20 2 0 20 2 0 20 2 0 20 2 0 20 2 0 20 2 0 20 2 0 20 2 0 20 2 0 20 2 0 20 2 0 20 2 0 20 2 0 20 2 0 20 2 0 20 2 0 20 2 0 20 2 0 20 2 0 20 2 0 20 2 0 20 2 0 20 2 0 20 2 0 20 2 0 20 2 0 20 2 0 20 2 0 20 2 0 20 2 0 20 2 0 20 2 0 20 2 0 20 2 0 20 2 0 20 2 0 20 2 0 20 2 0 20 2 0 20 2 0 20 2 0 20 2 0 20 2 0 20 2 0 20 2 0 20 2 0 20 2 0 20 2 0 20 2 0 20 2 0 20 2 0 20 2 0 20 2 0 20 2 0 20 2 0 20 2 0 20 2 0 20 2 0 20 2 0 20 2 0 20 2 0 20 2 0 20 2 0 20 2 0 20 2 0 20 2 0 20 2 0 20 2 0 20 2 0 20 2 0 20 2 0 20 2 0 20 2 0 20 2 0 20 2 0 20 2 0 20 2 0 20 2 0 20 2 0 20 2 0 20 2 0 20 2 0 20 2 0 20 2 0 20 2 0 20 2 0 20 2 0 20 2 0 20 2 0 20 2 0 20 2 0 20 2 0 20 2 0 20 2 0 20 2 0 20 2 0 20 2 0 20 2 0 20 2 0 20 2 0 20 2 0 20 2 0 20 2 0 20 2 0 20 2 0 20 2 0 20 2 0 20 2 0 20 2 0 20 2 0 20 2 0 20 2 0 20 2 0 20 2 0 20 2 0 20 2 0 20 2 0 20 2 0 20 2 0 20 2 0 20 2 0 20 2 0 20 2 0 20 2 0 20 2 0 20 2 0 20 2 0 20 2 0 20 2 0 20 2 0 20 2 0 20 2 0 20 2 0 20 2 0 20 2 0 20 2 0 20 2 0 20 2 0 20 2 0 20 2 0 20 2 0 20 2 0 20 2 0 20 2 0 20 2 0 20 2 0 20 2 0 20 2 0 20 2 0 20 2 0 20 2 0 20 2 0 20 2 0 20 2 0 20 2 0 20 2 0 20 2 0 20 2 0 20 2 0 20 2 0 20 2 0 20 2 0 20 2 0 20 2 0 20 2 0 20 2 0 20 2 0 20 2 0 20 2 0 20 2 0 20 2 0 20 2 0 20 2 0 20 2 0 20 2 0 20 2 0 20 2 0 20 2 0 20 2 0 20 2 0 20 2 0 20 2 0 20 2 0 20 2 0 20 2 0 20 2 0 20 2 0 20 2 0 20 2 0 20 2 0 20 2 0 20 2 0 20 2 0 20 2 0 20 2 0 20 2 0 20 2 0 20 2 0 20 2 0 20 2 0 20 2 0 20 2 0 20 2 0 20 2 0 20 2 0 20 2 0 20 2 0 20 2 0 20 2 0 20 2 0 20 2 0 20 2 0 20 2 0 20 2 0 20 2 0 20 2 0 20 2 0 20 2 0 20 2 0 20 2 0 20 2 0 20 2 0 20 2 0 20 2 0 20 2 0 20 2 0 20 2 0 20 2 0 20 2 0 20 2 0 20 2 0 20 2 0 20 2 0 20 2 0 20 2 0 20 2 0 20 2 0 20 2 0
20 2 0 20 2 0 20 2 0 20 2 0 20 2 0 20 2 0 20 2 0 20 2 0 20 2 0 20 2 0 20 2 0 20 2 0 20 2 0 20 2 0 20 2 0 20 2 0 20 2 0 20 2 0 20 2 0 20 2 0 20 2 0 20 2 0 20 2 0 20 2 0 20 2 0 20 2 0 20 2 0 20 2 0 20 2 0 20 2 0 20 2 0 20 2 0 20 2 0 20 2 0 20 2 0 20 2 0 20 2 0 20 2 0 20 2 0 20 2 0 20 2 0 20 2 0 20 2 0 20 2 0 20 2 0 20 2 0 20 2 0 20 2 0 20 2 0 20 2 0 20 2 0 20 2 0 20 2 0 20 2 0 20 2 0 20 2 0 20 2 0 20 2 0 20 2 0 20 2 0 20 2 0 20 2 0 20 2 0 20 2 0 20 2 0 20 2 0 20 2 0 20 2 0 20 2 0 20 2 0 20 2 0 20 2 0 20 2 0 20 2 0 20 2 0 20 2 0 20 2 0 20 2 0 20 2 0 20 2 0 20 2 0 20 2 0 20 2 0 20 2 0 20 2 0 20 2 0 20 2 0 20 2 0 20 2 0 20 2 0 20 2 0 20 2 0 20 2 0 20 2 0 20 2 0 20 2 0 20 2 0 20 2 0 20 2 0 20 2 0 20 2 0 20 2 0 20 2 0 20 2 0 20 2 0 20 2 0 20 2 0 20 2 0 20 2 0 20 2 0 20 2 0 20 2 0 20 2 0 20 2 0 20 2 0 20 2 0 20 2 0 20 2 0 20 2 0 20 2 0 20 2 0 20 2 0 20 2 0 20 2 0 20 2 0 20 2 0 20 2 0 20 2 0 20 2 0 20 2 0 20 2 0 20 2 0 20 2 0 20 2 0 20 2 0 20 2 0 20 2 0 20 2 0 20 2 0 20 2 0 20 2 0 20 2 0 20 2 0 20 2 0 20 2 0 20 2 0 20 2 0 20 2 0 20 2 0 20 2 0 20 2 0 20 2 0 20 2 0 20 2 0 20 2 0 20 2 0 20 2 0 20 2 0 20 2 0 20 2 0 20 2 0 20 2 0 20 2 0 20 2 0 20 2 0 20 2 0 20 2 0 20 2 0 20 2 0 20 2 0 20 2 0 20 2 0 20 2 0 20 2 0 20 2 0 20 2 0 20 2 0 20 2 0 20 2 0 20 2 0 20 2 0 20 2 0 20 2 0 20 2 0 20 2 0 20 2 0 20 2 0 20 2 0 20 2 0 20 2 0 20 2 0 20 2 0 20 2 0 20 2 0 20 2 0 20 2 0 20 2 0 20 2 0 20 2 0 20 2 0 20 2 0 20 2 0 20 2 0 20 2 0 20 2 0 20 2 0 20 2 0 20 2 0 20 2 0 20 2 0 20 2 0 20 2 0 20 2 0 20 2 0 20 2 0 20 2 0 20 2 0 20 2 0 20 2 0 20 2 0 20 2 0 20 2 0 20 2 0 20 2 0 20 2 0 20 2 0 20 2 0 20 2 0 20 2 0 20 2 0 20 2 0 20 2 0 20 2 0 20 2 0 20 2 0 20 2 0 20 2 0 20 2 0 20 2 0 20 2 0
20 2 0 20 2 0 20 2 0 20 2 0 20 2 0 20 2 0 20 2 0 20 2 0 20 2 0 20 2 0 20 2 0 20 2 0 20 2 0 20 2 0 20 2 0 20 2 0 20 2 0 20 2 0 20 2 0 20 2 0 20 2 0 20 2 0 20 2 0 20 2 0 20 2 0 20 2 0 20 2 0 20 2 0 20 2 0 20 2 0 20 2 0 20 2 0 20 2 0 20 2 0 20 2 0 20 2 0 20 2 0 20 2 0 20 2 0 20 2 0 20 2 0 20 2 0 20 2 0 20 2 0 20 2 0 20 2 0 20 2 0 20 2 0 20 2 0 20 2 0 20 2 0 20 2 0 20 2 0 20 2 0 20 2 0 20 2 0 20 2 0 20 2 0 20 2 0 20 2 0 20 2 0 20 2 0 20 2 0 20 2 0 20 2 0 20 2 0 20 2 0 20 2 0 20 2 0 20 2 0 20 2 0 20 2 0 20 2 0 20 2 0 20 2 0 20 2 0 20 2 0 20 2 0 20 2 0 20 2 0 20 2 0 20 2 0 20 2 0 20 2 0 20 2 0 20 2 0 20 2 0 20 2 0 20 2 0 20 2 0 20 2 0 20 2 0 20 2 0 20 2 0 20 2 0 20 2 0 20 2 0 20 2 0 20 2 0 20 2 0 20 2 0 20 2 0 20 2 0 20 2 0 20 2 0 20 2 0 20 2 0 20 2 0 20 2 0 20 2 0 20 2 0 20 2 0 20 2 0 20 2 0 20 2 0 20 2 0 20 2 0 20 2 0 20 2 0 20 2 0 20 2 0 20 2 0 20 2 0 20 2 0 20 2 0 20 2 0 20 2 0 20 2 0 20 2 0 20 2 0 20 2 0 20 2 0 20 2 0 20 2 0 20 2 0 20 2 0 20 2 0 20 2 0 20 2 0 20 2 0 20 2 0 20 2 0 20 2 0 20 2 0 20 2 0 20 2 0 20 2 0 20 2 0 20 2 0 20 2 0 20 2 0 20 2 0 20 2 0 20 2 0 20 2 0 20 2 0 20 2 0 20 2 0 20 2 0 20 2 0 20 2 0 20 2 0 20 2 0 20 2 0 20 2 0 20 2 0 20 2 0 20 2 0 20 2 0 20 2 0 20 2 0 20 2 0 20 2 0 20 2 0 20 2 0 20 2 0 20 2 0 20 2 0 20 2 0 20 2 0 20 2 0 20 2 0 20 2 0 20 2 0 20 2 0 20 2 0 20 2 0 20 2 0 20 2 0 20 2 0 20 2 0 20 2 0 20 2 0 20 2 0 20 2 0 20 2 0 20 2 0 20 2 0 20 2 0 20 2 0 20 2 0 20 2 0 20 2 0 20 2 0 20 2 0 20 2 0 20 2 0 20 2 0 20 2 0 20 2 0 20 2 0 20 2 0 20 2 0 20 2 0 20 2 0 20 2 0 20 2 0 20 2 0 20 2 0 20 2 0 20 2 0 20 2 0 20 2 0 20 2 0 20 2 0 20 2 0 20 2 0 20 2 0 20 2 0 20 2 0 20 2 0 20 2 0 20 2 0 20 2 0 20 2 0 20 2 0 20 2 0 20 2 0 20 2 0 20 2 0
20 2 0 20 2 0 20 2 0 20 2 0 20 2 0 20 2 0 20 2 0 20 2 0 20 2 0 20 2 0 20 2 0 20 2 0 20 2 0 20 2 0 20 2 0 20 2 0 20 2 0 20 2 0 20 2 0 20 2 0 20 2 0 20 2 0 20 2 0 20 2 0 20 2 0 20 2 0 20 2 0 20 2 0 20 2 0 20 2 0 20 2 0 20 2 0 20 2 0 20 2 0 20 2 0 20 2 0 20 2 0 20 2 0 20 2 0 20 2 0 20 2 0 20 2 0 20 2 0 20 2 0 20 2 0 20 2 0 20 2 0 20 2 0 20 2 0 20 2 0 20 2 0 20 2 0 20 2 0 20 2 0 20 2 0 20 2 0 20 2 0 20 2 0 20 2 0 20 2 0 20 2 0 20 2 0 20 2 0 20 2 0 20 2 0 20 2 0 20 2 0 20 2 0 20 2 0 20 2 0 20 2 0 20 2 0 20 2 0 20 2 0 20 2 0 20 2 0 20 2 0 20 2 0 20 2 0 20 2 0 20 2 0 20 2 0 20 2 0 20 2 0 20 2 0 20 2 0 20 2 0 20 2 0 20 2 0 20 2 0 20 2 0 20 2 0 20 2 0 20 2 0 20 2 0 20 2 0 20 2 0 20 2 0 20 2 0 20 2 0 20 2 0 20 2 0 20 2 0 20 2 0 20 2 0 20 2 0 20 2 0 20 2 0 20 2 0 20 2 0 20 2 0 20 2 0 20 2 0 20 2 0 20 2 0 20 2 0 20 2 0 20 2 0 20 2 0 20 2 0 20 2 0 20 2 0 20 2 0 20 2 0 20 2 0 20 2 0 20 2 0 20 2 0 20 2 0 20 2 0 20 2 0 20 2 0 20 2 0 20 2 0 20 2 0 20 2 0 20 2 0 20 2 0 20 2 0 20 2 0 20 2 0 20 2 0 20 2 0 20 2 0 20 2 0 20 2 0 20 2 0 20 2 0 20 2 0 20 2 0 20 2 0 20 2 0 20 2 0 20 2 0 20 2 0 20 2 0 20 2 0 20 2 0 20 2 0 20 2 0 20 2 0 20 2 0 20 2 0 20 2 0 20 2 0 20 2 0 20 2 0 20 2 0 20 2 0 20 2 0 20 2 0 20 2 0 20 2 0 20 2 0 20 2 0 20 2 0 20 2 0 20 2 0 20 2 0 20 2 0 20 2 0 20 2 0 20 2 0 20 2 0 20 2 0 20 2 0 20 2 0 20 2 0 20 2 0 20 2 0 20 2 0 20 2 0 20 2 0 20 2 0 20 2 0 20 2 0 20 2 0 20 2 0 20 2 0 20 2 0 20 2 0 20 2 0 20 2 0 20 2 0 20 2 0 20 2 0 20 2 0 20 2 0 20 2 0 20 2 0 20 2 0 20 2 0 20 2 0 20 2 0 20 2 0 20 2 0 20 2 0 20 2 0 20 2 0 20 2 0 20 2 0 20 2 0 20 2 0 20 2 0 20 2 0 20 2 0 20 2 0 20 2 0 20 2 0 20 2 0 20 2 0 20 2 0 20 2 0 20 2 0 20 2 0 20 2 0 20 2 0 20 2 0 20 2 0 20 2 0
20 2 0 20 2 0 20 2 0 20 2 0 20 2 0 20 2 0 20 2 0 20 2 0 20 2 0 20 2 0 20 2 0 20 2 0 20 2 0 20 2 0 20 2 0 20 2 0 20 2 0 20 2 0 20 2 0 20 2 0 20 2 0 20 2 0 20 2 0 20 2 0 20 2 0 20 2 0 20 2 0 20 2 0 20 2 0 20 2 0 20 2 0 20 2 0 20 2 0 20 2 0 20 2 0 20 2 0 20 2 0 20 2 0 20 2 0 20 2 0 20 2 0 20 2 0 20 2 0 20 2 0 20 2 0 20 2 0 20 2 0 20 2 0 20 2 0 20 2 0 20 2 0 20 2 0 20 2 0 20 2 0 20 2 0 20 2 0 20 2 0 20 2 0 20 2 0 20 2 0 20 2 0 20 2 0 20 2 0 20 2 0 20 2 0 20 2 0 20 2 0 20 2 0 20 2 0 20 2 0 20 2 0 20 2 0 20 2 0 20 2 0 20 2 0 20 2 0 20 2 0 20 2 0 20 2 0 20 2 0 20 2 0 20 2 0 20 2 0 20 2 0 20 2 0 20 2 0 20 2 0 20 2 0 20 2 0 20 2 0 20 2 0 20 2 0 20 2 0 20 2 0 20 2 0 20 2 0 20 2 0 20 2 0 20 2 0 20 2 0 20 2 0 20 2 0 20 2 0 20 2 0 20 2 0 20 2 0 20 2 0 20 2 0 20 2 0 20 2 0 20 2 0 20 2 0 20 2 0 20 2 0 20 2 0 20 2 0 20 2 0 20 2 0 20 2 0 20 2 0 20 2 0 20 2 0 20 2 0 20 2 0 20 2 0 20 2 0 20 2 0 20 2 0 20 2 0 20 2 0 20 2 0 20 2 0 20 2 0 20 2 0 20 2 0 20 2 0 20 2 0 20 2 0 20 2 0 20 2 0 20 2 0 20 2 0 20 2 0 20 2 0 20 2 0 20 2 0 20 2 0 20 2 0 20 2 0 20 2 0 20 2 0 20 2 0 20 2 0 20 2 0 20 2 0 20 2 0 20 2 0 20 2 0 20 2 0 20 2 0 20 2 0 20 2 0 20 2 0 20 2 0 20 2 0 20 2 0 20 2 0 20 2 0 20 2 0 20 2 0 20 2 0 20 2 0 20 2 0 20 2 0 20 2 0 20 2 0 20 2 0 20 2 0 20 2 0 20 2 0 20 2 0 20 2 0 20 2 0 20 2 0 20 2 0 20 2 0 20 2 0 20 2 0 20 2 0 20 2 0 20 2 0 20 2 0 20 2 0 20 2 0 20 2 0 20 2 0 20 2 0 20 2 0 20 2 0 20 2 0 20 2 0 20 2 0 20 2 0 20 2 0 20 2 0 20 2 0 20 2 0 20 2 0 20 2 0 20 2 0 20 2 0 20 2 0 20 2 0 20 2 0 20 2 0 20 2 0 20 2 0 20 2 0 20 2 0 20 2 0 20 2 0 20 2 0 20 2 0 20 2 0 20 2 0 20 2 0 20 2 0 20 2 0 20 2 0 20 2 0 20 2 0 20 2 0 20 2 0 20 2 0 20 2 0 20 2 0 20 2 0 20 2 0 20 2 0 20 2 0
20 2 0 20 2 0 20 2 0 20 2 0 20 2 0 20 2 0 20 2 0 20 2 0 20 2 0 20 2 0 20 2 0 20 2 0 20 2 0 20 2 0 20 2 0 20 2 0 20 2 0 20 2 0 20 2 0 20 2 0 20 2 0 20 2 0 20 2 0 20 2 0 20 2 0 20 2 0 20 2 0 20 2 0 20 2 0 20 2 0 20 2 0 20 2 0 20 2 0 20 2 0 20 2 0 20 2 0 20 2 0 20 2 0 20 2 0 20 2 0 20 2 0 20 2 0 20 2 0 20 2 0 20 2 0 20 2 0 20 2 0 20 2 0 20 2 0 20 2 0 20 2 0 20 2 0 20 2 0 20 2 0 20 2 0 20 2 0 20 2 0 20 2 0 20 2 0 20 2 0 20 2 0 20 2 0 20 2 0 20 2 0 20 2 0 20 2 0 20 2 0 20 2 0 20 2 0 20 2 0 20 2 0 20 2 0 20 2 0 20 2 0 20 2 0 20 2 0 20 2 0 20 2 0 20 2 0 20 2 0 20 2 0 20 2 0 20 2 0 20 2 0 20 2 0 20 2 0 20 2 0 20 2 0 20 2 0 20 2 0 20 2 0 20 2 0 20 2 0 20 2 0 20 2 0 20 2 0 20 2 0 20 2 0 20 2 0 20 2 0 20 2 0 20 2 0 20 2 0 20 2 0 20 2 0 20 2 0 20 2 0 20 2 0 20 2 0 20 2 0 20 2 0 20 2 0 20 2 0 20 2 0 20 2 0 20 2 0 20 2 0 20 2 0 20 2 0 20 2 0 20 2 0 20 2 0 20 2 0 20 2 0 20 2 0 20 2 0 20 2 0 20 2 0 20 2 0 20 2 0 20 2 0 20 2 0 20 2 0 20 2 0 20 2 0 20 2 0 20 2 0 20 2 0 20 2 0 20 2 0 20 2 0 20 2 0 20 2 0 20 2 0 20 2 0 20 2 0 20 2 0 20 2 0 20 2 0 20 2 0 20 2 0 20 2 0 20 2 0 20 2 0 20 2 0 20 2 0 20 2 0 20 2 0 20 2 0 20 2 0 20 2 0 20 2 0 20 2 0 20 2 0 20 2 0 20 2 0 20 2 0 20 2 0 20 2 0 20 2 0 20 2 0 20 2 0 20 2 0 20 2 0 20 2 0 20 2 0 20 2 0 20 2 0 20 2 0 20 2 0 20 2 0 20 2 0 20 2 0 20 2 0 20 2 0 20 2 0 20 2 0 20 2 0 20 2 0 20 2 0 20 2 0 20 2 0 20 2 0 20 2 0 20 2 0 20 2 0 20 2 0 20 2 0 20 2 0 20 2 0 20 2 0 20 2 0 20 2 0 20 2 0 20 2 0 20 2 0 20 2 0 20 2 0 20 2 0 20 2 0 20 2 0 20 2 0 20 2 0 20 2 0 20 2 0 20 2 0 20 2 0 20 2 0 20 2 0 20 2 0 20 2 0 20 2 0 20 2 0 20 2 0 20 2 0 20 2 0 20 2 0 20 2 0 20 2 0 20 2 0 20 2 0 20 2 0 20 2 0 20 2 0 20 2 0 20 2 0 20 2 0 20 2 0 20 2 0 20 2 0
20 2 0 20 2 0 20 2 0 20 2 0 20 2 0 20 2 0 20 2 0 20 2 0 20 2 0 20 2 0 20 2 0 20 2 0 20 2 0 20 2 0 20 2 0 20 2 0 20 2 0 20 2 0 20 2 0 20 2 0 20 2 0 20 2 0 20 2 0 20 2 0 20 2 0 20 2 0 20 2 0 20 2 0 20 2 0 20 2 0 20 2 0 20 2 0 20 2 0 20 2 0 20 2 0 20 2 0 20 2 0 20 2 0 20 2 0 20 2 0 20 2 0 20 2 0 20 2 0 20 2 0 20 2 0 20 2 0 20 2 0 20 2 0 20 2 0 20 2 0 20 2 0 20 2 0 20 2 0 20 2 0 20 2 0 20 2 0 20 2 0 20 2 0 20 2 0 20 2 0 20 2 0 20 2 0 20 2 0 20 2 0 20 2 0 20 2 0 20 2 0 20 2 0 20 2 0 20 2 0 20 2 0 20 2 0 20 2 0 20 2 0 20 2 0 20 2 0 20 2 0 20 2 0 20 2 0 20 2 0 20 2 0 20 2 0 20 2 0 20 2 0 20 2 0 20 2 0 20 2 0 20 2 0 20 2 0 20 2 0 20 2 0 20 2 0 20 2 0 20 2 0 20 2 0 20 2 0 20 2 0 20 2 0 20 2 0 20 2 0 20 2 0 20 2 0 20 2 0 20 2 0 20 2 0 20 2 0 20 2 0 20 2 0 20 2 0 20 2 0 20 2 0 20 2 0 20 2 0 20 2 0 20 2 0 20 2 0 20 2 0 20 2 0 20 2 0 20 2 0 20 2 0 20 2 0 20 2 0 20 2 0 20 2 0 20 2 0 20 2 0 20 2 0 20 2 0 20 2 0 20 2 0 20 2 0 20 2 0 20 2 0 20 2 0 20 2 0 20 2 0 20 2 0 20 2 0 20 2 0 20 2 0 20 2 0 20 2 0 20 2 0 20 2 0 20 2 0 20 2 0 20 2 0 20 2 0 20 2 0 20 2 0 20 2 0 20 2 0 20 2 0 20 2 0 20 2 0 20 2 0 20 2 0 20 2 0 20 2 0 20 2 0 20 2 0 20 2 0 20 2 0 20 2 0 20 2 0 20 2 0 20 2 0 20 2 0 20 2 0 20 2 0 20 2 0 20 2 0 20 2 0 20 2 0 20 2 0 20 2 0 20 2 0 20 2 0 20 2 0 20 2 0 20 2 0 20 2 0 20 2 0 20 2 0 20 2 0 20 2 0 20 2 0 20 2 0 20 2 0 20 2 0 20 2 0 20 2 0 20 2 0 20 2 0 20 2 0 20 2 0 20 2 0 20 2 0 20 2 0 20 2 0 20 2 0 20 2 0 20 2 0 20 2 0 20 2 0 20 2 0 20 2 0 20 2 0 20 2 0 20 2 0 20 2 0 20 2 0 20 2 0 20 2 0 20 2 0 20 2 0 20 2 0 20 2 0 20 2 0 20 2 0 20 2 0 20 2 0 20 2 0 20 2 0 20 2 0 20 2 0 20 2 0 20 2 0 20 2 0 20 2 0 20 2 0 20 2 0 20 2 0 20 2 0 20 2 0 20 2 0 20 2 0 20 2 0 20 2 0
20 2 0 20 2 0 20 2 0 20 2 0 20 2 0 20 2 0 20 2 0 20 2 0 20 2 0 20 2 0 20 2 0 20 2 0 20 2 0 20 2 0 20 2 0 20 2 0 20 2 0 20 2 0 20 2 0 20 2 0 20 2 0 20 2 0 20 2 0 20 2 0 20 2 0 20 2 0 20 2 0 20 2 0 20 2 0 20 2 0 20 2 0 20 2 0 20 2 0 20 2 0 20 2 0 20 2 0 20 2 0 20 2 0 20 2 0 20 2 0 20 2 0 20 2 0 20 2 0 20 2 0 20 2 0 20 2 0 20 2 0 20 2 0 20 2 0 20 2 0 20 2 0 20 2 0 20 2 0 20 2 0 20 2 0 20 2 0 20 2 0 20 2 0 20 2 0 20 2 0 20 2 0 20 2 0 20 2 0 20 2 0 20 2 0 20 2 0 20 2 0 20 2 0 20 2 0 20 2 0 20 2 0 20 2 0 20 2 0 20 2 0 20 2 0 20 2 0 20 2 0 20 2 0 20 2 0 20 2 0 20 2 0 20 2 0 20 2 0 20 2 0 20 2 0 20 2 0 20 2 0 20 2 0 20 2 0 20 2 0 20 2 0 20 2 0 20 2 0 20 2 0 20 2 0 20 2 0 20 2 0 20 2 0 20 2 0 20 2 0 20 2 0 20 2 0 20 2 0 20 2 0 20 2 0 20 2 0 20 2 0 20 2 0 20 2 0 20 2 0 20 2 0 20 2 0 20 2 0 20 2 0 20 2 0 20 2 0 20 2 0 20 2 0 20 2 0 20 2 0 20 2 0 20 2 0 20 2 0 20 2 0 20 2 0 20 2 0 20 2 0 20 2 0 20 2 0 20 2 0 20 2 0 20 2 0 20 2 0 20 2 0 20 2 0 20 2 0 20 2 0 20 2 0 20 2 0 20 2 0 20 2 0 20 2 0 20 2 0 20 2 0 20 2 0 20 2 0 20 2 0 20 2 0 20 2 0 20 2 0 20 2 0 20 2 0 20 2 0 20 2 0 20 2 0 20 2 0 20 2 0 20 2 0 20 2 0 20 2 0 20 2 0 20 2 0 20 2 0 20 2 0 20 2 0 20 2 0 20 2 0 20 2 0 20 2 0 20 2 0 20 2 0 20 2 0 20 2 0 20 2 0 20 2 0 20 2 0 20 2 0 20 2 0 20 2 0 20 2 0 20 2 0 20 2 0 20 2 0 20 2 0 20 2 0 20 2 0 20 2 0 20 2 0 20 2 0 20 2 0 20 2 0 20 2 0 20 2 0 20 2 0 20 2 0 20 2 0 20 2 0 20 2 0 20 2 0 20 2 0 20 2 0 20 2 0 20 2 0 20 2 0 20 2 0 20 2 0 20 2 0 20 2 0 20 2 0 20 2 0 20 2 0 20 2 0 20 2 0 20 2 0 20 2 0 20 2 0 20 2 0 20 2 0 20 2 0 20 2 0 20 2 0 20 2 0 20 2 0 20 2 0 20 2 0 20 2 0 20 2 0 20 2 0 20 2 0 20 2 0 20 2 0 20 2 0 20 2 0 20 2 0 20 2 0 20 2 0 20 2 0 20 2 0 20 2 0 20 2 0
20 2 0 20 2 0 20 2 0 20 2 0 20 2 0 20 2 0 20 2 0 20 2 0 20 2 0 20 2 0 20 2 0 20 2 0 20 2 0 20 2 0 20 2 0 20 2 0 20 2 0 20 2 0 20 2 0 20 2 0 20 2 0 20 2 0 20 2 0 20 2 0 20 2 0 20 2 0 20 2 0 20 2 0 20 2 0 20 2 0 20 2 0 20 2 0 20 2 0 20 2 0 20 2 0 20 2 0 20 2 0 20 2 0 20 2 0 20 2 0 20 2 0 20 2 0 20 2 0 20 2 0 20 2 0 20 2 0 20 2 0 20 2 0 20 2 0 20 2 0 20 2 0 20 2 0 20 2 0 20 2 0 20 2 0 20 2 0 20 2 0 20 2 0 20 2 0 20 2 0 20 2 0 20 2 0 20 2 0 20 2 0 20 2 0 20 2 0 20 2 0 20 2 0 20 2 0 20 2 0 20 2 0 20 2 0 20 2 0 20 2 0 20 2 0 20 2 0 20 2 0 20 2 0 20 2 0 20 2 0 20 2 0 20 2 0 20 2 0 20 2 0 20 2 0 20 2 0 20 2 0 20 2 0 20 2 0 20 2 0 20 2 0 20 2 0 20 2 0 20 2 0 20 2 0 20 2 0 20 2 0 20 2 0 20 2 0 20 2 0 20 2 0 20 2 0 20 2 0 20 2 0 20 2 0 20 2 0 20 2 0 20 2 0 20 2 0 20 2 0 20 2 0 20 2 0 20 2 0 20 2 0 20 2 0 20 2 0 20 2 0 20 2 0 20 2 0 20 2 0 20 2 0 20 2 0 20 2 0 20 2 0 20 2 0 20 2 0 20 2 0 20 2 0 20 2 0 20 2 0 20 2 0 20 2 0 20 2 0 20 2 0 20 2 0 20 2 0 20 2 0 20 2 0 20 2 0 20 2 0 20 2 0 20 2 0 20 2 0 20 2 0 20 2 0 20 2 0 20 2 0 20 2 0 20 2 0 20 2 0 20 2 0 20 2 0 20 2 0 20 2 0 20 2 0 20 2 0 20 2 0 20 2 0 20 2 0 20 2 0 20 2 0 20 2 0 20 2 0 20 2 0 20 2 0 20 2 0 20 2 0 20 2 0 20 2 0 20 2 0 20 2 0 20 2 0 20 2 0 20 2 0 20 2 0 20 2 0 20 2 0 20 2 0 20 2 0 20 2 0 20 2 0 20 2 0 20 2 0 20 2 0 20 2 0 20 2 0 20 2 0 20 2 0 20 2 0 20 2 0 20 2 0 20 2 0 20 2 0 20 2 0 20 2 0 20 2 0 20 2 0 20 2 0 20 2 0 20 2 0 20 2 0 20 2 0 20 2 0 20 2 0 20 2 0 20 2 0 20 2 0 20 2 0 20 2 0 20 2 0 20 2 0 20 2 0 20 2 0 20 2 0 20 2 0 20 2 0 20 2 0 20 2 0 20 2 0 20 2 0 20 2 0 20 2 0 20 2 0 20 2 0 20 2 0 20 2 0 20 2 0 20 2 0 20 2 0 20 2 0 20 2 0 20 2 0 20 2 0 20 2 0 20 2 0 20 2 0 20 2 0 20 2 0 20 2 0 20 2 0
20 2 0 20 2 0 20 2 0 20 2 0 20 2 0 20 2 0 20 2 0 20 2 0 20 2 0 20 2 0 20 2 0 20 2 0 20 2 0 20 2 0 20 2 0 20 2 0 20 2 0 20 2 0 20 2 0 20 2 0 20 2 0 20 2 0 20 2 0 20 2 0 20 2 0 20 2 0 20 2 0 20 2 0 20 2 0 20 2 0 20 2 0 20 2 0 20 2 0 20 2 0 20 2 0 20 2 0 20 2 0 20 2 0 20 2 0 20 2 0 20 2 0 20 2 0 20 2 0 20 2 0 20 2 0 20 2 0 20 2 0 20 2 0 20 2 0 20 2 0 20 2 0 20 2 0 20 2 0 20 2 0 20 2 0 20 2 0 20 2 0 20 2 0 20 2 0 20 2 0 20 2 0 20 2 0 20 2 0 20 2 0 20 2 0 20 2 0 20 2 0 20 2 0 20 2 0 20 2 0 20 2 0 20 2 0 20 2 0 20 2 0 20 2 0 20 2 0 20 2 0 20 2 0 20 2 0 20 2 0 20 2 0 20 2 0 20 2 0 20 2 0 20 2 0 20 2 0 20 2 0 20 2 0 20 2 0 20 2 0 20 2 0 20 2 0 20 2 0 20 2 0 20 2 0 20 2 0 20 2 0 20 2 0 20 2 0 20 2 0 20 2 0 20 2 0 20 2 0 20 2 0 20 2 0 20 2 0 20 2 0 20 2 0 20 2 0 20 2 0 20 2 0 20 2 0 20 2 0 20 2 0 20 2 0 20 2 0 20 2 0 20 2 0 20 2 0 20 2 0 20 2 0 20 2 0 20 2 0 20 2 0 20 2 0 20 2 0 20 2 0 20 2 0 20 2 0 20 2 0 20 2 0 20 2 0 20 2 0 20 2 0 20 2 0 20 2 0 20 2 0 20 2 0 20 2 0 20 2 0 20 2 0 20 2 0 20 2 0 20 2 0 20 2 0 20 2 0 20 2 0 20 2 0 20 2 0 20 2 0 20 2 0 20 2 0 20 2 0 20 2 0 20 2 0 20 2 0 20 2 0 20 2 0 20 2 0 20 2 0 20 2 0 20 2 0 20 2 0 20 2 0 20 2 0 20 2 0 20 2 0 20 2 0 20 2 0 20 2 0 20 2 0 20 2 0 20 2 0 20 2 0 20 2 0 20 2 0 20 2 0 20 2 0 20 2 0 20 2 0 20 2 0 20 2 0 20 2 0 20 2 0 20 2 0 20 2 0 20 2 0 20 2 0 20 2 0 20 2 0 20 2 0 20 2 0 20 2 0 20 2 0 20 2 0 20 2 0 20 2 0 20 2 0 20 2 0 20 2 0 20 2 0 20 2 0 20 2 0 20 2 0 20 2 0 20 2 0 20 2 0 20 2 0 20 2 0 20 2 0 20 2 0 20 2 0 20 2 0 20 2 0 20 2 0 20 2 0 20 2 0 20 2 0 20 2 0 20 2 0 20 2 0 20 2 0 20 2 0 20 2 0 20 2 0 20 2 0 20 2 0 20 2 0 20 2 0 20 2 0 20 2 0 20 2 0 20 2 0 20 2 0 20 2 0 20 2 0 20 2 0 20 2 0 20 2 0 20 2 0
0 0 0 0 0 0 0 0 0 0 0 0 0 0 0 0 0 0 0 0 0 0 0 0 0 0 0 0 0 0 0 0 0 0 0 0 0 0 0 0 0 0 0 0 0 0 0 0 0 0 0 0 0 0 0 0 0 0 0 0 0 0 0 0 0 0 0 0 0 0 0 0 0 0 0 0 0 0 0 0 0 0 0 0 0 0 0 0 0 0 0 0 0 0 0 0 0 0 0 0 0 0 0 0 0 0 0 0 0 0 0 0 0 0 0 0 0 0 0 0 0 0 0 0 0 0 0 0 0 0 0 0 0 0 0 0 0 0 0 0 0 0 0 0 0 0 0 0 0 0 0 0 0 0 0 0 0 0 0 0 0 0 0 0 0 0 0 0 0 0 0 0 0 0 0 0 0 0 0 0 0 0 0 0 0 0 0 0 0 0 0 0 0 0 0 0 0 0 0 0 0 0 0 0 0 0 0 0 0 0 0 0 0 0 0 0 0 0 0 0 0 0 0 0 0 0 0 0 0 0 0 0 0 0 0 0 0 0 0 0 0 0 0 0 0 0 0 0 0 0 0 0 0 0 0 0 0 0 0 0 0 0 0 0 0 0 0 0 0 0 0 0 0 0 0 0 0 0 0 0 0 0 0 0 0 0 0 0 0 0 0 0 0 0 0 0 0 0 0 0 0 0 0 0 0 0 0 0 0 0 0 0 0 0 0 0 0 0 0 0 0 0 0 0 0 0 0 0 0 0 0 0 0 0 0 0 0 0 0 0 0 0 0 0 0 0 0 0 0 0 0 0 0 0 0 0 0 0 0 0 0 0 0 0 0 0 0 0 0 0 0 0 0 0 0 0 0 0 0 0 0 0 0 0 0 0 0 0 0 0 0 0 0 0 0 0 0 0 0 0 0 0 0 0 0 0 0 0 0 0 0 0 0 0 0 0 0 0 0 0 0 0 0 0 0 0 0 0 0 0 0 0 0 0 0 0 0 0 0 0 0 0 0 0 0 0 0 0 0 0 0 0 0 0 0 0 0 0 0 0 0 0 0 0 0 0 0 0 0 0 0 0 0 0 0 0 0 0 0 0 0 0 0 0 0 0 0 0 0 0 0 0 0 0 0 0 0 0 0 0 0 0 0 0 0 0 0 0 0 0 0 0 0 0 0 0 0 0 0 0 0 0 0 0 0 0 0 0 0 0 0 0 0 0 0 0 0 0 0 0 0 0 0 0 0 0 0 0 0 0 0 0 0 0 0 0 0 0 0 0 0 0 0 0 0 0 0 0 0 0 0 0 0 0 0 0 0 0 0 0 0 0 0 0 0 0 0 0 0 0 0 0 0 0 0 0 0 0 0 0 0 0 0 0 0 0 0 0 0 0 0 0 0 0 0 0 0 0 0 0 0 0 0 0 0 0 0 0 0 0 0 0 0 0 0 0 0 0 0 0 0 0 0 0 0 0 0 0 0 0 0 0 0 0 0 0 0 0 0 0 0 0 0 0 0 0 0 0 0 0 0 0 0 0 0 0 0 0 0 0 0 0 0 0 0 0 0 0 0 0 0 0 0 0 0 0 0 0 0 0 0 0 0 0 0 0 0 0 0 0 0 0 0 0 0 0 0 0 0 0
0 0 0 0 0 0 0 0 0 0 0 0 0 0 0 0 0 0 0 0 0 0 0 0 0 0 0 0 0 0 0 0 0 0 0 0 0 0 0 0 0 0 0 0 0 0 0 0 0 0 0 0 0 0 0 0 0 0 0 0 0 0 0 0 0 0 0 0 0 0 0 0 0 0 0 0 0 0 0 0 0 0 0 0 0 0 0 0 0 0 0 0 0 0 0 0 0 0 0 0 0 0 0 0 0 0 0 0 0 0 0 0 0 0 0 0 0 0 0 0 0 0 0 0 0 0 0 0 0 0 0 0 0 0 0 0 0 0 0 0 0 0 0 0 0 0 0 0 0 0 0 0 0 0 0 0 0 0 0 0 0 0 0 0 0 0 0 0 0 0 0 0 0 0 0 0 0 0 0 0 0 0 0 0 0 0 0 0 0 0 0 0 0 0 0 0 0 0 0 0 0 0 0 0 0 0 0 0 0 0 0 0 0 0 0 0 0 0 0 0 0 0 0 0 0 0 0 0 0 0 0 0 0 0 0 0 0 0 0 0 0 0 0 0 0 0 0 0 0 0 0 0 0 0 0 0 0 0 0 0 0 0 0 0 0 0 0 0 0 0 0 0 0 0 0 0 0 0 0 0 0 0 0 0 0 0 0 0 0 0 0 0 0 0 0 0 0 0 0 0 0 0 0 0 0 0 0 0 0 0 0 0 0 0 0 0 0 0 0 0 0 0 0 0 0 0 0 0 0 0 0 0 0 0 0 0 0 0 0 0 0 0 0 0 0 0 0 0 0 0 0 0 0 0 0 0 0 0 0 0 0 0 0 0 0 0 0 0 0 0 0 0 0 0 0 0 0 0 0 0 0 0 0 0 0 0 0 0 0 0 0 0 0 0 0 0 0 0 0 0 0 0 0 0 0 0 0 0 0 0 0 0 0 0 0 0 0 0 0 0 0 0 0 0 0 0 0 0 0 0 0 0 0 0 0 0 0 0 0 0 0 0 0 0 0 0 0 0 0 0 0 0 0 0 0 0 0 0 0 0 0 0 0 0 0 0 0 0 0 0 0 0 0 0 0 0 0 0 0 0 0 0 0 0 0 0 0 0 0 0 0 0 0 0 0 0 0 0 0 0 0 0 0 0 0 0 0 0 0 0 0 0 0 0 0 0 0 0 0 0 0 0 0 0 0 0 0 0 0 0 0 0 0 0 0 0 0 0 0 0 0 0 0 0 0 0 0 0 0 0 0 0 0 0 0 0 0 0 0 0 0 0 0 0 0 0 0 0 0 0 0 0 0 0 0 0 0 0 0 0 0 0 0 0 0 0 0 0 0 0 0 0 0 0 0 0 0 0 0 0 0 0 0 0 0 0 0 0 0 0 0 0 0 0 0 0 0 0 0 0 0 0 0 0 0 0 0 0 0 0 0 0 0 0 0 0 0 0 0 0 0 0 0 0 0 0 0 0 0 0 0 0 0 0 0 0 0 0 0 0 0 0 0 0 0 0 0 0 0 0 0 0 0 0 0 0 0 0 0 0 0 0 0 0 0 0 0 0 0 0 0 0 0 0 0 0 0 0 0 0 0 0 0 0 0 0 0 0 0 0 0 0 0 0 0 0 0 0 0 0
0 0 0 0 0 0 0 0 0 0 0 0 0 0 0 0 0 0 0 0 0 0 0 0 0 0 0 0 0 0 0 0 0 0 0 0 0 0 0 0 0 0 0 0 0 0 0 0 0 0 0 0 0 0 0 0 0 0 0 0 0 0 0 0 0 0 0 0 0 0 0 0 0 0 0 0 0 0 0 0 0 0 0 0 0 0 0 0 0 0 0 0 0 0 0 0 0 0 0 0 0 0 0 0 0 0 0 0 0 0 0 0 0 0 0 0 0 0 0 0 0 0 0 0 0 0 0 0 0 0 0 0 0 0 0 0 0 0 0 0 0 0 0 0 0 0 0 0 0 0 0 0 0 0 0 0 0 0 0 0 0 0 0 0 0 0 0 0 0 0 0 0 0 0 0 0 0 0 0 0 0 0 0 0 0 0 0 0 0 0 0 0 0 0 0 0 0 0 0 0 0 0 0 0 0 0 0 0 0 0 0 0 0 0 0 0 0 0 0 0 0 0 0 0 0 0 0 0 0 0 0 0 0 0 0 0 0 0 0 0 0 0 0 0 0 0 0 0 0 0 0 0 0 0 0 0 0 0 0 0 0 0 0 0 0 0 0 0 0 0 0 0 0 0 0 0 0 0 0 0 0 0 0 0 0 0 0 0 0 0 0 0 0 0 0 0 0 0 0 0 0 0 0 0 0 0 0 0 0 0 0 0 0 0 0 0 0 0 0 0 0 0 0 0 0 0 0 0 0 0 0 0 0 0 0 0 0 0 0 0 0 0 0 0 0 0 0 0 0 0 0 0 0 0 0 0 0 0 0 0 0 0 0 0 0 0 0 0 0 0 0 0 0 0 0 0 0 0 0 0 0 0 0 0 0 0 0 0 0 0 0 0 0 0 0 0 0 0 0 0 0 0 0 0 0 0 0 0 0 0 0 0 0 0 0 0 0 0 0 0 0 0 0 0 0 0 0 0 0 0 0 0 0 0 0 0 0 0 0 0 0 0 0 0 0 0 0 0 0 0 0 0 0 0 0 0 0 0 0 0 0 0 0 0 0 0 0 0 0 0 0 0 0 0 0 0 0 0 0 0 0 0 0 0 0 0 0 0 0 0 0 0 0 0 0 0 0 0 0 0 0 0 0 0 0 0 0 0 0 0 0 0 0 0 0 0 0 0 0 0 0 0 0 0 0 0 0 0 0 0 0 0 0 0 0 0 0 0 0 0 0 0 0 0 0 0 0 0 0 0 0 0 0 0 0 0 0 0 0 0 0 0 0 0 0 0 0 0 0 0 0 0 0 0 0 0 0 0 0 0 0 0 0 0 0 0 0 0 0 0 0 0 0 0 0 0 0 0 0 0 0 0 0 0 0 0 0 0 0 0 0 0 0 0 0 0 0 0 0 0 0 0 0 0 0 0 0 0 0 0 0 0 0 0 0 0 0 0 0 0 0 0 0 0 0 0 0 0 0 0 0 0 0 0 0 0 0 0 0 0 0 0 0 0 0 0 0 0 0 0 0 0 0 0 0 0 0 0 0 0 0 0 0 0 0 0 0 0 0 0 0 0 0 0 0 0 0 0 0 0 0 0 0 0 0 0 0 0 0 0 0 0 0 0 0 0 0 0 0 0
0 0 0 0 0 0 0 0 0 0 0 0 0 0 0 0 0 0 0 0 0 0 0 0 0 0 0 0 0 0 0 0 0 0 0 0 0 0 0 0 0 0 0 0 0 0 0 0 0 0 0 0 0 0 0 0 0 0 0 0 0 0 0 0 0 0 0 0 0 0 0 0 0 0 0 0 0 0 0 0 0 0 0 0 0 0 0 0 0 0 0 0 0 0 0 0 0 0 0 0 0 0 0 0 0 0 0 0 0 0 0 0 0 0 0 0 0 0 0 0 0 0 0 0 0 0 0 0 0 0 0 0 0 0 0 0 0 0 0 0 0 0 0 0 0 0 0 0 0 0 0 0 0 0 0 0 0 0 0 0 0 0 0 0 0 0 0 0 0 0 0 0 0 0 0 0 0 0 0 0 0 0 0 0 0 0 0 0 0 0 0 0 0 0 0 0 0 0 0 0 0 0 0 0 0 0 0 0 0 0 0 0 0 0 0 0 0 0 0 0 0 0 0 0 0 0 0 0 0 0 0 0 0 0 0 0 0 0 0 0 0 0 0 0 0 0 0 0 0 0 0 0 0 0 0 0 0 0 0 0 0 0 0 0 0 0 0 0 0 0 0 0 0 0 0 0 0 0 0 0 0 0 0 0 0 0 0 0 0 0 0 0 0 0 0 0 0 0 0 0 0 0 0 0 0 0 0 0 0 0 0 0 0 0 0 0 0 0 0 0 0 0 0 0 0 0 0 0 0 0 0 0 0 0 0 0 0 0 0 0 0 0 0 0 0 0 0 0 0 0 0 0 0 0 0 0 0 0 0 0 0 0 0 0 0 0 0 0 0 0 0 0 0 0 0 0 0 0 0 0 0 0 0 0 0 0 0 0 0 0 0 0 0 0 0 0 0 0 0 0 0 0 0 0 0 0 0 0 0 0 0 0 0 0 0 0 0 0 0 0 0 0 0 0 0 0 0 0 0 0 0 0 0 0 0 0 0 0 0 0 0 0 0 0 0 0 0 0 0 0 0 0 0 0 0 0 0 0 0 0 0 0 0 0 0 0 0 0 0 0 0 0 0 0 0 0 0 0 0 0 0 0 0 0 0 0 0 0 0 0 0 0 0 0 0 0 0 0 0 0 0 0 0 0 0 0 0 0 0 0 0 0 0 0 0 0 0 0 0 0 0 0 0 0 0 0 0 0 0 0 0 0 0 0 0 0 0 0 0 0 0 0 0 0 0 0 0 0 0 0 0 0 0 0 0 0 0 0 0 0 0 0 0 0 0 0 0 0 0 0 0 0 0 0 0 0 0 0 0 0 0 0 0 0 0 0 0 0 0 0 0 0 0 0 0 0 0 0 0 0 0 0 0 0 0 0 0 0 0 0 0 0 0 0 0 0 0 0 0 0 0 0 0 0 0 0 0 0 0 0 0 0 0 0 0 0 0 0 0 0 0 0 0 0 0 0 0 0 0 0 0 0 0 0 0 0 0 0 0 0 0 0 0 0 0 0 0 0 0 0 0 0 0 0 0 0 0 0 0 0 0 0 0 0 0 0 0 0 0 0 0 0 0 0 0 0 0 0 0 0 0 0 0 0 0 0 0 0 0 0 0 0 0 0 0 0 0 0 0 0
0 0 0 0 0 0 0 0 0 0 0 0 0 0 0 0 0 0 0 0 0 0 0 0 0 0 0 0 0 0 0 0 0 0 0 0 0 0 0 0 0 0 0 0 0 0 0 0 0 0 0 0 0 0 0 0 0 0 0 0 0 0 0 0 0 0 0 0 0 0 0 0 0 0 0 0 0 0 0 0 0 0 0 0 0 0 0 0 0 0 0 0 0 0 0 0 0 0 0 0 0 0 0 0 0 0 0 0 0 0 0 0 0 0 0 0 0 0 0 0 0 0 0 0 0 0 0 0 0 0 0 0 0 0 0 0 0 0 0 0 0 0 0 0 0 0 0 0 0 0 0 0 0 0 0 0 0 0 0 0 0 0 0 0 0 0 0 0 0 0 0 0 0 0 0 0 0 0 0 0 0 0 0 0 0 0 0 0 0 0 0 0 0 0 0 0 0 0 0 0 0 0 0 0 0 0 0 0 0 0 0 0 0 0 0 0 0 0 0 0 0 0 0 0 0 0 0 0 0 0 0 0 0 0 0 0 0 0 0 0 0 0 0 0 0 0 0 0 0 0 0 0 0 0 0 0 0 0 0 0 0 0 0 0 0 0 0 0 0 0 0 0 0 0 0 0 0 0 0 0 0 0 0 0 0 0 0 0 0 0 0 0 0 0 0 0 0 0 0 0 0 0 0 0 0 0 0 0 0 0 0 0 0 0 0 0 0 0 0 0 0 0 0 0 0 0 0 0 0 0 0 0 0 0 0 0 0 0 0 0 0 0 0 0 0 0 0 0 0 0 0 0 0 0 0 0 0 0 0 0 0 0 0 0 0 0 0 0 0 0 0 0 0 0 0 0 0 0 0 0 0 0 0 0 0 0 0 0 0 0 0 0 0 0 0 0 0 0 0 0 0 0 0 0 0 0 0 0 0 0 0 0 0 0 0 0 0 0 0 0 0 0 0 0 0 0 0 0 0 0 0 0 0 0 0 0 0 0 0 0 0 0 0 0 0 0 0 0 0 0 0 0 0 0 0 0 0 0 0 0 0 0 0 0 0 0 0 0 0 0 0 0 0 0 0 0 0 0 0 0 0 0 0 0 0 0 0 0 0 0 0 0 0 0 0 0 0 0 0 0 0 0 0 0 0 0 0 0 0 0 0 0 0 0 0 0 0 0 0 0 0 0 0 0 0 0 0 0 0 0 0 0 0 0 0 0 0 0 0 0 0 0 0 0 0 0 0 0 0 0 0 0 0 0 0 0 0 0 0 0 0 0 0 0 0 0 0 0 0 0 0 0 0 0 0 0 0 0 0 0 0 0 0 0 0 0 0 0 0 0 0 0 0 0 0 0 0 0 0 0 0 0 0 0 0 0 0 0 0 0 0 0 0 0 0 0 0 0 0 0 0 0 0 0 0 0 0 0 0 0 0 0 0 0 0 0 0 0 0 0 0 0 0 0 0 0 0 0 0 0 0 0 0 0 0 0 0 0 0 0 0 0 0 0 0 0 0 0 0 0 0 0 0 0 0 0 0 0 0 0 0 0 0 0 0 0 0 0 0 0 0 0 0 0 0 0 0 0 0 0 0 0 0 0 0 0 0 0 0 0 0 0 0 0 0 0 0 0 0 0
0 0 0 0 0 0 0 0 0 0 0 0 0 0 0 0 0 0 0 0 0 0 0 0 0 0 0 0 0 0 0 0 0 0 0 0 0 0 0 0 0 0 0 0 0 0 0 0 0 0 0 0 0 0 0 0 0 0 0 0 0 0 0 0 0 0 0 0 0 0 0 0 0 0 0 0 0 0 0 0 0 0 0 0 0 0 0 0 0 0 0 0 0 0 0 0 0 0 0 0 0 0 0 0 0 0 0 0 0 0 0 0 0 0 0 0 0 0 0 0 0 0 0 0 0 0 0 0 0 0 0 0 0 0 0 0 0 0 0 0 0 0 0 0 0 0 0 0 0 0 0 0 0 0 0 0 0 0 0 0 0 0 0 0 0 0 0 0 0 0 0 0 0 0 0 0 0 0 0 0 0 0 0 0 0 0 0 0 0 0 0 0 0 0 0 0 0 0 0 0 0 0 0 0 0 0 0 0 0 0 0 0 0 0 0 0 0 0 0 0 0 0 0 0 0 0 0 0 0 0 0 0 0 0 0 0 0 0 0 0 0 0 0 0 0 0 0 0 0 0 0 0 0 0 0 0 0 0 0 0 0 0 0 0 0 0 0 0 0 0 0 0 0 0 0 0 0 0 0 0 0 0 0 0 0 0 0 0 0 0 0 0 0 0 0 0 0 0 0 0 0 0 0 0 0 0 0 0 0 0 0 0 0 0 0 0 0 0 0 0 0 0 0 0 0 0 0 0 0 0 0 0 0 0 0 0 0 0 0 0 0 0 0 0 0 0 0 0 0 0 0 0 0 0 0 0 0 0 0 0 0 0 0 0 0 0 0 0 0 0 0 0 0 0 0 0 0 0 0 0 0 0 0 0 0 0 0 0 0 0 0 0 0 0 0 0 0 0 0 0 0 0 0 0 0 0 0 0 0 0 0 0 0 0 0 0 0 0 0 0 0 0 0 0 0 0 0 0 0 0 0 0 0 0 0 0 0 0 0 0 0 0 0 0 0 0 0 0 0 0 0 0 0 0 0 0 0 0 0 0 0 0 0 0 0 0 0 0 0 0 0 0 0 0 0 0 0 0 0 0 0 0 0 0 0 0 0 0 0 0 0 0 0 0 0 0 0 0 0 0 0 0 0 0 0 0 0 0 0 0 0 0 0 0 0 0 0 0 0 0 0 0 0 0 0 0 0 0 0 0 0 0 0 0 0 0 0 0 0 0 0 0 0 0 0 0 0 0 0 0 0 0 0 0 0 0 0 0 0 0 0 0 0 0 0 0 0 0 0 0 0 0 0 0 0 0 0 0 0 0 0 0 0 0 0 0 0 0 0 0 0 0 0 0 0 0 0 0 0 0 0 0 0 0 0 0 0 0 0 0 0 0 0 0 0 0 0 0 0 0 0 0 0 0 0 0 0 0 0 0 0 0 0 0 0 0 0 0 0 0 0 0 0 0 0 0 0 0 0 0 0 0 0 0 0 0 0 0 0 0 0 0 0 0 0 0 0 0 0 0 0 0 0 0 0 0 0 0 0 0 0 0 0 0 0 0 0 0 0 0 0 0 0 0 0 0 0 0 0 0 0 0 0 0 0 0 0 0 0 0 0 0 0 0 0 0 0 0 0 0
0 0 0 0 0 0 0 0 0 0 0 0 0 0 0 0 0 0 0 0 0 0 0 0 0 0 0 0 0 0 0 0 0 0 0 0 0 0 0 0 0 0 0 0 0 0 0 0 0 0 0 0 0 0 0 0 0 0 0 0 0 0 0 0 0 0 0 0 0 0 0 0 0 0 0 0 0 0 0 0 0 0 0 0 0 0 0 0 0 0 0 0 0 0 0 0 0 0 0 0 0 0 0 0 0 0 0 0 0 0 0 0 0 0 0 0 0 0 0 0 0 0 0 0 0 0 0 0 0 0 0 0 0 0 0 0 0 0 0 0 0 0 0 0 0 0 0 0 0 0 0 0 0 0 0 0 0 0 0 0 0 0 0 0 0 0 0 0 0 0 0 0 0 0 0 0 0 0 0 0 0 0 0 0 0 0 0 0 0 0 0 0 0 0 0 0 0 0 0 0 0 0 0 0 0 0 0 0 0 0 0 0 0 0 0 0 0 0 0 0 0 0 0 0 0 0 0 0 0 0 0 0 0 0 0 0 0 0 0 0 0 0 0 0 0 0 0 0 0 0 0 0 0 0 0 0 0 0 0 0 0 0 0 0 0 0 0 0 0 0 0 0 0 0 0 0 0 0 0 0 0 0 0 0 0 0 0 0 0 0 0 0 0 0 0 0 0 0 0 0 0 0 0 0 0 0 0 0 0 0 0 0 0 0 0 0 0 0 0 0 0 0 0 0 0 0 0 0 0 0 0 0 0 0 0 0 0 0 0 0 0 0 0 0 0 0 0 0 0 0 0 0 0 0 0 0 0 0 0 0 0 0 0 0 0 0 0 0 0 0 0 0 0 0 0 0 0 0 0 0 0 0 0 0 0 0 0 0 0 0 0 0 0 0 0 0 0 0 0 0 0 0 0 0 0 0 0 0 0 0 0 0 0 0 0 0 0 0 0 0 0 0 0 0 0 0 0 0 0 0 0 0 0 0 0 0 0 0 0 0 0 0 0 0 0 0 0 0 0 0 0 0 0 0 0 0 0 0 0 0 0 0 0 0 0 0 0 0 0 0 0 0 0 0 0 0 0 0 0 0 0 0 0 0 0 0 0 0 0 0 0 0 0 0 0 0 0 0 0 0 0 0 0 0 0 0 0 0 0 0 0 0 0 0 0 0 0 0 0 0 0 0 0 0 0 0 0 0 0 0 0 0 0 0 0 0 0 0 0 0 0 0 0 0 0 0 0 0 0 0 0 0 0 0 0 0 0 0 0 0 0 0 0 0 0 0 0 0 0 0 0 0 0 0 0 0 0 0 0 0 0 0 0 0 0 0 0 0 0 0 0 0 0 0 0 0 0 0 0 0 0 0 0 0 0 0 0 0 0 0 0 0 0 0 0 0 0 0 0 0 0 0 0 0 0 0 0 0 0 0 0 0 0 0 0 0 0 0 0 0 0 0 0 0 0 0 0 0 0 0 0 0 0 0 0 0 0 0 0 0 0 0 0 0 0 0 0 0 0 0 0 0 0 0 0 0 0 0 0 0 0 0 0 0 0 0 0 0 0 0 0 0 0 0 0 0 0 0 0 0 0 0 0 0 0 0 0 0 0 0 0 0 0 0 0 0 0 0 0 0
0 0 0 0 0 0 0 0 0 0 0 0 0 0 0 0 0 0 0 0 0 0 0 0 0 0 0 0 0 0 0 0 0 0 0 0 0 0 0 0 0 0 0 0 0 0 0 0 0 0 0 0 0 0 0 0 0 0 0 0 0 0 0 0 0 0 0 0 0 0 0 0 0 0 0 0 0 0 0 0 0 0 0 0 0 0 0 0 0 0 0 0 0 0 0 0 0 0 0 0 0 0 0 0 0 0 0 0 0 0 0 0 0 0 0 0 0 0 0 0 0 0 0 0 0 0 0 0 0 0 0 0 0 0 0 0 0 0 0 0 0 0 0 0 0 0 0 0 0 0 0 0 0 0 0 0 0 0 0 0 0 0 0 0 0 0 0 0 0 0 0 0 0 0 0 0 0 0 0 0 0 0 0 0 0 0 0 0 0 0 0 0 0 0 0 0 0 0 0 0 0 0 0 0 0 0 0 0 0 0 0 0 0 0 0 0 0 0 0 0 0 0 0 0 0 0 0 0 0 0 0 0 0 0 0 0 0 0 0 0 0 0 0 0 0 0 0 0 0 0 0 0 0 0 0 0 0 0 0 0 0 0 0 0 0 0 0 0 0 0 0 0 0 0 0 0 0 0 0 0 0 0 0 0 0 0 0 0 0 0 0 0 0 0 0 0 0 0 0 0 0 0 0 0 0 0 0 0 0 0 0 0 0 0 0 0 0 0 0 0 0 0 0 0 0 0 0 0 0 0 0 0 0 0 0 0 0 0 0 0 0 0 0 0 0 0 0 0 0 0 0 0 0 0 0 0 0 0 0 0 0 0 0 0 0 0 0 0 0 0 0 0 0 0 0 0 0 0 0 0 0 0 0 0 0 0 0 0 0 0 0 0 0 0 0 0 0 0 0 0 0 0 0 0 0 0 0 0 0 0 0 0 0 0 0 0 0 0 0 0 0 0 0 0 0 0 0 0 0 0 0 0 0 0 0 0 0 0 0 0 0 0 0 0 0 0 0 0 0 0 0 0 0 0 0 0 0 0 0 0 0 0 0 0 0 0 0 0 0 0 0 0 0 0 0 0 0 0 0 0 0 0 0 0 0 0 0 0 0 0 0 0 0 0 0 0 0 0 0 0 0 0 0 0 0 0 0 0 0 0 0 0 0 0 0 0 0 0 0 0 0 0 0 0 0 0 0 0 0 0 0 0 0 0 0 0 0 0 0 0 0 0 0 0 0 0 0 0 0 0 0 0 0 0 0 0 0 0 0 0 0 0 0 0 0 0 0 0 0 0 0 0 0 0 0 0 0 0 0 0 0 0 0 0 0 0 0 0 0 0 0 0 0 0 0 0 0 0 0 0 0 0 0 0 0 0 0 0 0 0 0 0 0 0 0 0 0 0 0 0 0 0 0 0 0 0 0 0 0 0 0 0 0 0 0 0 0 0 0 0 0 0 0 0 0 0 0 0 0 0 0 0 0 0 0 0 0 0 0 0 0 0 0 0 0 0 0 0 0 0 0 0 0 0 0 0 0 0 0 0 0 0 0 0 0 0 0 0 0 0 0 0 0 0 0 0 0 0 0 0 0 0 0 0 0 0 0 0 0 0 0 0 0 0 0 0 0 0 0 0
0 0 0 0 0 0 0 0 0 0 0 0 0 0 0 0 0 0 0 0 0 0 0 0 0 0 0 0 0 0 0 0 0 0 0 0 0 0 0 0 0 0 0 0 0 0 0 0 0 0 0 0 0 0 0 0 0 0 0 0 0 0 0 0 0 0 0 0 0 0 0 0 0 0 0 0 0 0 0 0 0 0 0 0 0 0 0 0 0 0 0 0 0 0 0 0 0 0 0 0 0 0 0 0 0 0 0 0 0 0 0 0 0 0 0 0 0 0 0 0 0 0 0 0 0 0 0 0 0 0 0 0 0 0 0 0 0 0 0 0 0 0 0 0 0 0 0 0 0 0 0 0 0 0 0 0 0 0 0 0 0 0 0 0 0 0 0 0 0 0 0 0 0 0 0 0 0 0 0 0 0 0 0 0 0 0 0 0 0 0 0 0 0 0 0 0 0 0 0 0 0 0 0 0 0 0 0 0 0 0 0 0 0 0 0 0 0 0 0 0 0 0 0 0 0 0 0 0 0 0 0 0 0 0 0 0 0 0 0 0 0 0 0 0 0 0 0 0 0 0 0 0 0 0 0 0 0 0 0 0 0 0 0 0 0 0 0 0 0 0 0 0 0 0 0 0 0 0 0 0 0 0 0 0 0 0 0 0 0 0 0 0 0 0 0 0 0 0 0 0 0 0 0 0 0 0 0 0 0 0 0 0 0 0 0 0 0 0 0 0 0 0 0 0 0 0 0 0 0 0 0 0 0 0 0 0 0 0 0 0 0 0 0 0 0 0 0 0 0 0 0 0 0 0 0 0 0 0 0 0 0 0 0 0 0 0 0 0 0 0 0 0 0 0 0 0 0 0 0 0 0 0 0 0 0 0 0 0 0 0 0 0 0 0 0 0 0 0 0 0 0 0 0 0 0 0 0 0 0 0 0 0 0 0 0 0 0 0 0 0 0 0 0 0 0 0 0 0 0 0 0 0 0 0 0 0 0 0 0 0 0 0 0 0 0 0 0 0 0 0 0 0 0 0 0 0 0 0 0 0 0 0 0 0 0 0 0 0 0 0 0 0 0 0 0 0 0 0 0 0 0 0 0 0 0 0 0 0 0 0 0 0 0 0 0 0 0 0 0 0 0 0 0 0 0 0 0 0 0 0 0 0 0 0 0 0 0 0 0 0 0 0 0 0 0 0 0 0 0 0 0 0 0 0 0 0 0 0 0 0 0 0 0 0 0 0 0 0 0 0 0 0 0 0 0 0 0 0 0 0 0 0 0 0 0 0 0 0 0 0 0 0 0 0 0 0 0 0 0 0 0 0 0 0 0 0 0 0 0 0 0 0 0 0 0 0 0 0 0 0 0 0 0 0 0 0 0 0 0 0 0 0 0 0 0 0 0 0 0 0 0 0 0 0 0 0 0 0 0 0 0 0 0 0 0 0 0 0 0 0 0 0 0 0 0 0 0 0 0 0 0 0 0 0 0 0 0 0 0 0 0 0 0 0 0 0 0 0 0 0 0 0 0 0 0 0 0 0 0 0 0 0 0 0 0 0 0 0 0 0 0 0 0 0 0 0 0 0 0 0 0 0 0 0 0 0 0 0 0 0 0 0 0 0 0 0 0 0 0 0
0 0 0 0 0 0 0 0 0 0 0 0 0 0 0 0 0 0 0 0 0 0 0 0 0 0 0 0 0 0 0 0 0 0 0 0 0 0 0 0 0 0 0 0 0 0 0 0 0 0 0 0 0 0 0 0 0 0 0 0 0 0 0 0 0 0 0 0 0 0 0 0 0 0 0 0 0 0 0 0 0 0 0 0 0 0 0 0 0 0 0 0 0 0 0 0 0 0 0 0 0 0 0 0 0 0 0 0 0 0 0 0 0 0 0 0 0 0 0 0 0 0 0 0 0 0 0 0 0 0 0 0 0 0 0 0 0 0 0 0 0 0 0 0 0 0 0 0 0 0 0 0 0 0 0 0 0 0 0 0 0 0 0 0 0 0 0 0 0 0 0 0 0 0 0 0 0 0 0 0 0 0 0 0 0 0 0 0 0 0 0 0 0 0 0 0 0 0 0 0 0 0 0 0 0 0 0 0 0 0 0 0 0 0 0 0 0 0 0 0 0 0 0 0 0 0 0 0 0 0 0 0 0 0 0 0 0 0 0 0 0 0 0 0 0 0 0 0 0 0 0 0 0 0 0 0 0 0 0 0 0 0 0 0 0 0 0 0 0 0 0 0 0 0 0 0 0 0 0 0 0 0 0 0 0 0 0 0 0 0 0 0 0 0 0 0 0 0 0 0 0 0 0 0 0 0 0 0 0 0 0 0 0 0 0 0 0 0 0 0 0 0 0 0 0 0 0 0 0 0 0 0 0 0 0 0 0 0 0 0 0 0 0 0 0 0 0 0 0 0 0 0 0 0 0 0 0 0 0 0 0 0 0 0 0 0 0 0 0 0 0 0 0 0 0 0 0 0 0 0 0 0 0 0 0 0 0 0 0 0 0 0 0 0 0 0 0 0 0 0 0 0 0 0 0 0 0 0 0 0 0 0 0 0 0 0 0 0 0 0 0 0 0 0 0 0 0 0 0 0 0 0 0 0 0 0 0 0 0 0 0 0 0 0 0 0 0 0 0 0 0 0 0 0 0 0 0 0 0 0 0 0 0 0 0 0 0 0 0 0 0 0 0 0 0 0 0 0 0 0 0 0 0 0 0 0 0 0 0 0 0 0 0 0 0 0 0 0 0 0 0 0 0 0 0 0 0 0 0 0 0 0 0 0 0 0 0 0 0 0 0 0 0 0 0 0 0 0 0 0 0 0 0 0 0 0 0 0 0 0 0 0 0 0 0 0 0 0 0 0 0 0 0 0 0 0 0 0 0 0 0 0 0 0 0 0 0 0 0 0 0 0 0 0 0 0 0 0 0 0 0 0 0 0 0 0 0 0 0 0 0 0 0 0 0 0 0 0 0 0 0 0 0 0 0 0 0 0 0 0 0 0 0 0 0 0 0 0 0 0 0 0 0 0 0 0 0 0 0 0 0 0 0 0 0 0 0 0 0 0 0 0 0 0 0 0 0 0 0 0 0 0 0 0 0 0 0 0 0 0 0 0 0 0 0 0 0 0 0 0 0 0 0 0 0 0 0 0 0 0 0 0 0 0 0 0 0 0 0 0 0 0 0 0 0 0 0 0 0 0 0 0 0 0 0 0 0 0 0 0 0 0 0 0 0 0 0 0 0 0
0 0 0 0 0 0 0 0 0 0 0 0 0 0 0 0 0 0 0 0 0 0 0 0 0 0 0 0 0 0 0 0 0 0 0 0 0 0 0 0 0 0 0 0 0 0 0 0 0 0 0 0 0 0 0 0 0 0 0 0 0 0 0 0 0 0 0 0 0 0 0 0 0 0 0 0 0 0 0 0 0 0 0 0 0 0 0 0 0 0 0 0 0 0 0 0 0 0 0 0 0 0 0 0 0 0 0 0 0 0 0 0 0 0 0 0 0 0 0 0 0 0 0 0 0 0 0 0 0 0 0 0 0 0 0 0 0 0 0 0 0 0 0 0 0 0 0 0 0 0 0 0 0 0 0 0 0 0 0 0 0 0 0 0 0 0 0 0 0 0 0 0 0 0 0 0 0 0 0 0 0 0 0 0 0 0 0 0 0 0 0 0 0 0 0 0 0 0 0 0 0 0 0 0 0 0 0 0 0 0 0 0 0 0 0 0 0 0 0 0 0 0 0 0 0 0 0 0 0 0 0 0 0 0 0 0 0 0 0 0 0 0 0 0 0 0 0 0 0 0 0 0 0 0 0 0 0 0 0 0 0 0 0 0 0 0 0 0 0 0 0 0 0 0 0 0 0 0 0 0 0 0 0 0 0 0 0 0 0 0 0 0 0 0 0 0 0 0 0 0 0 0 0 0 0 0 0 0 0 0 0 0 0 0 0 0 0 0 0 0 0 0 0 0 0 0 0 0 0 0 0 0 0 0 0 0 0 0 0 0 0 0 0 0 0 0 0 0 0 0 0 0 0 0 0 0 0 0 0 0 0 0 0 0 0 0 0 0 0 0 0 0 0 0 0 0 0 0 0 0 0 0 0 0 0 0 0 0 0 0 0 0 0 0 0 0 0 0 0 0 0 0 0 0 0 0 0 0 0 0 0 0 0 0 0 0 0 0 0 0 0 0 0 0 0 0 0 0 0 0 0 0 0 0 0 0 0 0 0 0 0 0 0 0 0 0 0 0 0 0 0 0 0 0 0 0 0 0 0 0 0 0 0 0 0 0 0 0 0 0 0 0 0 0 0 0 0 0 0 0 0 0 0 0 0 0 0 0 0 0 0 0 0 0 0 0 0 0 0 0 0 0 0 0 0 0 0 0 0 0 0 0 0 0 0 0 0 0 0 0 0 0 0 0 0 0 0 0 0 0 0 0 0 0 0 0 0 0 0 0 0 0 0 0 0 0 0 0 0 0 0 0 0 0 0 0 0 0 0 0 0 0 0 0 0 0 0 0 0 0 0 0 0 0 0 0 0 0 0 0 0 0 0 0 0 0 0 0 0 0 0 0 0 0 0 0 0 0 0 0 0 0 0 0 0 0 0 0 0 0 0 0 0 0 0 0 0 0 0 0 0 0 0 0 0 0 0 0 0 0 0 0 0 0 0 0 0 0 0 0 0 0 0 0 0 0 0 0 0 0 0 0 0 0 0 0 0 0 0 0 0 0 0 0 0 0 0 0 0 0 0 0 0 0 0 0 0 0 0 0 0 0 0 0 0 0 0 0 0 0 0 0 0 0 0 0 0 0 0 0 0 0 0 0 0 0 0 0 0 0 0 0 0 0 0 0 0 0 0 0
0 0 0 0 0 0 0 0 0 0 0 0 0 0 0 0 0 0 0 0 0 0 0 0 0 0 0 0 0 0 0 0 0 0 0 0 0 0 0 0 0 0 0 0 0 0 0 0 0 0 0 0 0 0 0 0 0 0 0 0 0 0 0 0 0 0 0 0 0 0 0 0 0 0 0 0 0 0 0 0 0 0 0 0 0 0 0 0 0 0 0 0 0 0 0 0 0 0 0 0 0 0 0 0 0 0 0 0 0 0 0 0 0 0 0 0 0 0 0 0 0 0 0 0 0 0 0 0 0 0 0 0 0 0 0 0 0 0 0 0 0 0 0 0 0 0 0 0 0 0 0 0 0 0 0 0 0 0 0 0 0 0 0 0 0 0 0 0 0 0 0 0 0 0 0 0 0 0 0 0 0 0 0 0 0 0 0 0 0 0 0 0 0 0 0 0 0 0 0 0 0 0 0 0 0 0 0 0 0 0 0 0 0 0 0 0 0 0 0 0 0 0 0 0 0 0 0 0 0 0 0 0 0 0 0 0 0 0 0 0 0 0 0 0 0 0 0 0 0 0 0 0 0 0 0 0 0 0 0 0 0 0 0 0 0 0 0 0 0 0 0 0 0 0 0 0 0 0 0 0 0 0 0 0 0 0 0 0 0 0 0 0 0 0 0 0 0 0 0 0 0 0 0 0 0 0 0 0 0 0 0 0 0 0 0 0 0 0 0 0 0 0 0 0 0 0 0 0 0 0 0 0 0 0 0 0 0 0 0 0 0 0 0 0 0 0 0 0 0 0 0 0 0 0 0 0 0 0 0 0 0 0 0 0 0 0 0 0 0 0 0 0 0 0 0 0 0 0 0 0 0 0 0 0 0 0 0 0 0 0 0 0 0 0 0 0 0 0 0 0 0 0 0 0 0 0 0 0 0 0 0 0 0 0 0 0 0 0 0 0 0 0 0 0 0 0 0 0 0 0 0 0 0 0 0 0 0 0 0 0 0 0 0 0 0 0 0 0 0 0 0 0 0 0 0 0 0 0 0 0 0 0 0 0 0 0 0 0 0 0 0 0 0 0 0 0 0 0 0 0 0 0 0 0 0 0 0 0 0 0 0 0 0 0 0 0 0 0 0 0 0 0 0 0 0 0 0 0 0 0 0 0 0 0 0 0 0 0 0 0 0 0 0 0 0 0 0 0 0 0 0 0 0 0 0 0 0 0 0 0 0 0 0 0 0 0 0 0 0 0 0 0 0 0 0 0 0 0 0 0 0 0 0 0 0 0 0 0 0 0 0 0 0 0 0 0 0 0 0 0 0 0 0 0 0 0 0 0 0 0 0 0 0 0 0 0 0 0 0 0 0 0 0 0 0 0 0 0 0 0 0 0 0 0 0 0 0 0 0 0 0 0 0 0 0 0 0 0 0 0 0 0 0 0 0 0 0 0 0 0 0 0 0 0 0 0 0 0 0 0 0 0 0 0 0 0 0 0 0 0 0 0 0 0 0 0 0 0 0 0 0 0 0 0 0 0 0 0 0 0 0 0 0 0 0 0 0 0 0 0 0 0 0 0 0 0 0 0 0 0 0 0 0 0 0 0 0 0 0 0 0 0 0 0 0 0 0 0 0 0
0 0 0 0 0 0 0 0 0 0 0 0 0 0 0 0 0 0 0 0 0 0 0 0 0 0 0 0 0 0 0 0 0 0 0 0 0 0 0 0 0 0 0 0 0 0 0 0 0 0 0 0 0 0 0 0 0 0 0 0 0 0 0 0 0 0 0 0 0 0 0 0 0 0 0 0 0 0 0 0 0 0 0 0 0 0 0 0 0 0 0 0 0 0 0 0 0 0 0 0 0 0 0 0 0 0 0 0 0 0 0 0 0 0 0 0 0 0 0 0 0 0 0 0 0 0 0 0 0 0 0 0 0 0 0 0 0 0 0 0 0 0 0 0 0 0 0 0 0 0 0 0 0 0 0 0 0 0 0 0 0 0 0 0 0 0 0 0 0 0 0 0 0 0 0 0 0 0 0 0 0 0 0 0 0 0 0 0 0 0 0 0 0 0 0 0 0 0 0 0 0 0 0 0 0 0 0 0 0 0 0 0 0 0 0 0 0 0 0 0 0 0 0 0 0 0 0 0 0 0 0 0 0 0 0 0 0 0 0 0 0 0 0 0 0 0 0 0 0 0 0 0 0 0 0 0 0 0 0 0 0 0 0 0 0 0 0 0 0 0 0 0 0 0 0 0 0 0 0 0 0 0 0 0 0 0 0 0 0 0 0 0 0 0 0 0 0 0 0 0 0 0 0 0 0 0 0 0 0 0 0 0 0 0 0 0 0 0 0 0 0 0 0 0 0 0 0 0 0 0 0 0 0 0 0 0 0 0 0 0 0 0 0 0 0 0 0 0 0 0 0 0 0 0 0 0 0 0 0 0 0 0 0 0 0 0 0 0 0 0 0 0 0 0 0 0 0 0 0 0 0 0 0 0 0 0 0 0 0 0 0 0 0 0 0 0 0 0 0 0 0 0 0 0 0 0 0 0 0 0 0 0 0 0 0 0 0 0 0 0 0 0 0 0 0 0 0 0 0 0 0 0 0 0 0 0 0 0 0 0 0 0 0 0 0 0 0 0 0 0 0 0 0 0 0 0 0 0 0 0 0 0 0 0 0 0 0 0 0 0 0 0 0 0 0 0 0 0 0 0 0 0 0 0 0 0 0 0 0 0 0 0 0 0 0 0 0 0 0 0 0 0 0 0 0 0 0 0 0 0 0 0 0 0 0 0 0 0 0 0 0 0 0 0 0 0 0 0 0 0 0 0 0 0 0 0 0 0 0 0 0 0 0 0 0 0 0 0 0 0 0 0 0 0 0 0 0 0 0 0 0 0 0 0 0 0 0 0 0 0 0 0 0 0 0 0 0 0 0 0 0 0 0 0 0 0 0 0 0 0 0 0 0 0 0 0 0 0 0 0 0 0 0 0 0 0 0 0 0 0 0 0 0 0 0 0 0 0 0 0 0 0 0 0 0 0 0 0 0 0 0 0 0 0 0 0 0 0 0 0 0 0 0 0 0 0 0 0 0 0 0 0 0 0 0 0 0 0 0 0 0 0 0 0 0 0 0 0 0 0 0 0 0 0 0 0 0 0 0 0 0 0 0 0 0 0 0 0 0 0 0 0 0 0 0 0 0 0 0 0 0 0 0 0 0 0 0 0 0 0 0 0 0 0 0 0 0 0 0 0
0 0 0 0 0 0 0 0 0 0 0 0 0 0 0 0 0 0 0 0 0 0 0 0 0 0 0 0 0 0 0 0 0 0 0 0 0 0 0 0 0 0 0 0 0 0 0 0 0 0 0 0 0 0 0 0 0 0 0 0 0 0 0 0 0 0 0 0 0 0 0 0 0 0 0 0 0 0 0 0 0 0 0 0 0 0 0 0 0 0 0 0 0 0 0 0 0 0 0 0 0 0 0 0 0 0 0 0 0 0 0 0 0 0 0 0 0 0 0 0 0 0 0 0 0 0 0 0 0 0 0 0 0 0 0 0 0 0 0 0 0 0 0 0 0 0 0 0 0 0 0 0 0 0 0 0 0 0 0 0 0 0 0 0 0 0 0 0 0 0 0 0 0 0 0 0 0 0 0 0 0 0 0 0 0 0 0 0 0 0 0 0 0 0 0 0 0 0 0 0 0 0 0 0 0 0 0 0 0 0 0 0 0 0 0 0 0 0 0 0 0 0 0 0 0 0 0 0 0 0 0 0 0 0 0 0 0 0 0 0 0 0 0 0 0 0 0 0 0 0 0 0 0 0 0 0 0 0 0 0 0 0 0 0 0 0 0 0 0 0 0 0 0 0 0 0 0 0 0 0 0 0 0 0 0 0 0 0 0 0 0 0 0 0 0 0 0 0 0 0 0 0 0 0 0 0 0 0 0 0 0 0 0 0 0 0 0 0 0 0 0 0 0 0 0 0 0 0 0 0 0 0 0 0 0 0 0 0 0 0 0 0 0 0 0 0 0 0 0 0 0 0 0 0 0 0 0 0 0 0 0 0 0 0 0 0 0 0 0 0 0 0 0 0 0 0 0 0 0 0 0 0 0 0 0 0 0 0 0 0 0 0 0 0 0 0 0 0 0 0 0 0 0 0 0 0 0 0 0 0 0 0 0 0 0 0 0 0 0 0 0 0 0 0 0 0 0 0 0 0 0 0 0 0 0 0 0 0 0 0 0 0 0 0 0 0 0 0 0 0 0 0 0 0 0 0 0 0 0 0 0 0 0 0 0 0 0 0 0 0 0 0 0 0 0 0 0 0 0 0 0 0 0 0 0 0 0 0 0 0 0 0 0 0 0 0 0 0 0 0 0 0 0 0 0 0 0 0 0 0 0 0 0 0 0 0 0 0 0 0 0 0 0 0 0 0 0 0 0 0 0 0 0 0 0 0 0 0 0 0 0 0 0 0 0 0 0 0 0 0 0 0 0 0 0 0 0 0 0 0 0 0 0 0 0 0 0 0 0 0 0 0 0 0 0 0 0 0 0 0 0 0 0 0 0 0 0 0 0 0 0 0 0 0 0 0 0 0 0 0 0 0 0 0 0 0 0 0 0 0 0 0 0 0 0 0 0 0 0 0 0 0 0 0 0 0 0 0 0 0 0 0 0 0 0 0 0 0 0 0 0 0 0 0 0 0 0 0 0 0 0 0 0 0 0 0 0 0 0 0 0 0 0 0 0 0 0 0 0 0 0 0 0 0 0 0 0 0 0 0 0 0 0 0 0 0 0 0 0 0 0 0 0 0 0 0 0 0 0 0 0 0 0 0 0 0 0 0 0 0 0 0 0 0 0 0 0 0 0 0
0 0 0 0 0 0 0 0 0 0 0 0 0 0 0 0 0 0 0 0 0 0 0 0 0 0 0 0 0 0 0 0 0 0 0 0 0 0 0 0 0 0 0 0 0 0 0 0 0 0 0 0 0 0 0 0 0 0 0 0 0 0 0 0 0 0 0 0 0 0 0 0 0 0 0 0 0 0 0 0 0 0 0 0 0 0 0 0 0 0 0 0 0 0 0 0 0 0 0 0 0 0 0 0 0 0 0 0 0 0 0 0 0 0 0 0 0 0 0 0 0 0 0 0 0 0 0 0 0 0 0 0 0 0 0 0 0 0 0 0 0 0 0 0 0 0 0 0 0 0 0 0 0 0 0 0 0 0 0 0 0 0 0 0 0 0 0 0 0 0 0 0 0 0 0 0 0 0 0 0 0 0 0 0 0 0 0 0 0 0 0 0 0 0 0 0 0 0 0 0 0 0 0 0 0 0 0 0 0 0 0 0 0 0 0 0 0 0 0 0 0 0 0 0 0 0 0 0 0 0 0 0 0 0 0 0 0 0 0 0 0 0 0 0 0 0 0 0 0 0 0 0 0 0 0 0 0 0 0 0 0 0 0 0 0 0 0 0 0 0 0 0 0 0 0 0 0 0 0 0 0 0 0 0 0 0 0 0 0 0 0 0 0 0 0 0 0 0 0 0 0 0 0 0 0 0 0 0 0 0 0 0 0 0 0 0 0 0 0 0 0 0 0 0 0 0 0 0 0 0 0 0 0 0 0 0 0 0 0 0 0 0 0 0 0 0 0 0 0 0 0 0 0 0 0 0 0 0 0 0 0 0 0 0 0 0 0 0 0 0 0 0 0 0 0 0 0 0 0 0 0 0 0 0 0 0 0 0 0 0 0 0 0 0 0 0 0 0 0 0 0 0 0 0 0 0 0 0 0 0 0 0 0 0 0 0 0 0 0 0 0 0 0 0 0 0 0 0 0 0 0 0 0 0 0 0 0 0 0 0 0 0 0 0 0 0 0 0 0 0 0 0 0 0 0 0 0 0 0 0 0 0 0 0 0 0 0 0 0 0 0 0 0 0 0 0 0 0 0 0 0 0 0 0 0 0 0 0 0 0 0 0 0 0 0 0 0 0 0 0 0 0 0 0 0 0 0 0 0 0 0 0 0 0 0 0 0 0 0 0 0 0 0 0 0 0 0 0 0 0 0 0 0 0 0 0 0 0 0 0 0 0 0 0 0 0 0 0 0 0 0 0 0 0 0 0 0 0 0 0 0 0 0 0 0 0 0 0 0 0 0 0 0 0 0 0 0 0 0 0 0 0 0 0 0 0 0 0 0 0 0 0 0 0 0 0 0 0 0 0 0 0 0 0 0 0 0 0 0 0 0 0 0 0 0 0 0 0 0 0 0 0 0 0 0 0 0 0 0 0 0 0 0 0 0 0 0 0 0 0 0 0 0 0 0 0 0 0 0 0 0 0 0 0 0 0 0 0 0 0 0 0 0 0 0 0 0 0 0 0 0 0 0 0 0 0 0 0 0 0 0 0 0 0 0 0 0 0 0 0 0 0 0 0 0 0 0 0 0 0 0 0 0 0 0 0 0 0 0 0 0 0 0 0 0 0 0 0 0 0
0 0 0 0 0 0 0 0 0 0 0 0 0 0 0 0 0 0 0 0 0 0 0 0 0 0 0 0 0 0 0 0 0 0 0 0 0 0 0 0 0 0 0 0 0 0 0 0 0 0 0 0 0 0 0 0 0 0 0 0 0 0 0 0 0 0 0 0 0 0 0 0 0 0 0 0 0 0 0 0 0 0 0 0 0 0 0 0 0 0 0 0 0 0 0 0 0 0 0 0 0 0 0 0 0 0 0 0 0 0 0 0 0 0 0 0 0 0 0 0 0 0 0 0 0 0 0 0 0 0 0 0 0 0 0 0 0 0 0 0 0 0 0 0 0 0 0 0 0 0 0 0 0 0 0 0 0 0 0 0 0 0 0 0 0 0 0 0 0 0 0 0 0 0 0 0 0 0 0 0 0 0 0 0 0 0 0 0 0 0 0 0 0 0 0 0 0 0 0 0 0 0 0 0 0 0 0 0 0 0 0 0 0 0 0 0 0 0 0 0 0 0 0 0 0 0 0 0 0 0 0 0 0 0 0 0 0 0 0 0 0 0 0 0 0 0 0 0 0 0 0 0 0 0 0 0 0 0 0 0 0 0 0 0 0 0 0 0 0 0 0 0 0 0 0 0 0 0 0 0 0 0 0 0 0 0 0 0 0 0 0 0 0 0 0 0 0 0 0 0 0 0 0 0 0 0 0 0 0 0 0 0 0 0 0 0 0 0 0 0 0 0 0 0 0 0 0 0 0 0 0 0 0 0 0 0 0 0 0 0 0 0 0 0 0 0 0 0 0 0 0 0 0 0 0 0 0 0 0 0 0 0 0 0 0 0 0 0 0 0 0 0 0 0 0 0 0 0 0 0 0 0 0 0 0 0 0 0 0 0 0 0 0 0 0 0 0 0 0 0 0 0 0 0 0 0 0 0 0 0 0 0 0 0 0 0 0 0 0 0 0 0 0 0 0 0 0 0 0 0 0 0 0 0 0 0 0 0 0 0 0 0 0 0 0 0 0 0 0 0 0 0 0 0 0 0 0 0 0 0 0 0 0 0 0 0 0 0 0 0 0 0 0 0 0 0 0 0 0 0 0 0 0 0 0 0 0 0 0 0 0 0 0 0 0 0 0 0 0 0 0 0 0 0 0 0 0 0 0 0 0 0 0 0 0 0 0 0 0 0 0 0 0 0 0 0 0 0 0 0 0 0 0 0 0 0 0 0 0 0 0 0 0 0 0 0 0 0 0 0 0 0 0 0 0 0 0 0 0 0 0 0 0 0 0 0 0 0 0 0 0 0 0 0 0 0 0 0 0 0 0 0 0 0 0 0 0 0 0 0 0 0 0 0 0 0 0 0 0 0 0 0 0 0 0 0 0 0 0 0 0 0 0 0 0 0 0 0 0 0 0 0 0 0 0 0 0 0 0 0 0 0 0 0 0 0 0 0 0 0 0 0 0 0 0 0 0 0 0 0 0 0 0 0 0 0 0 0 0 0 0 0 0 0 0 0 0 0 0 0 0 0 0 0 0 0 0 0 0 0 0 0 0 0 0 0 0 0 0 0 0 0 0 0 0 0 0 0 0 0 0 0 0 0 0 0 0 0 0 0 0 0 0 0 0 0 0 0 0 0
0 0 0 0 0 0 0 0 0 0 0 0 0 0 0 0 0 0 0 0 0 0 0 0 0 0 0 0 0 0 0 0 0 0 0 0 0 0 0 0 0 0 0 0 0 0 0 0 0 0 0 0 0 0 0 0 0 0 0 0 0 0 0 0 0 0 0 0 0 0 0 0 0 0 0 0 0 0 0 0 0 0 0 0 0 0 0 0 0 0 0 0 0 0 0 0 0 0 0 0 0 0 0 0 0 0 0 0 0 0 0 0 0 0 0 0 0 0 0 0 0 0 0 0 0 0 0 0 0 0 0 0 0 0 0 0 0 0 0 0 0 0 0 0 0 0 0 0 0 0 0 0 0 0 0 0 0 0 0 0 0 0 0 0 0 0 0 0 0 0 0 0 0 0 0 0 0 0 0 0 0 0 0 0 0 0 0 0 0 0 0 0 0 0 0 0 0 0 0 0 0 0 0 0 0 0 0 0 0 0 0 0 0 0 0 0 0 0 0 0 0 0 0 0 0 0 0 0 0 0 0 0 0 0 0 0 0 0 0 0 0 0 0 0 0 0 0 0 0 0 0 0 0 0 0 0 0 0 0 0 0 0 0 0 0 0 0 0 0 0 0 0 0 0 0 0 0 0 0 0 0 0 0 0 0 0 0 0 0 0 0 0 0 0 0 0 0 0 0 0 0 0 0 0 0 0 0 0 0 0 0 0 0 0 0 0 0 0 0 0 0 0 0 0 0 0 0 0 0 0 0 0 0 0 0 0 0 0 0 0 0 0 0 0 0 0 0 0 0 0 0 0 0 0 0 0 0 0 0 0 0 0 0 0 0 0 0 0 0 0 0 0 0 0 0 0 0 0 0 0 0 0 0 0 0 0 0 0 0 0 0 0 0 0 0 0 0 0 0 0 0 0 0 0 0 0 0 0 0 0 0 0 0 0 0 0 0 0 0 0 0 0 0 0 0 0 0 0 0 0 0 0 0 0 0 0 0 0 0 0 0 0 0 0 0 0 0 0 0 0 0 0 0 0 0 0 0 0 0 0 0 0 0 0 0 0 0 0 0 0 0 0 0 0 0 0 0 0 0 0 0 0 0 0 0 0 0 0 0 0 0 0 0 0 0 0 0 0 0 0 0 0 0 0 0 0 0 0 0 0 0 0 0 0 0 0 0 0 0 0 0 0 0 0 0 0 0 0 0 0 0 0 0 0 0 0 0 0 0 0 0 0 0 0 0 0 0 0 0 0 0 0 0 0 0 0 0 0 0 0 0 0 0 0 0 0 0 0 0 0 0 0 0 0 0 0 0 0 0 0 0 0 0 0 0 0 0 0 0 0 0 0 0 0 0 0 0 0 0 0 0 0 0 0 0 0 0 0 0 0 0 0 0 0 0 0 0 0 0 0 0 0 0 0 0 0 0 0 0 0 0 0 0 0 0 0 0 0 0 0 0 0 0 0 0 0 0 0 0 0 0 0 0 0 0 0 0 0 0 0 0 0 0 0 0 0 0 0 0 0 0 0 0 0 0 0 0 0 0 0 0 0 0 0 0 0 0 0 0 0 0 0 0 0 0 0 0 0 0 0 0 0 0 0 0 0 0 0 0 0 0 0 0 0 0 0 0 0 0 0
0 0 0 0 0 0 0 0 0 0 0 0 0 0 0 0 0 0 0 0 0 0 0 0 0 0 0 0 0 0 0 0 0 0 0 0 0 0 0 0 0 0 0 0 0 0 0 0 0 0 0 0 0 0 0 0 0 0 0 0 0 0 0 0 0 0 0 0 0 0 0 0 0 0 0 0 0 0 0 0 0 0 0 0 0 0 0 0 0 0 0 0 0 0 0 0 0 0 0 0 0 0 0 0 0 0 0 0 0 0 0 0 0 0 0 0 0 0 0 0 0 0 0 0 0 0 0 0 0 0 0 0 0 0 0 0 0 0 0 0 0 0 0 0 0 0 0 0 0 0 0 0 0 0 0 0 0 0 0 0 0 0 0 0 0 0 0 0 0 0 0 0 0 0 0 0 0 0 0 0 0 0 0 0 0 0 0 0 0 0 0 0 0 0 0 0 0 0 0 0 0 0 0 0 0 0 0 0 0 0 0 0 0 0 0 0 0 0 0 0 0 0 0 0 0 0 0 0 0 0 0 0 0 0 0 0 0 0 0 0 0 0 0 0 0 0 0 0 0 0 0 0 0 0 0 0 0 0 0 0 0 0 0 0 0 0 0 0 0 0 0 0 0 0 0 0 0 0 0 0 0 0 0 0 0 0 0 0 0 0 0 0 0 0 0 0 0 0 0 0 0 0 0 0 0 0 0 0 0 0 0 0 0 0 0 0 0 0 0 0 0 0 0 0 0 0 0 0 0 0 0 0 0 0 0 0 0 0 0 0 0 0 0 0 0 0 0 0 0 0 0 0 0 0 0 0 0 0 0 0 0 0 0 0 0 0 0 0 0 0 0 0 0 0 0 0 0 0 0 0 0 0 0 0 0 0 0 0 0 0 0 0 0 0 0 0 0 0 0 0 0 0 0 0 0 0 0 0 0 0 0 0 0 0 0 0 0 0 0 0 0 0 0 0 0 0 0 0 0 0 0 0 0 0 0 0 0 0 0 0 0 0 0 0 0 0 0 0 0 0 0 0 0 0 0 0 0 0 0 0 0 0 0 0 0 0 0 0 0 0 0 0 0 0 0 0 0 0 0 0 0 0 0 0 0 0 0 0 0 0 0 0 0 0 0 0 0 0 0 0 0 0 0 0 0 0 0 0 0 0 0 0 0 0 0 0 0 0 0 0 0 0 0 0 0 0 0 0 0 0 0 0 0 0 0 0 0 0 0 0 0 0 0 0 0 0 0 0 0 0 0 0 0 0 0 0 0 0 0 0 0 0 0 0 0 0 0 0 0 0 0 0 0 0 0 0 0 0 0 0 0 0 0 0 0 0 0 0 0 0 0 0 0 0 0 0 0 0 0 0 0 0 0 0 0 0 0 0 0 0 0 0 0 0 0 0 0 0 0 0 0 0 0 0 0 0 0 0 0 0 0 0 0 0 0 0 0 0 0 0 0 0 0 0 0 0 0 0 0 0 0 0 0 0 0 0 0 0 0 0 0 0 0 0 0 0 0 0 0 0 0 0 0 0 0 0 0 0 0 0 0 0 0 0 0 0 0 0 0 0 0 0 0 0 0 0 0 0 0 0 0 0 0 0 0 0 0 0 0 0 0 0 0 0 0 0 0 0 0 0
0 0 0 0 0 0 0 0 0 0 0 0 0 0 0 0 0 0 0 0 0 0 0 0 0 0 0 0 0 0 0 0 0 0 0 0 0 0 0 0 0 0 0 0 0 0 0 0 0 0 0 0 0 0 0 0 0 0 0 0 0 0 0 0 0 0 0 0 0 0 0 0 0 0 0 0 0 0 0 0 0 0 0 0 0 0 0 0 0 0 0 0 0 0 0 0 0 0 0 0 0 0 0 0 0 0 0 0 0 0 0 0 0 0 0 0 0 0 0 0 0 0 0 0 0 0 0 0 0 0 0 0 0 0 0 0 0 0 0 0 0 0 0 0 0 0 0 0 0 0 0 0 0 0 0 0 0 0 0 0 0 0 0 0 0 0 0 0 0 0 0 0 0 0 0 0 0 0 0 0 0 0 0 0 0 0 0 0 0 0 0 0 0 0 0 0 0 0 0 0 0 0 0 0 0 0 0 0 0 0 0 0 0 0 0 0 0 0 0 0 0 0 0 0 0 0 0 0 0 0 0 0 0 0 0 0 0 0 0 0 0 0 0 0 0 0 0 0 0 0 0 0 0 0 0 0 0 0 0 0 0 0 0 0 0 0 0 0 0 0 0 0 0 0 0 0 0 0 0 0 0 0 0 0 0 0 0 0 0 0 0 0 0 0 0 0 0 0 0 0 0 0 0 0 0 0 0 0 0 0 0 0 0 0 0 0 0 0 0 0 0 0 0 0 0 0 0 0 0 0 0 0 0 0 0 0 0 0 0 0 0 0 0 0 0 0 0 0 0 0 0 0 0 0 0 0 0 0 0 0 0 0 0 0 0 0 0 0 0 0 0 0 0 0 0 0 0 0 0 0 0 0 0 0 0 0 0 0 0 0 0 0 0 0 0 0 0 0 0 0 0 0 0 0 0 0 0 0 0 0 0 0 0 0 0 0 0 0 0 0 0 0 0 0 0 0 0 0 0 0 0 0 0 0 0 0 0 0 0 0 0 0 0 0 0 0 0 0 0 0 0 0 0 0 0 0 0 0 0 0 0 0 0 0 0 0 0 0 0 0 0 0 0 0 0 0 0 0 0 0 0 0 0 0 0 0 0 0 0 0 0 0 0 0 0 0 0 0 0 0 0 0 0 0 0 0 0 0 0 0 0 0 0 0 0 0 0 0 0 0 0 0 0 0 0 0 0 0 0 0 0 0 0 0 0 0 0 0 0 0 0 0 0 0 0 0 0 0 0 0 0 0 0 0 0 0 0 0 0 0 0 0 0 0 0 0 0 0 0 0 0 0 0 0 0 0 0 0 0 0 0 0 0 0 0 0 0 0 0 0 0 0 0 0 0 0 0 0 0 0 0 0 0 0 0 0 0 0 0 0 0 0 0 0 0 0 0 0 0 0 0 0 0 0 0 0 0 0 0 0 0 0 0 0 0 0 0 0 0 0 0 0 0 0 0 0 0 0 0 0 0 0 0 0 0 0 0 0 0 0 0 0 0 0 0 0 0 0 0 0 0 0 0 0 0 0 0 0 0 0 0 0 0 0 0 0 0 0 0 0 0 0 0 0 0 0 0 0 0 0 0 0 0 0 0 0 0 0 0 0 0 0 0 0 0 0 0 0 0 0
0 0 0 0 0 0 0 0 0 0 0 0 0 0 0 0 0 0 0 0 0 0 0 0 0 0 0 0 0 0 0 0 0 0 0 0 0 0 0 0 0 0 0 0 0 0 0 0 0 0 0 0 0 0 0 0 0 0 0 0 0 0 0 0 0 0 0 0 0 0 0 0 0 0 0 0 0 0 0 0 0 0 0 0 0 0 0 0 0 0 0 0 0 0 0 0 0 0 0 0 0 0 0 0 0 0 0 0 0 0 0 0 0 0 0 0 0 0 0 0 0 0 0 0 0 0 0 0 0 0 0 0 0 0 0 0 0 0 0 0 0 0 0 0 0 0 0 0 0 0 0 0 0 0 0 0 0 0 0 0 0 0 0 0 0 0 0 0 0 0 0 0 0 0 0 0 0 0 0 0 0 0 0 0 0 0 0 0 0 0 0 0 0 0 0 0 0 0 0 0 0 0 0 0 0 0 0 0 0 0 0 0 0 0 0 0 0 0 0 0 0 0 0 0 0 0 0 0 0 0 0 0 0 0 0 0 0 0 0 0 0 0 0 0 0 0 0 0 0 0 0 0 0 0 0 0 0 0 0 0 0 0 0 0 0 0 0 0 0 0 0 0 0 0 0 0 0 0 0 0 0 0 0 0 0 0 0 0 0 0 0 0 0 0 0 0 0 0 0 0 0 0 0 0 0 0 0 0 0 0 0 0 0 0 0 0 0 0 0 0 0 0 0 0 0 0 0 0 0 0 0 0 0 0 0 0 0 0 0 0 0 0 0 0 0 0 0 0 0 0 0 0 0 0 0 0 0 0 0 0 0 0 0 0 0 0 0 0 0 0 0 0 0 0 0 0 0 0 0 0 0 0 0 0 0 0 0 0 0 0 0 0 0 0 0 0 0 0 0 0 0 0 0 0 0 0 0 0 0 0 0 0 0 0 0 0 0 0 0 0 0 0 0 0 0 0 0 0 0 0 0 0 0 0 0 0 0 0 0 0 0 0 0 0 0 0 0 0 0 0 0 0 0 0 0 0 0 0 0 0 0 0 0 0 0 0 0 0 0 0 0 0 0 0 0 0 0 0 0 0 0 0 0 0 0 0 0 0 0 0 0 0 0 0 0 0 0 0 0 0 0 0 0 0 0 0 0 0 0 0 0 0 0 0 0 0 0 0 0 0 0 0 0 0 0 0 0 0 0 0 0 0 0 0 0 0 0 0 0 0 0 0 0 0 0 0 0 0 0 0 0 0 0 0 0 0 0 0 0 0 0 0 0 0 0 0 0 0 0 0 0 0 0 0 0 0 0 0 0 0 0 0 0 0 0 0 0 0 0 0 0 0 0 0 0 0 0 0 0 0 0 0 0 0 0 0 0 0 0 0 0 0 0 0 0 0 0 0 0 0 0 0 0 0 0 0 0 0 0 0 0 0 0 0 0 0 0 0 0 0 0 0 0 0 0 0 0 0 0 0 0 0 0 0 0 0 0 0 0 0 0 0 0 0 0 0 0 0 0 0 0 0 0 0 0 0 0 0 0 0 0 0 0 0 0 0 0 0 0 0 0 0 0 0 0 0 0 0 0 0 0 0 0 0 0 0 0 0 0 0 0 0 0 0 0 0 0 0 0 0
0 0 0 0 0 0 0 0 0 0 0 0 0 0 0 0 0 0 0 0 0 0 0 0 0 0 0 0 0 0 0 0 0 0 0 0 0 0 0 0 0 0 0 0 0 0 0 0 0 0 0 0 0 0 0 0 0 0 0 0 0 0 0 0 0 0 0 0 0 0 0 0 0 0 0 0 0 0 0 0 0 0 0 0 0 0 0 0 0 0 0 0 0 0 0 0 0 0 0 0 0 0 0 0 0 0 0 0 0 0 0 0 0 0 0 0 0 0 0 0 0 0 0 0 0 0 0 0 0 0 0 0 0 0 0 0 0 0 0 0 0 0 0 0 0 0 0 0 0 0 0 0 0 0 0 0 0 0 0 0 0 0 0 0 0 0 0 0 0 0 0 0 0 0 0 0 0 0 0 0 0 0 0 0 0 0 0 0 0 0 0 0 0 0 0 0 0 0 0 0 0 0 0 0 0 0 0 0 0 0 0 0 0 0 0 0 0 0 0 0 0 0 0 0 0 0 0 0 0 0 0 0 0 0 0 0 0 0 0 0 0 0 0 0 0 0 0 0 0 0 0 0 0 0 0 0 0 0 0 0 0 0 0 0 0 0 0 0 0 0 0 0 0 0 0 0 0 0 0 0 0 0 0 0 0 0 0 0 0 0 0 0 0 0 0 0 0 0 0 0 0 0 0 0 0 0 0 0 0 0 0 0 0 0 0 0 0 0 0 0 0 0 0 0 0 0 0 0 0 0 0 0 0 0 0 0 0 0 0 0 0 0 0 0 0 0 0 0 0 0 0 0 0 0 0 0 0 0 0 0 0 0 0 0 0 0 0 0 0 0 0 0 0 0 0 0 0 0 0 0 0 0 0 0 0 0 0 0 0 0 0 0 0 0 0 0 0 0 0 0 0 0 0 0 0 0 0 0 0 0 0 0 0 0 0 0 0 0 0 0 0 0 0 0 0 0 0 0 0 0 0 0 0 0 0 0 0 0 0 0 0 0 0 0 0 0 0 0 0 0 0 0 0 0 0 0 0 0 0 0 0 0 0 0 0 0 0 0 0 0 0 0 0 0 0 0 0 0 0 0 0 0 0 0 0 0 0 0 0 0 0 0 0 0 0 0 0 0 0 0 0 0 0 0 0 0 0 0 0 0 0 0 0 0 0 0 0 0 0 0 0 0 0 0 0 0 0 0 0 0 0 0 0 0 0 0 0 0 0 0 0 0 0 0 0 0 0 0 0 0 0 0 0 0 0 0 0 0 0 0 0 0 0 0 0 0 0 0 0 0 0 0 0 0 0 0 0 0 0 0 0 0 0 0 0 0 0 0 0 0 0 0 0 0 0 0 0 0 0 0 0 0 0 0 0 0 0 0 0 0 0 0 0 0 0 0 0 0 0 0 0 0 0 0 0 0 0 0 0 0 0 0 0 0 0 0 0 0 0 0 0 0 0 0 0 0 0 0 0 0 0 0 0 0 0 0 0 0 0 0 0 0 0 0 0 0 0 0 0 0 0 0 0 0 0 0 0 0 0 0 0 0 0 0 0 0 0 0 0 0 0 0 0 0 0 0 0 0 0 0 0 0 0 0 0 0 0 0 0 0 0 0 0 0 0 0 0 0 0 0
0 0 0 0 0 0 0 0 0 0 0 0 0 0 0 0 0 0 0 0 0 0 0 0 0 0 0 0 0 0 0 0 0 0 0 0 0 0 0 0 0 0 0 0 0 0 0 0 0 0 0 0 0 0 0 0 0 0 0 0 0 0 0 0 0 0 0 0 0 0 0 0 0 0 0 0 0 0 0 0 0 0 0 0 0 0 0 0 0 0 0 0 0 0 0 0 0 0 0 0 0 0 0 0 0 0 0 0 0 0 0 0 0 0 0 0 0 0 0 0 0 0 0 0 0 0 0 0 0 0 0 0 0 0 0 0 0 0 0 0 0 0 0 0 0 0 0 0 0 0 0 0 0 0 0 0 0 0 0 0 0 0 0 0 0 0 0 0 0 0 0 0 0 0 0 0 0 0 0 0 0 0 0 0 0 0 0 0 0 0 0 0 0 0 0 0 0 0 0 0 0 0 0 0 0 0 0 0 0 0 0 0 0 0 0 0 0 0 0 0 0 0 0 0 0 0 0 0 0 0 0 0 0 0 0 0 0 0 0 0 0 0 0 0 0 0 0 0 0 0 0 0 0 0 0 0 0 0 0 0 0 0 0 0 0 0 0 0 0 0 0 0 0 0 0 0 0 0 0 0 0 0 0 0 0 0 0 0 0 0 0 0 0 0 0 0 0 0 0 0 0 0 0 0 0 0 0 0 0 0 0 0 0 0 0 0 0 0 0 0 0 0 0 0 0 0 0 0 0 0 0 0 0 0 0 0 0 0 0 0 0 0 0 0 0 0 0 0 0 0 0 0 0 0 0 0 0 0 0 0 0 0 0 0 0 0 0 0 0 0 0 0 0 0 0 0 0 0 0 0 0 0 0 0 0 0 0 0 0 0 0 0 0 0 0 0 0 0 0 0 0 0 0 0 0 0 0 0 0 0 0 0 0 0 0 0 0 0 0 0 0 0 0 0 0 0 0 0 0 0 0 0 0 0 0 0 0 0 0 0 0 0 0 0 0 0 0 0 0 0 0 0 0 0 0 0 0 0 0 0 0 0 0 0 0 0 0 0 0 0 0 0 0 0 0 0 0 0 0 0 0 0 0 0 0 0 0 0 0 0 0 0 0 0 0 0 0 0 0 0 0 0 0 0 0 0 0 0 0 0 0 0 0 0 0 0 0 0 0 0 0 0 0 0 0 0 0 0 0 0 0 0 0 0 0 0 0 0 0 0 0 0 0 0 0 0 0 0 0 0 0 0 0 0 0 0 0 0 0 0 0 0 0 0 0 0 0 0 0 0 0 0 0 0 0 0 0 0 0 0 0 0 0 0 0 0 0 0 0 0 0 0 0 0 0 0 0 0 0 0 0 0 0 0 0 0 0 0 0 0 0 0 0 0 0 0 0 0 0 0 0 0 0 0 0 0 0 0 0 0 0 0 0 0 0 0 0 0 0 0 0 0 0 0 0 0 0 0 0 0 0 0 0 0 0 0 0 0 0 0 0 0 0 0 0 0 0 0 0 0 0 0 0 0 0 0 0 0 0 0 0 0 0 0 0 0 0 0 0 0 0 0 0 0 0 0 0 0 0 0 0 0 0 0 0 0 0 0 0 0 0 0 0 0 0 0 0 0 0 0
0 0 0 0 0 0 0 0 0 0 0 0 0 0 0 0 0 0 0 0 0 0 0 0 0 0 0 0 0 0 0 0 0 0 0 0 0 0 0 0 0 0 0 0 0 0 0 0 0 0 0 0 0 0 0 0 0 0 0 0 0 0 0 0 0 0 0 0 0 0 0 0 0 0 0 0 0 0 0 0 0 0 0 0 0 0 0 0 0 0 0 0 0 0 0 0 0 0 0 0 0 0 0 0 0 0 0 0 0 0 0 0 0 0 0 0 0 0 0 0 0 0 0 0 0 0 0 0 0 0 0 0 0 0 0 0 0 0 0 0 0 0 0 0 0 0 0 0 0 0 0 0 0 0 0 0 0 0 0 0 0 0 0 0 0 0 0 0 0 0 0 0 0 0 0 0 0 0 0 0 0 0 0 0 0 0 0 0 0 0 0 0 0 0 0 0 0 0 0 0 0 0 0 0 0 0 0 0 0 0 0 0 0 0 0 0 0 0 0 0 0 0 0 0 0 0 0 0 0 0 0 0 0 0 0 0 0 0 0 0 0 0 0 0 0 0 0 0 0 0 0 0 0 0 0 0 0 0 0 0 0 0 0 0 0 0 0 0 0 0 0 0 0 0 0 0 0 0 0 0 0 0 0 0 0 0 0 0 0 0 0 0 0 0 0 0 0 0 0 0 0 0 0 0 0 0 0 0 0 0 0 0 0 0 0 0 0 0 0 0 0 0 0 0 0 0 0 0 0 0 0 0 0 0 0 0 0 0 0 0 0 0 0 0 0 0 0 0 0 0 0 0 0 0 0 0 0 0 0 0 0 0 0 0 0 0 0 0 0 0 0 0 0 0 0 0 0 0 0 0 0 0 0 0 0 0 0 0 0 0 0 0 0 0 0 0 0 0 0 0 0 0 0 0 0 0 0 0 0 0 0 0 0 0 0 0 0 0 0 0 0 0 0 0 0 0 0 0 0 0 0 0 0 0 0 0 0 0 0 0 0 0 0 0 0 0 0 0 0 0 0 0 0 0 0 0 0 0 0 0 0 0 0 0 0 0 0 0 0 0 0 0 0 0 0 0 0 0 0 0 0 0 0 0 0 0 0 0 0 0 0 0 0 0 0 0 0 0 0 0 0 0 0 0 0 0 0 0 0 0 0 0 0 0 0 0 0 0 0 0 0 0 0 0 0 0 0 0 0 0 0 0 0 0 0 0 0 0 0 0 0 0 0 0 0 0 0 0 0 0 0 0 0 0 0 0 0 0 0 0 0 0 0 0 0 0 0 0 0 0 0 0 0 0 0 0 0 0 0 0 0 0 0 0 0 0 0 0 0 0 0 0 0 0 0 0 0 0 0 0 0 0 0 0 0 0 0 0 0 0 0 0 0 0 0 0 0 0 0 0 0 0 0 0 0 0 0 0 0 0 0 0 0 0 0 0 0 0 0 0 0 0 0 0 0 0 0 0 0 0 0 0 0 0 0 0 0 0 0 0 0 0 0 0 0 0 0 0 0 0 0 0 0 0 0 0 0 0 0 0 0 0 0 0 0 0 0 0 0 0 0 0 0 0 0 0 0 0 0 0 0 0 0 0 0 0 0 0 0 0 0 0 0 0 0 0 0 0 0 0
0 0 0 0 0 0 0 0 0 0 0 0 0 0 0 0 0 0 0 0 0 0 0 0 0 0 0 0 0 0 0 0 0 0 0 0 0 0 0 0 0 0 0 0 0 0 0 0 0 0 0 0 0 0 0 0 0 0 0 0 0 0 0 0 0 0 0 0 0 0 0 0 0 0 0 0 0 0 0 0 0 0 0 0 0 0 0 0 0 0 0 0 0 0 0 0 0 0 0 0 0 0 0 0 0 0 0 0 0 0 0 0 0 0 0 0 0 0 0 0 0 0 0 0 0 0 0 0 0 0 0 0 0 0 0 0 0 0 0 0 0 0 0 0 0 0 0 0 0 0 0 0 0 0 0 0 0 0 0 0 0 0 0 0 0 0 0 0 0 0 0 0 0 0 0 0 0 0 0 0 0 0 0 0 0 0 0 0 0 0 0 0 0 0 0 0 0 0 0 0 0 0 0 0 0 0 0 0 0 0 0 0 0 0 0 0 0 0 0 0 0 0 0 0 0 0 0 0 0 0 0 0 0 0 0 0 0 0 0 0 0 0 0 0 0 0 0 0 0 0 0 0 0 0 0 0 0 0 0 0 0 0 0 0 0 0 0 0 0 0 0 0 0 0 0 0 0 0 0 0 0 0 0 0 0 0 0 0 0 0 0 0 0 0 0 0 0 0 0 0 0 0 0 0 0 0 0 0 0 0 0 0 0 0 0 0 0 0 0 0 0 0 0 0 0 0 0 0 0 0 0 0 0 0 0 0 0 0 0 0 0 0 0 0 0 0 0 0 0 0 0 0 0 0 0 0 0 0 0 0 0 0 0 0 0 0 0 0 0 0 0 0 0 0 0 0 0 0 0 0 0 0 0 0 0 0 0 0 0 0 0 0 0 0 0 0 0 0 0 0 0 0 0 0 0 0 0 0 0 0 0 0 0 0 0 0 0 0 0 0 0 0 0 0 0 0 0 0 0 0 0 0 0 0 0 0 0 0 0 0 0 0 0 0 0 0 0 0 0 0 0 0 0 0 0 0 0 0 0 0 0 0 0 0 0 0 0 0 0 0 0 0 0 0 0 0 0 0 0 0 0 0 0 0 0 0 0 0 0 0 0 0 0 0 0 0 0 0 0 0 0 0 0 0 0 0 0 0 0 0 0 0 0 0 0 0 0 0 0 0 0 0 0 0 0 0 0 0 0 0 0 0 0 0 0 0 0 0 0 0 0 0 0 0 0 0 0 0 0 0 0 0 0 0 0 0 0 0 0 0 0 0 0 0 0 0 0 0 0 0 0 0 0 0 0 0 0 0 0 0 0 0 0 0 0 0 0 0 0 0 0 0 0 0 0 0 0 0 0 0 0 0 0 0 0 0 0 0 0 0 0 0 0 0 0 0 0 0 0 0 0 0 0 0 0 0 0 0 0 0 0 0 0 0 0 0 0 0 0 0 0 0 0 0 0 0 0 0 0 0 0 0 0 0 0 0 0 0 0 0 0 0 0 0 0 0 0 0 0 0 0 0 0 0 0 0 0 0 0 0 0 0 0 0 0 0 0 0 0 0 0 0 0 0 0 0 0 0 0 0 0 0 0 0 0 0 0 0 0 0 0 0 0 0 0 0 0 0 0 0
0 0 0 0 0 0 0 0 0 0 0 0 0 0 0 0 0 0 0 0 0 0 0 0 0 0 0 0 0 0 0 0 0 0 0 0 0 0 0 0 0 0 0 0 0 0 0 0 0 0 0 0 0 0 0 0 0 0 0 0 0 0 0 0 0 0 0 0 0 0 0 0 0 0 0 0 0 0 0 0 0 0 0 0 0 0 0 0 0 0 0 0 0 0 0 0 0 0 0 0 0 0 0 0 0 0 0 0 0 0 0 0 0 0 0 0 0 0 0 0 0 0 0 0 0 0 0 0 0 0 0 0 0 0 0 0 0 0 0 0 0 0 0 0 0 0 0 0 0 0 0 0 0 0 0 0 0 0 0 0 0 0 0 0 0 0 0 0 0 0 0 0 0 0 0 0 0 0 0 0 0 0 0 0 0 0 0 0 0 0 0 0 0 0 0 0 0 0 0 0 0 0 0 0 0 0 0 0 0 0 0 0 0 0 0 0 0 0 0 0 0 0 0 0 0 0 0 0 0 0 0 0 0 0 0 0 0 0 0 0 0 0 0 0 0 0 0 0 0 0 0 0 0 0 0 0 0 0 0 0 0 0 0 0 0 0 0 0 0 0 0 0 0 0 0 0 0 0 0 0 0 0 0 0 0 0 0 0 0 0 0 0 0 0 0 0 0 0 0 0 0 0 0 0 0 0 0 0 0 0 0 0 0 0 0 0 0 0 0 0 0 0 0 0 0 0 0 0 0 0 0 0 0 0 0 0 0 0 0 0 0 0 0 0 0 0 0 0 0 0 0 0 0 0 0 0 0 0 0 0 0 0 0 0 0 0 0 0 0 0 0 0 0 0 0 0 0 0 0 0 0 0 0 0 0 0 0 0 0 0 0 0 0 0 0 0 0 0 0 0 0 0 0 0 0 0 0 0 0 0 0 0 0 0 0 0 0 0 0 0 0 0 0 0 0 0 0 0 0 0 0 0 0 0 0 0 0 0 0 0 0 0 0 0 0 0 0 0 0 0 0 0 0 0 0 0 0 0 0 0 0 0 0 0 0 0 0 0 0 0 0 0 0 0 0 0 0 0 0 0 0 0 0 0 0 0 0 0 0 0 0 0 0 0 0 0 0 0 0 0 0 0 0 0 0 0 0 0 0 0 0 0 0 0 0 0 0 0 0 0 0 0 0 0 0 0 0 0 0 0 0 0 0 0 0 0 0 0 0 0 0 0 0 0 0 0 0 0 0 0 0 0 0 0 0 0 0 0 0 0 0 0 0 0 0 0 0 0 0 0 0 0 0 0 0 0 0 0 0 0 0 0 0 0 0 0 0 0 0 0 0 0 0 0 0 0 0 0 0 0 0 0 0 0 0 0 0 0 0 0 0 0 0 0 0 0 0 0 0 0 0 0 0 0 0 0 0 0 0 0 0 0 0 0 0 0 0 0 0 0 0 0 0 0 0 0 0 0 0 0 0 0 0 0 0 0 0 0 0 0 0 0 0 0 0 0 0 0 0 0 0 0 0 0 0 0 0 0 0 0 0 0 0 0 0 0 0 0 0 0 0 0 0 0 0 0 0 0 0 0 0 0 0 0 0 0 0 0 0 0 0 0 0 0 0 0 0 0 0 0
0 0 0 0 0 0 0 0 0 0 0 0 0 0 0 0 0 0 0 0 0 0 0 0 0 0 0 0 0 0 0 0 0 0 0 0 0 0 0 0 0 0 0 0 0 0 0 0 0 0 0 0 0 0 0 0 0 0 0 0 0 0 0 0 0 0 0 0 0 0 0 0 0 0 0 0 0 0 0 0 0 0 0 0 0 0 0 0 0 0 0 0 0 0 0 0 0 0 0 0 0 0 0 0 0 0 0 0 0 0 0 0 0 0 0 0 0 0 0 0 0 0 0 0 0 0 0 0 0 0 0 0 0 0 0 0 0 0 0 0 0 0 0 0 0 0 0 0 0 0 0 0 0 0 0 0 0 0 0 0 0 0 0 0 0 0 0 0 0 0 0 0 0 0 0 0 0 0 0 0 0 0 0 0 0 0 0 0 0 0 0 0 0 0 0 0 0 0 0 0 0 0 0 0 0 0 0 0 0 0 0 0 0 0 0 0 0 0 0 0 0 0 0 0 0 0 0 0 0 0 0 0 0 0 0 0 0 0 0 0 0 0 0 0 0 0 0 0 0 0 0 0 0 0 0 0 0 0 0 0 0 0 0 0 0 0 0 0 0 0 0 0 0 0 0 0 0 0 0 0 0 0 0 0 0 0 0 0 0 0 0 0 0 0 0 0 0 0 0 0 0 0 0 0 0 0 0 0 0 0 0 0 0 0 0 0 0 0 0 0 0 0 0 0 0 0 0 0 0 0 0 0 0 0 0 0 0 0 0 0 0 0 0 0 0 0 0 0 0 0 0 0 0 0 0 0 0 0 0 0 0 0 0 0 0 0 0 0 0 0 0 0 0 0 0 0 0 0 0 0 0 0 0 0 0 0 0 0 0 0 0 0 0 0 0 0 0 0 0 0 0 0 0 0 0 0 0 0 0 0 0 0 0 0 0 0 0 0 0 0 0 0 0 0 0 0 0 0 0 0 0 0 0 0 0 0 0 0 0 0 0 0 0 0 0 0 0 0 0 0 0 0 0 0 0 0 0 0 0 0 0 0 0 0 0 0 0 0 0 0 0 0 0 0 0 0 0 0 0 0 0 0 0 0 0 0 0 0 0 0 0 0 0 0 0 0 0 0 0 0 0 0 0 0 0 0 0 0 0 0 0 0 0 0 0 0 0 0 0 0 0 0 0 0 0 0 0 0 0 0 0 0 0 0 0 0 0 0 0 0 0 0 0 0 0 0 0 0 0 0 0 0 0 0 0 0 0 0 0 0 0 0 0 0 0 0 0 0 0 0 0 0 0 0 0 0 0 0 0 0 0 0 0 0 0 0 0 0 0 0 0 0 0 0 0 0 0 0 0 0 0 0 0 0 0 0 0 0 0 0 0 0 0 0 0 0 0 0 0 0 0 0 0 0 0 0 0 0 0 0 0 0 0 0 0 0 0 0 0 0 0 0 0 0 0 0 0 0 0 0 0 0 0 0 0 0 0 0 0 0 0 0 0 0 0 0 0 0 0 0 0 0 0 0 0 0 0 0 0 0 0 0 0 0 0 0 0 0 0 0 0 0 0 0 0 0 0 0 0 0 0 0 0 0 0 0 0 0 0 0 0 0 0 0 0 0 0 0 0 0
0 0 0 0 0 0 0 0 0 0 0 0 0 0 0 0 0 0 0 0 0 0 0 0 0 0 0 0 0 0 0 0 0 0 0 0 0 0 0 0 0 0 0 0 0 0 0 0 0 0 0 0 0 0 0 0 0 0 0 0 0 0 0 0 0 0 0 0 0 0 0 0 0 0 0 0 0 0 0 0 0 0 0 0 0 0 0 0 0 0 0 0 0 0 0 0 0 0 0 0 0 0 0 0 0 0 0 0 0 0 0 0 0 0 0 0 0 0 0 0 0 0 0 0 0 0 0 0 0 0 0 0 0 0 0 0 0 0 0 0 0 0 0 0 0 0 0 0 0 0 0 0 0 0 0 0 0 0 0 0 0 0 0 0 0 0 0 0 0 0 0 0 0 0 0 0 0 0 0 0 0 0 0 0 0 0 0 0 0 0 0 0 0 0 0 0 0 0 0 0 0 0 0 0 0 0 0 0 0 0 0 0 0 0 0 0 0 0 0 0 0 0 0 0 0 0 0 0 0 0 0 0 0 0 0 0 0 0 0 0 0 0 0 0 0 0 0 0 0 0 0 0 0 0 0 0 0 0 0 0 0 0 0 0 0 0 0 0 0 0 0 0 0 0 0 0 0 0 0 0 0 0 0 0 0 0 0 0 0 0 0 0 0 0 0 0 0 0 0 0 0 0 0 0 0 0 0 0 0 0 0 0 0 0 0 0 0 0 0 0 0 0 0 0 0 0 0 0 0 0 0 0 0 0 0 0 0 0 0 0 0 0 0 0 0 0 0 0 0 0 0 0 0 0 0 0 0 0 0 0 0 0 0 0 0 0 0 0 0 0 0 0 0 0 0 0 0 0 0 0 0 0 0 0 0 0 0 0 0 0 0 0 0 0 0 0 0 0 0 0 0 0 0 0 0 0 0 0 0 0 0 0 0 0 0 0 0 0 0 0 0 0 0 0 0 0 0 0 0 0 0 0 0 0 0 0 0 0 0 0 0 0 0 0 0 0 0 0 0 0 0 0 0 0 0 0 0 0 0 0 0 0 0 0 0 0 0 0 0 0 0 0 0 0 0 0 0 0 0 0 0 0 0 0 0 0 0 0 0 0 0 0 0 0 0 0 0 0 0 0 0 0 0 0 0 0 0 0 0 0 0 0 0 0 0 0 0 0 0 0 0 0 0 0 0 0 0 0 0 0 0 0 0 0 0 0 0 0 0 0 0 0 0 0 0 0 0 0 0 0 0 0 0 0 0 0 0 0 0 0 0 0 0 0 0 0 0 0 0 0 0 0 0 0 0 0 0 0 0 0 0 0 0 0 0 0 0 0 0 0 0 0 0 0 0 0 0 0 0 0 0 0 0 0 0 0 0 0 0 0 0 0 0 0 0 0 0 0 0 0 0 0 0 0 0 0 0 0 0 0 0 0 0 0 0 0 0 0 0 0 0 0 0 0 0 0 0 0 0 0 0 0 0 0 0 0 0 0 0 0 0 0 0 0 0 0 0 0 0 0 0 0 0 0 0 0 0 0 0 0 0 0 0 0 0 0 0 0 0 0 0 0 0 0 0 0 0 0 0 0 0 0 0 0 0 0 0 0 0 0 0 0 0 0 0 0 0 0 0 0
0 0 0 0 0 0 0 0 0 0 0 0 0 0 0 0 0 0 0 0 0 0 0 0 0 0 0 0 0 0 0 0 0 0 0 0 0 0 0 0 0 0 0 0 0 0 0 0 0 0 0 0 0 0 0 0 0 0 0 0 0 0 0 0 0 0 0 0 0 0 0 0 0 0 0 0 0 0 0 0 0 0 0 0 0 0 0 0 0 0 0 0 0 0 0 0 0 0 0 0 0 0 0 0 0 0 0 0 0 0 0 0 0 0 0 0 0 0 0 0 0 0 0 0 0 0 0 0 0 0 0 0 0 0 0 0 0 0 0 0 0 0 0 0 0 0 0 0 0 0 0 0 0 0 0 0 0 0 0 0 0 0 0 0 0 0 0 0 0 0 0 0 0 0 0 0 0 0 0 0 0 0 0 0 0 0 0 0 0 0 0 0 0 0 0 0 0 0 0 0 0 0 0 0 0 0 0 0 0 0 0 0 0 0 0 0 0 0 0 0 0 0 0 0 0 0 0 0 0 0 0 0 0 0 0 0 0 0 0 0 0 0 0 0 0 0 0 0 0 0 0 0 0 0 0 0 0 0 0 0 0 0 0 0 0 0 0 0 0 0 0 0 0 0 0 0 0 0 0 0 0 0 0 0 0 0 0 0 0 0 0 0 0 0 0 0 0 0 0 0 0 0 0 0 0 0 0 0 0 0 0 0 0 0 0 0 0 0 0 0 0 0 0 0 0 0 0 0 0 0 0 0 0 0 0 0 0 0 0 0 0 0 0 0 0 0 0 0 0 0 0 0 0 0 0 0 0 0 0 0 0 0 0 0 0 0 0 0 0 0 0 0 0 0 0 0 0 0 0 0 0 0 0 0 0 0 0 0 0 0 0 0 0 0 0 0 0 0 0 0 0 0 0 0 0 0 0 0 0 0 0 0 0 0 0 0 0 0 0 0 0 0 0 0 0 0 0 0 0 0 0 0 0 0 0 0 0 0 0 0 0 0 0 0 0 0 0 0 0 0 0 0 0 0 0 0 0 0 0 0 0 0 0 0 0 0 0 0 0 0 0 0 0 0 0 0 0 0 0 0 0 0 0 0 0 0 0 0 0 0 0 0 0 0 0 0 0 0 0 0 0 0 0 0 0 0 0 0 0 0 0 0 0 0 0 0 0 0 0 0 0 0 0 0 0 0 0 0 0 0 0 0 0 0 0 0 0 0 0 0 0 0 0 0 0 0 0 0 0 0 0 0 0 0 0 0 0 0 0 0 0 0 0 0 0 0 0 0 0 0 0 0 0 0 0 0 0 0 0 0 0 0 0 0 0 0 0 0 0 0 0 0 0 0 0 0 0 0 0 0 0 0 0 0 0 0 0 0 0 0 0 0 0 0 0 0 0 0 0 0 0 0 0 0 0 0 0 0 0 0 0 0 0 0 0 0 0 0 0 0 0 0 0 0 0 0 0 0 0 0 0 0 0 0 0 0 0 0 0 0 0 0 0 0 0 0 0 0 0 0 0 0 0 0 0 0 0 0 0 0 0 0 0 0 0 0 0 0 0 0 0 0 0 0 0 0 0 0 0 0 0 0 0 0 0 0 0 0 0 0 0 0 0 0 0 0 0 0 0 0
0 0 0 0 0 0 0 0 0 0 0 0 0 0 0 0 0 0 0 0 0 0 0 0 0 0 0 0 0 0 0 0 0 0 0 0 0 0 0 0 0 0 0 0 0 0 0 0 0 0 0 0 0 0 0 0 0 0 0 0 0 0 0 0 0 0 0 0 0 0 0 0 0 0 0 0 0 0 0 0 0 0 0 0 0 0 0 0 0 0 0 0 0 0 0 0 0 0 0 0 0 0 0 0 0 0 0 0 0 0 0 0 0 0 0 0 0 0 0 0 0 0 0 0 0 0 0 0 0 0 0 0 0 0 0 0 0 0 0 0 0 0 0 0 0 0 0 0 0 0 0 0 0 0 0 0 0 0 0 0 0 0 0 0 0 0 0 0 0 0 0 0 0 0 0 0 0 0 0 0 0 0 0 0 0 0 0 0 0 0 0 0 0 0 0 0 0 0 0 0 0 0 0 0 0 0 0 0 0 0 0 0 0 0 0 0 0 0 0 0 0 0 0 0 0 0 0 0 0 0 0 0 0 0 0 0 0 0 0 0 0 0 0 0 0 0 0 0 0 0 0 0 0 0 0 0 0 0 0 0 0 0 0 0 0 0 0 0 0 0 0 0 0 0 0 0 0 0 0 0 0 0 0 0 0 0 0 0 0 0 0 0 0 0 0 0 0 0 0 0 0 0 0 0 0 0 0 0 0 0 0 0 0 0 0 0 0 0 0 0 0 0 0 0 0 0 0 0 0 0 0 0 0 0 0 0 0 0 0 0 0 0 0 0 0 0 0 0 0 0 0 0 0 0 0 0 0 0 0 0 0 0 0 0 0 0 0 0 0 0 0 0 0 0 0 0 0 0 0 0 0 0 0 0 0 0 0 0 0 0 0 0 0 0 0 0 0 0 0 0 0 0 0 0 0 0 0 0 0 0 0 0 0 0 0 0 0 0 0 0 0 0 0 0 0 0 0 0 0 0 0 0 0 0 0 0 0 0 0 0 0 0 0 0 0 0 0 0 0 0 0 0 0 0 0 0 0 0 0 0 0 0 0 0 0 0 0 0 0 0 0 0 0 0 0 0 0 0 0 0 0 0 0 0 0 0 0 0 0 0 0 0 0 0 0 0 0 0 0 0 0 0 0 0 0 0 0 0 0 0 0 0 0 0 0 0 0 0 0 0 0 0 0 0 0 0 0 0 0 0 0 0 0 0 0 0 0 0 0 0 0 0 0 0 0 0 0 0 0 0 0 0 0 0 0 0 0 0 0 0 0 0 0 0 0 0 0 0 0 0 0 0 0 0 0 0 0 0 0 0 0 0 0 0 0 0 0 0 0 0 0 0 0 0 0 0 0 0 0 0 0 0 0 0 0 0 0 0 0 0 0 0 0 0 0 0 0 0 0 0 0 0 0 0 0 0 0 0 0 0 0 0 0 0 0 0 0 0 0 0 0 0 0 0 0 0 0 0 0 0 0 0 0 0 0 0 0 0 0 0 0 0 0 0 0 0 0 0 0 0 0 0 0 0 0 0 0 0 0 0 0 0 0 0 0 0 0 0 0 0 0 0 0 0 0 0 0 0 0 0 0 0 0 0 0 0 0 0 0 0 0 0 0 0 0 0 0 0 0 0
0 0 0 0 0 0 0 0 0 0 0 0 0 0 0 0 0 0 0 0 0 0 0 0 0 0 0 0 0 0 0 0 0 0 0 0 0 0 0 0 0 0 0 0 0 0 0 0 0 0 0 0 0 0 0 0 0 0 0 0 0 0 0 0 0 0 0 0 0 0 0 0 0 0 0 0 0 0 0 0 0 0 0 0 0 0 0 0 0 0 0 0 0 0 0 0 0 0 0 0 0 0 0 0 0 0 0 0 0 0 0 0 0 0 0 0 0 0 0 0 0 0 0 0 0 0 0 0 0 0 0 0 0 0 0 0 0 0 0 0 0 0 0 0 0 0 0 0 0 0 0 0 0 0 0 0 0 0 0 0 0 0 0 0 0 0 0 0 0 0 0 0 0 0 0 0 0 0 0 0 0 0 0 0 0 0 0 0 0 0 0 0 0 0 0 0 0 0 0 0 0 0 0 0 0 0 0 0 0 0 0 0 0 0 0 0 0 0 0 0 0 0 0 0 0 0 0 0 0 0 0 0 0 0 0 0 0 0 0 0 0 0 0 0 0 0 0 0 0 0 0 0 0 0 0 0 0 0 0 0 0 0 0 0 0 0 0 0 0 0 0 0 0 0 0 0 0 0 0 0 0 0 0 0 0 0 0 0 0 0 0 0 0 0 0 0 0 0 0 0 0 0 0 0 0 0 0 0 0 0 0 0 0 0 0 0 0 0 0 0 0 0 0 0 0 0 0 0 0 0 0 0 0 0 0 0 0 0 0 0 0 0 0 0 0 0 0 0 0 0 0 0 0 0 0 0 0 0 0 0 0 0 0 0 0 0 0 0 0 0 0 0 0 0 0 0 0 0 0 0 0 0 0 0 0 0 0 0 0 0 0 0 0 0 0 0 0 0 0 0 0 0 0 0 0 0 0 0 0 0 0 0 0 0 0 0 0 0 0 0 0 0 0 0 0 0 0 0 0 0 0 0 0 0 0 0 0 0 0 0 0 0 0 0 0 0 0 0 0 0 0 0 0 0 0 0 0 0 0 0 0 0 0 0 0 0 0 0 0 0 0 0 0 0 0 0 0 0 0 0 0 0 0 0 0 0 0 0 0 0 0 0 0 0 0 0 0 0 0 0 0 0 0 0 0 0 0 0 0 0 0 0 0 0 0 0 0 0 0 0 0 0 0 0 0 0 0 0 0 0 0 0 0 0 0 0 0 0 0 0 0 0 0 0 0 0 0 0 0 0 0 0 0 0 0 0 0 0 0 0 0 0 0 0 0 0 0 0 0 0 0 0 0 0 0 0 0 0 0 0 0 0 0 0 0 0 0 0 0 0 0 0 0 0 0 0 0 0 0 0 0 0 0 0 0 0 0 0 0 0 0 0 0 0 0 0 0 0 0 0 0 0 0 0 0 0 0 0 0 0 0 0 0 0 0 0 0 0 0 0 0 0 0 0 0 0 0 0 0 0 0 0 0 0 0 0 0 0 0 0 0 0 0 0 0 0 0 0 0 0 0 0 0 0 0 0 0 0 0 0 0 0 0 0 0 0 0 0 0 0 0 0 0 0 0 0 0 0 0 0 0 0 0 0 0 0 0 0 0 0 0 0 0 0 0 0 0 0 0 0
5 0 0 5 0 0 5 0 0 5 0 0 5 0 0 5 0 0 5 0 0 5 0 0 5 0 0 5 0 0 5 0 0 5 0 0 5 0 0 5 0 0 5 0 0 5 0 0 5 0 0 5 0 0 5 0 0 5 0 0 5 0 0 5 0 0 5 0 0 5 0 0 5 0 0 5 0 0 5 0 0 5 0 0 5 0 0 5 0 0 5 0 0 5 0 0 5 0 0 5 0 0 5 0 0 5 0 0 5 0 0 5 0 0 5 0 0 5 0 0 5 0 0 5 0 0 5 0 0 5 0 0 5 0 0 5 0 0 5 0 0 5 0 0 5 0 0 5 0 0 5 0 0 5 0 0 5 0 0 5 0 0 5 0 0 5 0 0 5 0 0 5 0 0 5 0 0 5 0 0 5 0 0 5 0 0 5 0 0 5 0 0 5 0 0 5 0 0 5 0 0 5 0 0 5 0 0 5 0 0 5 0 0 5 0 0 5 0 0 5 0 0 5 0 0 5 0 0 5 0 0 5 0 0 5 0 0 5 0 0 5 0 0 5 0 0 5 0 0 5 0 0 5 0 0 5 0 0 5 0 0 5 0 0 5 0 0 5 0 0 5 0 0 5 0 0 5 0 0 5 0 0 5 0 0 5 0 0 5 0 0 5 0 0 5 0 0 5 0 0 5 0 0 5 0 0 5 0 0 5 0 0 5 0 0 5 0 0 5 0 0 5 0 0 5 0 0 5 0 0 5 0 0 5 0 0 5 0 0 5 0 0 5 0 0 5 0 0 5 0 0 5 0 0 5 0 0 5 0 0 5 0 0 5 0 0 5 0 0 5 0 0 5 0 0 5 0 0 5 0 0 5 0 0 5 0 0 5 0 0 5 0 0 5 0 0 5 0 0 5 0 0 5 0 0 5 0 0 5 0 0 5 0 0 5 0 0 5 0 0 5 0 0 5 0 0 5 0 0 5 0 0 5 0 0 5 0 0 5 0 0 5 0 0 5 0 0 5 0 0 5 0 0 5 0 0 5 0 0 5 0 0 5 0 0 5 0 0 5 0 0 5 0 0 5 0 0 5 0 0 5 0 0 5 0 0 5 0 0 5 0 0 5 0 0 5 0 0 5 0 0 5 0 0 5 0 0 5 0 0 5 0 0 5 0 0 5 0 0 5 0 0 5 0 0 5 0 0 5 0 0 5 0 0 5 0 0 5 0 0 5 0 0 5 0 0 5 0 0 5 0 0 5 0 0 5 0 0 5 0 0 5 0 0 5 0 0 5 0 0 5 0 0 5 0 0 5 0 0 5 0 0 5 0 0 5 0 0 5 0 0 5 0 0 5 0 0 5 0 0 5 0 0 5 0 0 5 0 0 5 0 0 5 0 0 5 0 0 5 0 0 5 0 0 5 0 0 5 0 0 5 0 0 5 0 0 5 0 0 5 0 0 5 0 0 5 0 0 5 0 0 5 0 0 5 0 0 5 0 0 5 0 0 5 0 0 5 0 0 5 0 0 5 0 0 5 0 0 5 0 0 5 0 0 5 0 0 5 0 0 5 0 0 5 0 0 5 0 0 5 0 0 5 0 0 5 0 0 5 0 0 5 0 0 5 0 0 5 0 0
5 0 0 5 0 0 5 0 0 5 0 0 5 0 0 5 0 0 5 0 0 5 0 0 5 0 0 5 0 0 5 0 0 5 0 0 5 0 0 5 0 0 5 0 0 5 0 0 5 0 0 5 0 0 5 0 0 5 0 0 5 0 0 5 0 0 5 0 0 5 0 0 5 0 0 5 0 0 5 0 0 5 0 0 5 0 0 5 0 0 5 0 0 5 0 0 5 0 0 5 0 0 5 0 0 5 0 0 5 0 0 5 0 0 5 0 0 5 0 0 5 0 0 5 0 0 5 0 0 5 0 0 5 0 0 5 0 0 5 0 0 5 0 0 5 0 0 5 0 0 5 0 0 5 0 0 5 0 0 5 0 0 5 0 0 5 0 0 5 0 0 5 0 0 5 0 0 5 0 0 5 0 0 5 0 0 5 0 0 5 0 0 5 0 0 5 0 0 5 0 0 5 0 0 5 0 0 5 0 0 5 0 0 5 0 0 5 0 0 5 0 0 5 0 0 5 0 0 5 0 0 5 0 0 5 0 0 5 0 0 5 0 0 5 0 0 5 0 0 5 0 0 5 0 0 5 0 0 5 0 0 5 0 0 5 0 0 5 0 0 5 0 0 5 0 0 5 0 0 5 0 0 5 0 0 5 0 0 5 0 0 5 0 0 5 0 0 5 0 0 5 0 0 5 0 0 5 0 0 5 0 0 5 0 0 5 0 0 5 0 0 5 0 0 5 0 0 5 0 0 5 0 0 5 0 0 5 0 0 5 0 0 5 0 0 5 0 0 5 0 0 5 0 0 5 0 0 5 0 0 5 0 0 5 0 0 5 0 0 5 0 0 5 0 0 5 0 0 5 0 0 5 0 0 5 0 0 5 0 0 5 0 0 5 0 0 5 0 0 5 0 0 5 0 0 5 0 0 5 0 0 5 0 0 5 0 0 5 0 0 5 0 0 5 0 0 5 0 0 5 0 0 5 0 0 5 0 0 5 0 0 5 0 0 5 0 0 5 0 0 5 0 0 5 0 0 5 0 0 5 0 0 5 0 0 5 0 0 5 0 0 5 0 0 5 0 0 5 0 0 5 0 0 5 0 0 5 0 0 5 0 0 5 0 0 5 0 0 5 0 0 5 0 0 5 0 0 5 0 0 5 0 0 5 0 0 5 0 0 5 0 0 5 0 0 5 0 0 5 0 0 5 0 0 5 0 0 5 0 0 5 0 0 5 0 0 5 0 0 5 0 0 5 0 0 5 0 0 5 0 0 5 0 0 5 0 0 5 0 0 5 0 0 5 0 0 5 0 0 5 0 0 5 0 0 5 0 0 5 0 0 5 0 0 5 0 0 5 0 0 5 0 0 5 0 0 5 0 0 5 0 0 5 0 0 5 0 0 5 0 0 5 0 0 5 0 0 5 0 0 5 0 0 5 0 0 5 0 0 5 0 0 5 0 0 5 0 0 5 0 0 5 0 0 5 0 0 5 0 0 5 0 0 5 0 0 5 0 0 5 0 0 5 0 0 5 0 0 5 0 0 5 0 0 5 0 0 5 0 0 5 0 0 5 0 0 5 0 0 5 0 0 5 0 0 5 0 0 5 0 0 5 0 0 5 0 0 5 0 0
5 0 0 5 0 0 5 0 0 5 0 0 5 0 0 5 0 0 5 0 0 5 0 0 5 0 0 5 0 0 5 0 0 5 0 0 5 0 0 5 0 0 5 0 0 5 0 0 5 0 0 5 0 0 5 0 0 5 0 0 5 0 0 5 0 0 5 0 0 5 0 0 5 0 0 5 0 0 5 0 0 5 0 0 5 0 0 5 0 0 5 0 0 5 0 0 5 0 0 5 0 0 5 0 0 5 0 0 5 0 0 5 0 0 5 0 0 5 0 0 5 0 0 5 0 0 5 0 0 5 0 0 5 0 0 5 0 0 5 0 0 5 0 0 5 0 0 5 0 0 5 0 0 5 0 0 5 0 0 5 0 0 5 0 0 5 0 0 5 0 0 5 0 0 5 0 0 5 0 0 5 0 0 5 0 0 5 0 0 5 0 0 5 0 0 5 0 0 5 0 0 5 0 0 5 0 0 5 0 0 5 0 0 5 0 0 5 0 0 5 0 0 5 0 0 5 0 0 5 0 0 5 0 0 5 0 0 5 0 0 5 0 0 5 0 0 5 0 0 5 0 0 5 0 0 5 0 0 5 0 0 5 0 0 5 0 0 5 0 0 5 0 0 5 0 0 5 0 0 5 0 0 5 0 0 5 0 0 5 0 0 5 0 0 5 0 0 5 0 0 5 0 0 5 0 0 5 0 0 5 0 0 5 0 0 5 0 0 5 0 0 5 0 0 5 0 0 5 0 0 5 0 0 5 0 0 5 0 0 5 0 0 5 0 0 5 0 0 5 0 0 5 0 0 5 0 0 5 0 0 5 0 0 5 0 0 5 0 0 5 0 0 5 0 0 5 0 0 5 0 0 5 0 0 5 0 0 5 0 0 5 0 0 5 0 0 5 0 0 5 0 0 5 0 0 5 0 0 5 0 0 5 0 0 5 0 0 5 0 0 5 0 0 5 0 0 5 0 0 5 0 0 5 0 0 5 0 0 5 0 0 5 0 0 5 0 0 5 0 0 5 0 0 5 0 0 5 0 0 5 0 0 5 0 0 5 0 0 5 0 0 5 0 0 5 0 0 5 0 0 5 0 0 5 0 0 5 0 0 5 0 0 5 0 0 5 0 0 5 0 0 5 0 0 5 0 0 5 0 0 5 0 0 5 0 0 5 0 0 5 0 0 5 0 0 5 0 0 5 0 0 5 0 0 5 0 0 5 0 0 5 0 0 5 0 0 5 0 0 5 0 0 5 0 0 5 0 0 5 0 0 5 0 0 5 0 0 5 0 0 5 0 0 5 0 0 5 0 0 5 0 0 5 0 0 5 0 0 5 0 0 5 0 0 5 0 0 5 0 0 5 0 0 5 0 0 5 0 0 5 0 0 5 0 0 5 0 0 5 0 0 5 0 0 5 0 0 5 0 0 5 0 0 5 0 0 5 0 0 5 0 0 5 0 0 5 0 0 5 0 0 5 0 0 5 0 0 5 0 0 5 0 0 5 0 0 5 0 0 5 0 0 5 0 0 5 0 0 5 0 0 5 0 0 5 0 0 5 0 0 5 0 0 5 0 0 5 0 0 5 0 0 5 0 0 5 0 0 5 0 0 5 0 0 5 0 0 5 0 0
5 0 0 5 0 0 5 0 0 5 0 0 5 0 0 5 0 0 5 0 0 5 0 0 5 0 0 5 0 0 5 0 0 5 0 0 5 0 0 5 0 0 5 0 0 5 0 0 5 0 0 5 0 0 5 0 0 5 0 0 5 0 0 5 0 0 5 0 0 5 0 0 5 0 0 5 0 0 5 0 0 5 0 0 5 0 0 5 0 0 5 0 0 5 0 0 5 0 0 5 0 0 5 0 0 5 0 0 5 0 0 5 0 0 5 0 0 5 0 0 5 0 0 5 0 0 5 0 0 5 0 0 5 0 0 5 0 0 5 0 0 5 0 0 5 0 0 5 0 0 5 0 0 5 0 0 5 0 0 5 0 0 5 0 0 5 0 0 5 0 0 5 0 0 5 0 0 5 0 0 5 0 0 5 0 0 5 0 0 5 0 0 5 0 0 5 0 0 5 0 0 5 0 0 5 0 0 5 0 0 5 0 0 5 0 0 5 0 0 5 0 0 5 0 0 5 0 0 5 0 0 5 0 0 5 0 0 5 0 0 5 0 0 5 0 0 5 0 0 5 0 0 5 0 0 5 0 0 5 0 0 5 0 0 5 0 0 5 0 0 5 0 0 5 0 0 5 0 0 5 0 0 5 0 0 5 0 0 5 0 0 5 0 0 5 0 0 5 0 0 5 0 0 5 0 0 5 0 0 5 0 0 5 0 0 5 0 0 5 0 0 5 0 0 5 0 0 5 0 0 5 0 0 5 0 0 5 0 0 5 0 0 5 0 0 5 0 0 5 0 0 5 0 0 5 0 0 5 0 0 5 0 0 5 0 0 5 0 0 5 0 0 5 0 0 5 0 0 5 0 0 5 0 0 5 0 0 5 0 0 5 0 0 5 0 0 5 0 0 5 0 0 5 0 0 5 0 0 5 0 0 5 0 0 5 0 0 5 0 0 5 0 0 5 0 0 5 0 0 5 0 0 5 0 0 5 0 0 5 0 0 5 0 0 5 0 0 5 0 0 5 0 0 5 0 0 5 0 0 5 0 0 5 0 0 5 0 0 5 0 0 5 0 0 5 0 0 5 0 0 5 0 0 5 0 0 5 0 0 5 0 0 5 0 0 5 0 0 5 0 0 5 0 0 5 0 0 5 0 0 5 0 0 5 0 0 5 0 0 5 0 0 5 0 0 5 0 0 5 0 0 5 0 0 5 0 0 5 0 0 5 0 0 5 0 0 5 0 0 5 0 0 5 0 0 5 0 0 5 0 0 5 0 0 5 0 0 5 0 0 5 0 0 5 0 0 5 0 0 5 0 0 5 0 0 5 0 0 5 0 0 5 0 0 5 0 0 5 0 0 5 0 0 5 0 0 5 0 0 5 0 0 5 0 0 5 0 0 5 0 0 5 0 0 5 0 0 5 0 0 5 0 0 5 0 0 5 0 0 5 0 0 5 0 0 5 0 0 5 0 0 5 0 0 5 0 0 5 0 0 5 0 0 5 0 0 5 0 0 5 0 0 5 0 0 5 0 0 5 0 0 5 0 0 5 0 0 5 0 0 5 0 0 5 0 0 5 0 0 5 0 0 5 0 0 5 0 0 5 0 0 5 0 0 5 0 0 5 0 0
5 0 0 5 0 0 5 0 0 5 0 0 5 0 0 5 0 0 5 0 0 5 0 0 5 0 0 5 0 0 5 0 0 5 0 0 5 0 0 5 0 0 5 0 0 5 0 0 5 0 0 5 0 0 5 0 0 5 0 0 5 0 0 5 0 0 5 0 0 5 0 0 5 0 0 5 0 0 5 0 0 5 0 0 5 0 0 5 0 0 5 0 0 5 0 0 5 0 0 5 0 0 5 0 0 5 0 0 5 0 0 5 0 0 5 0 0 5 0 0 5 0 0 5 0 0 5 0 0 5 0 0 5 0 0 5 0 0 5 0 0 5 0 0 5 0 0 5 0 0 5 0 0 5 0 0 5 0 0 5 0 0 5 0 0 5 0 0 5 0 0 5 0 0 5 0 0 5 0 0 5 0 0 5 0 0 5 0 0 5 0 0 5 0 0 5 0 0 5 0 0 5 0 0 5 0 0 5 0 0 5 0 0 5 0 0 5 0 0 5 0 0 5 0 0 5 0 0 5 0 0 5 0 0 5 0 0 5 0 0 5 0 0 5 0 0 5 0 0 5 0 0 5 0 0 5 0 0 5 0 0 5 0 0 5 0 0 5 0 0 5 0 0 5 0 0 5 0 0 5 0 0 5 0 0 5 0 0 5 0 0 5 0 0 5 0 0 5 0 0 5 0 0 5 0 0 5 0 0 5 0 0 5 0 0 5 0 0 5 0 0 5 0 0 5 0 0 5 0 0 5 0 0 5 0 0 5 0 0 5 0 0 5 0 0 5 0 0 5 0 0 5 0 0 5 0 0 5 0 0 5 0 0 5 0 0 5 0 0 5 0 0 5 0 0 5 0 0 5 0 0 5 0 0 5 0 0 5 0 0 5 0 0 5 0 0 5 0 0 5 0 0 5 0 0 5 0 0 5 0 0 5 0 0 5 0 0 5 0 0 5 0 0 5 0 0 5 0 0 5 0 0 5 0 0 5 0 0 5 0 0 5 0 0 5 0 0 5 0 0 5 0 0 5 0 0 5 0 0 5 0 0 5 0 0 5 0 0 5 0 0 5 0 0 5 0 0 5 0 0 5 0 0 5 0 0 5 0 0 5 0 0 5 0 0 5 0 0 5 0 0 5 0 0 5 0 0 5 0 0 5 0 0 5 0 0 5 0 0 5 0 0 5 0 0 5 0 0 5 0 0 5 0 0 5 0 0 5 0 0 5 0 0 5 0 0 5 0 0 5 0 0 5 0 0 5 0 0 5 0 0 5 0 0 5 0 0 5 0 0 5 0 0 5 0 0 5 0 0 5 0 0 5 0 0 5 0 0 5 0 0 5 0 0 5 0 0 5 0 0 5 0 0 5 0 0 5 0 0 5 0 0 5 0 0 5 0 0 5 0 0 5 0 0 5 0 0 5 0 0 5 0 0 5 0 0 5 0 0 5 0 0 5 0 0 5 0 0 5 0 0 5 0 0 5 0 0 5 0 0 5 0 0 5 0 0 5 0 0 5 0 0 5 0 0 5 0 0 5 0 0 5 0 0 5 0 0 5 0 0 5 0 0 5 0 0 5 0 0 5 0 0 5 0 0 5 0 0 5 0 0 5 0 0 5 0 0 5 0 0
5 0 0 5 0 0 5 0 0 5 0 0 5 0 0 5 0 0 5 0 0 5 0 0 5 0 0 5 0 0 5 0 0 5 0 0 5 0 0 5 0 0 5 0 0 5 0 0 5 0 0 5 0 0 5 0 0 5 0 0 5 0 0 5 0 0 5 0 0 5 0 0 5 0 0 5 0 0 5 0 0 5 0 0 5 0 0 5 0 0 5 0 0 5 0 0 5 0 0 5 0 0 5 0 0 5 0 0 5 0 0 5 0 0 5 0 0 5 0 0 5 0 0 5 0 0 5 0 0 5 0 0 5 0 0 5 0 0 5 0 0 5 0 0 5 0 0 5 0 0 5 0 0 5 0 0 5 0 0 5 0 0 5 0 0 5 0 0 5 0 0 5 0 0 5 0 0 5 0 0 5 0 0 5 0 0 5 0 0 5 0 0 5 0 0 5 0 0 5 0 0 5 0 0 5 0 0 5 0 0 5 0 0 5 0 0 5 0 0 5 0 0 5 0 0 5 0 0 5 0 0 5 0 0 5 0 0 5 0 0 5 0 0 5 0 0 5 0 0 5 0 0 5 0 0 5 0 0 5 0 0 5 0 0 5 0 0 5 0 0 5 0 0 5 0 0 5 0 0 5 0 0 5 0 0 5 0 0 5 0 0 5 0 0 5 0 0 5 0 0 5 0 0 5 0 0 5 0 0 5 0 0 5 0 0 5 0 0 5 0 0 5 0 0 5 0 0 5 0 0 5 0 0 5 0 0 5 0 0 5 0 0 5 0 0 5 0 0 5 0 0 5 0 0 5 0 0 5 0 0 5 0 0 5 0 0 5 0 0 5 0 0 5 0 0 5 0 0 5 0 0 5 0 0 5 0 0 5 0 0 5 0 0 5 0 0 5 0 0 5 0 0 5 0 0 5 0 0 5 0 0 5 0 0 5 0 0 5 0 0 5 0 0 5 0 0 5 0 0 5 0 0 5 0 0 5 0 0 5 0 0 5 0 0 5 0 0 5 0 0 5 0 0 5 0 0 5 0 0 5 0 0 5 0 0 5 0 0 5 0 0 5 0 0 5 0 0 5 0 0 5 0 0 5 0 0 5 0 0 5 0 0 5 0 0 5 0 0 5 0 0 5 0 0 5 0 0 5 0 0 5 0 0 5 0 0 5 0 0 5 0 0 5 0 0 5 0 0 5 0 0 5 0 0 5 0 0 5 0 0 5 0 0 5 0 0 5 0 0 5 0 0 5 0 0 5 0 0 5 0 0 5 0 0 5 0 0 5 0 0 5 0 0 5 0 0 5 0 0 5 0 0 5 0 0 5 0 0 5 0 0 5 0 0 5 0 0 5 0 0 5 0 0 5 0 0 5 0 0 5 0 0 5 0 0 5 0 0 5 0 0 5 0 0 5 0 0 5 0 0 5 0 0 5 0 0 5 0 0 5 0 0 5 0 0 5 0 0 5 0 0 5 0 0 5 0 0 5 0 0 5 0 0 5 0 0 5 0 0 5 0 0 5 0 0 5 0 0 5 0 0 5 0 0 5 0 0 5 0 0 5 0 0 5 0 0 5 0 0 5 0 0 5 0 0 5 0 0 5 0 0 5 0 0 5 0 0 5 0 0
5 0 0 5 0 0 5 0 0 5 0 0 5 0 0 5 0 0 5 0 0 5 0 0 5 0 0 5 0 0 5 0 0 5 0 0 5 0 0 5 0 0 5 0 0 5 0 0 5 0 0 5 0 0 5 0 0 5 0 0 5 0 0 5 0 0 5 0 0 5 0 0 5 0 0 5 0 0 5 0 0 5 0 0 5 0 0 5 0 0 5 0 0 5 0 0 5 0 0 5 0 0 5 0 0 5 0 0 5 0 0 5 0 0 5 0 0 5 0 0 5 0 0 5 0 0 5 0 0 5 0 0 5 0 0 5 0 0 5 0 0 5 0 0 5 0 0 5 0 0 5 0 0 5 0 0 5 0 0 5 0 0 5 0 0 5 0 0 5 0 0 5 0 0 5 0 0 5 0 0 5 0 0 5 0 0 5 0 0 5 0 0 5 0 0 5 0 0 5 0 0 5 0 0 5 0 0 5 0 0 5 0 0 5 0 0 5 0 0 5 0 0 5 0 0 5 0 0 5 0 0 5 0 0 5 0 0 5 0 0 5 0 0 5 0 0 5 0 0 5 0 0 5 0 0 5 0 0 5 0 0 5 0 0 5 0 0 5 0 0 5 0 0 5 0 0 5 0 0 5 0 0 5 0 0 5 0 0 5 0 0 5 0 0 5 0 0 5 0 0 5 0 0 5 0 0 5 0 0 5 0 0 5 0 0 5 0 0 5 0 0 5 0 0 5 0 0 5 0 0 5 0 0 5 0 0 5 0 0 5 0 0 5 0 0 5 0 0 5 0 0 5 0 0 5 0 0 5 0 0 5 0 0 5 0 0 5 0 0 5 0 0 5 0 0 5 0 0 5 0 0 5 0 0 5 0 0 5 0 0 5 0 0 5 0 0 5 0 0 5 0 0 5 0 0 5 0 0 5 0 0 5 0 0 5 0 0 5 0 0 5 0 0 5 0 0 5 0 0 5 0 0 5 0 0 5 0 0 5 0 0 5 0 0 5 0 0 5 0 0 5 0 0 5 0 0 5 0 0 5 0 0 5 0 0 5 0 0 5 0 0 5 0 0 5 0 0 5 0 0 5 0 0 5 0 0 5 0 0 5 0 0 5 0 0 5 0 0 5 0 0 5 0 0 5 0 0 5 0 0 5 0 0 5 0 0 5 0 0 5 0 0 5 0 0 5 0 0 5 0 0 5 0 0 5 0 0 5 0 0 5 0 0 5 0 0 5 0 0 5 0 0 5 0 0 5 0 0 5 0 0 5 0 0 5 0 0 5 0 0 5 0 0 5 0 0 5 0 0 5 0 0 5 0 0 5 0 0 5 0 0 5 0 0 5 0 0 5 0 0 5 0 0 5 0 0 5 0 0 5 0 0 5 0 0 5 0 0 5 0 0 5 0 0 5 0 0 5 0 0 5 0 0 5 0 0 5 0 0 5 0 0 5 0 0 5 0 0 5 0 0 5 0 0 5 0 0 5 0 0 5 0 0 5 0 0 5 0 0 5 0 0 5 0 0 5 0 0 5 0 0 5 0 0 5 0 0 5 0 0 5 0 0 5 0 0 5 0 0 5 0 0 5 0 0 5 0 0 5 0 0 5 0 0 5 0 0 5 0 0
5 0 0 5 0 0 5 0 0 5 0 0 5 0 0 5 0 0 5 0 0 5 0 0 5 0 0 5 0 0 5 0 0 5 0 0 5 0 0 5 0 0 5 0 0 5 0 0 5 0 0 5 0 0 5 0 0 5 0 0 5 0 0 5 0 0 5 0 0 5 0 0 5 0 0 5 0 0 5 0 0 5 0 0 5 0 0 5 0 0 5 0 0 5 0 0 5 0 0 5 0 0 5 0 0 5 0 0 5 0 0 5 0 0 5 0 0 5 0 0 5 0 0 5 0 0 5 0 0 5 0 0 5 0 0 5 0 0 5 0 0 5 0 0 5 0 0 5 0 0 5 0 0 5 0 0 5 0 0 5 0 0 5 0 0 5 0 0 5 0 0 5 0 0 5 0 0 5 0 0 5 0 0 5 0 0 5 0 0 5 0 0 5 0 0 5 0 0 5 0 0 5 0 0 5 0 0 5 0 0 5 0 0 5 0 0 5 0 0 5 0 0 5 0 0 5 0 0 5 0 0 5 0 0 5 0 0 5 0 0 5 0 0 5 0 0 5 0 0 5 0 0 5 0 0 5 0 0 5 0 0 5 0 0 5 0 0 5 0 0 5 0 0 5 0 0 5 0 0 5 0 0 5 0 0 5 0 0 5 0 0 5 0 0 5 0 0 5 0 0 5 0 0 5 0 0 5 0 0 5 0 0 5 0 0 5 0 0 5 0 0 5 0 0 5 0 0 5 0 0 5 0 0 5 0 0 5 0 0 5 0 0 5 0 0 5 0 0 5 0 0 5 0 0 5 0 0 5 0 0 5 0 0 5 0 0 5 0 0 5 0 0 5 0 0 5 0 0 5 0 0 5 0 0 5 0 0 5 0 0 5 0 0 5 0 0 5 0 0 5 0 0 5 0 0 5 0 0 5 0 0 5 0 0 5 0 0 5 0 0 5 0 0 5 0 0 5 0 0 5 0 0 5 0 0 5 0 0 5 0 0 5 0 0 5 0 0 5 0 0 5 0 0 5 0 0 5 0 0 5 0 0 5 0 0 5 0 0 5 0 0 5 0 0 5 0 0 5 0 0 5 0 0 5 0 0 5 0 0 5 0 0 5 0 0 5 0 0 5 0 0 5 0 0 5 0 0 5 0 0 5 0 0 5 0 0 5 0 0 5 0 0 5 0 0 5 0 0 5 0 0 5 0 0 5 0 0 5 0 0 5 0 0 5 0 0 5 0 0 5 0 0 5 0 0 5 0 0 5 0 0 5 0 0 5 0 0 5 0 0 5 0 0 5 0 0 5 0 0 5 0 0 5 0 0 5 0 0 5 0 0 5 0 0 5 0 0 5 0 0 5 0 0 5 0 0 5 0 0 5 0 0 5 0 0 5 0 0 5 0 0 5 0 0 5 0 0 5 0 0 5 0 0 5 0 0 5 0 0 5 0 0 5 0 0 5 0 0 5 0 0 5 0 0 5 0 0 5 0 0 5 0 0 5 0 0 5 0 0 5 0 0 5 0 0 5 0 0 5 0 0 5 0 0 5 0 0 5 0 0 5 0 0 5 0 0 5 0 0 5 0 0 5 0 0 5 0 0 5 0 0 5 0 0 5 0 0 5 0 0
5 0 0 5 0 0 5 0 0 5 0 0 5 0 0 5 0 0 5 0 0 5 0 0 5 0 0 5 0 0 5 0 0 5 0 0 5 0 0 5 0 0 5 0 0 5 0 0 5 0 0 5 0 0 5 0 0 5 0 0 5 0 0 5 0 0 5 0 0 5 0 0 5 0 0 5 0 0 5 0 0 5 0 0 5 0 0 5 0 0 5 0 0 5 0 0 5 0 0 5 0 0 5 0 0 5 0 0 5 0 0 5 0 0 5 0 0 5 0 0 5 0 0 5 0 0 5 0 0 5 0 0 5 0 0 5 0 0 5 0 0 5 0 0 5 0 0 5 0 0 5 0 0 5 0 0 5 0 0 5 0 0 5 0 0 5 0 0 5 0 0 5 0 0 5 0 0 5 0 0 5 0 0 5 0 0 5 0 0 5 0 0 5 0 0 5 0 0 5 0 0 5 0 0 5 0 0 5 0 0 5 0 0 5 0 0 5 0 0 5 0 0 5 0 0 5 0 0 5 0 0 5 0 0 5 0 0 5 0 0 5 0 0 5 0 0 5 0 0 5 0 0 5 0 0 5 0 0 5 0 0 5 0 0 5 0 0 5 0 0 5 0 0 5 0 0 5 0 0 5 0 0 5 0 0 5 0 0 5 0 0 5 0 0 5 0 0 5 0 0 5 0 0 5 0 0 5 0 0 5 0 0 5 0 0 5 0 0 5 0 0 5 0 0 5 0 0 5 0 0 5 0 0 5 0 0 5 0 0 5 0 0 5 0 0 5 0 0 5 0 0 5 0 0 5 0 0 5 0 0 5 0 0 5 0 0 5 0 0 5 0 0 5 0 0 5 0 0 5 0 0 5 0 0 5 0 0 5 0 0 5 0 0 5 0 0 5 0 0 5 0 0 5 0 0 5 0 0 5 0 0 5 0 0 5 0 0 5 0 0 5 0 0 5 0 0 5 0 0 5 0 0 5 0 0 5 0 0 5 0 0 5 0 0 5 0 0 5 0 0 5 0 0 5 0 0 5 0 0 5 0 0 5 0 0 5 0 0 5 0 0 5 0 0 5 0 0 5 0 0 5 0 0 5 0 0 5 0 0 5 0 0 5 0 0 5 0 0 5 0 0 5 0 0 5 0 0 5 0 0 5 0 0 5 0 0 5 0 0 5 0 0 5 0 0 5 0 0 5 0 0 5 0 0 5 0 0 5 0 0 5 0 0 5 0 0 5 0 0 5 0 0 5 0 0 5 0 0 5 0 0 5 0 0 5 0 0 5 0 0 5 0 0 5 0 0 5 0 0 5 0 0 5 0 0 5 0 0 5 0 0 5 0 0 5 0 0 5 0 0 5 0 0 5 0 0 5 0 0 5 0 0 5 0 0 5 0 0 5 0 0 5 0 0 5 0 0 5 0 0 5 0 0 5 0 0 5 0 0 5 0 0 5 0 0 5 0 0 5 0 0 5 0 0 5 0 0 5 0 0 5 0 0 5 0 0 5 0 0 5 0 0 5 0 0 5 0 0 5 0 0 5 0 0 5 0 0 5 0 0 5 0 0 5 0 0 5 0 0 5 0 0 5 0 0 5 0 0 5 0 0 5 0 0 5 0 0 5 0 0
5 0 0 5 0 0 5 0 0 5 0 0 5 0 0 5 0 0 5 0 0 5 0 0 5 0 0 5 0 0 5 0 0 5 0 0 5 0 0 5 0 0 5 0 0 5 0 0 5 0 0 5 0 0 5 0 0 5 0 0 5 0 0 5 0 0 5 0 0 5 0 0 5 0 0 5 0 0 5 0 0 5 0 0 5 0 0 5 0 0 5 0 0 5 0 0 5 0 0 5 0 0 5 0 0 5 0 0 5 0 0 5 0 0 5 0 0 5 0 0 5 0 0 5 0 0 5 0 0 5 0 0 5 0 0 5 0 0 5 0 0 5 0 0 5 0 0 5 0 0 5 0 0 5 0 0 5 0 0 5 0 0 5 0 0 5 0 0 5 0 0 5 0 0 5 0 0 5 0 0 5 0 0 5 0 0 5 0 0 5 0 0 5 0 0 5 0 0 5 0 0 5 0 0 5 0 0 5 0 0 5 0 0 5 0 0 5 0 0 5 0 0 5 0 0 5 0 0 5 0 0 5 0 0 5 0 0 5 0 0 5 0 0 5 0 0 5 0 0 5 0 0 5 0 0 5 0 0 5 0 0 5 0 0 5 0 0 5 0 0 5 0 0 5 0 0 5 0 0 5 0 0 5 0 0 5 0 0 5 0 0 5 0 0 5 0 0 5 0 0 5 0 0 5 0 0 5 0 0 5 0 0 5 0 0 5 0 0 5 0 0 5 0 0 5 0 0 5 0 0 5 0 0 5 0 0 5 0 0 5 0 0 5 0 0 5 0 0 5 0 0 5 0 0 5 0 0 5 0 0 5 0 0 5 0 0 5 0 0 5 0 0 5 0 0 5 0 0 5 0 0 5 0 0 5 0 0 5 0 0 5 0 0 5 0 0 5 0 0 5 0 0 5 0 0 5 0 0 5 0 0 5 0 0 5 0 0 5 0 0 5 0 0 5 0 0 5 0 0 5 0 0 5 0 0 5 0 0 5 0 0 5 0 0 5 0 0 5 0 0 5 0 0 5 0 0 5 0 0 5 0 0 5 0 0 5 0 0 5 0 0 5 0 0 5 0 0 5 0 0 5 0 0 5 0 0 5 0 0 5 0 0 5 0 0 5 0 0 5 0 0 5 0 0 5 0 0 5 0 0 5 0 0 5 0 0 5 0 0 5 0 0 5 0 0 5 0 0 5 0 0 5 0 0 5 0 0 5 0 0 5 0 0 5 0 0 5 0 0 5 0 0 5 0 0 5 0 0 5 0 0 5 0 0 5 0 0 5 0 0 5 0 0 5 0 0 5 0 0 5 0 0 5 0 0 5 0 0 5 0 0 5 0 0 5 0 0 5 0 0 5 0 0 5 0 0 5 0 0 5 0 0 5 0 0 5 0 0 5 0 0 5 0 0 5 0 0 5 0 0 5 0 0 5 0 0 5 0 0 5 0 0 5 0 0 5 0 0 5 0 0 5 0 0 5 0 0 5 0 0 5 0 0 5 0 0 5 0 0 5 0 0 5 0 0 5 0 0 5 0 0 5 0 0 5 0 0 5 0 0 5 0 0 5 0 0 5 0 0 5 0 0 5 0 0 5 0 0 5 0 0 5 0 0 5 0 0 5 0 0
5 0 0 5 0 0 5 0 0 5 0 0 5 0 0 5 0 0 5 0 0 5 0 0 5 0 0 5 0 0 5 0 0 5 0 0 5 0 0 5 0 0 5 0 0 5 0 0 5 0 0 5 0 0 5 0 0 5 0 0 5 0 0 5 0 0 5 0 0 5 0 0 5 0 0 5 0 0 5 0 0 5 0 0 5 0 0 5 0 0 5 0 0 5 0 0 5 0 0 5 0 0 5 0 0 5 0 0 5 0 0 5 0 0 5 0 0 5 0 0 5 0 0 5 0 0 5 0 0 5 0 0 5 0 0 5 0 0 5 0 0 5 0 0 5 0 0 5 0 0 5 0 0 5 0 0 5 0 0 5 0 0 5 0 0 5 0 0 5 0 0 5 0 0 5 0 0 5 0 0 5 0 0 5 0 0 5 0 0 5 0 0 5 0 0 5 0 0 5 0 0 5 0 0 5 0 0 5 0 0 5 0 0 5 0 0 5 0 0 5 0 0 5 0 0 5 0 0 5 0 0 5 0 0 5 0 0 5 0 0 5 0 0 5 0 0 5 0 0 5 0 0 5 0 0 5 0 0 5 0 0 5 0 0 5 0 0 5 0 0 5 0 0 5 0 0 5 0 0 5 0 0 5 0 0 5 0 0 5 0 0 5 0 0 5 0 0 5 0 0 5 0 0 5 0 0 5 0 0 5 0 0 5 0 0 5 0 0 5 0 0 5 0 0 5 0 0 5 0 0 5 0 0 5 0 0 5 0 0 5 0 0 5 0 0 5 0 0 5 0 0 5 0 0 5 0 0 5 0 0 5 0 0 5 0 0 5 0 0 5 0 0 5 0 0 5 0 0 5 0 0 5 0 0 5 0 0 5 0 0 5 0 0 5 0 0 5 0 0 5 0 0 5 0 0 5 0 0 5 0 0 5 0 0 5 0 0 5 0 0 5 0 0 5 0 0 5 0 0 5 0 0 5 0 0 5 0 0 5 0 0 5 0 0 5 0 0 5 0 0 5 0 0 5 0 0 5 0 0 5 0 0 5 0 0 5 0 0 5 0 0 5 0 0 5 0 0 5 0 0 5 0 0 5 0 0 5 0 0 5 0 0 5 0 0 5 0 0 5 0 0 5 0 0 5 0 0 5 0 0 5 0 0 5 0 0 5 0 0 5 0 0 5 0 0 5 0 0 5 0 0 5 0 0 5 0 0 5 0 0 5 0 0 5 0 0 5 0 0 5 0 0 5 0 0 5 0 0 5 0 0 5 0 0 5 0 0 5 0 0 5 0 0 5 0 0 5 0 0 5 0 0 5 0 0 5 0 0 5 0 0 5 0 0 5 0 0 5 0 0 5 0 0 5 0 0 5 0 0 5 0 0 5 0 0 5 0 0 5 0 0 5 0 0 5 0 0 5 0 0 5 0 0 5 0 0 5 0 0 5 0 0 5 0 0 5 0 0 5 0 0 5 0 0 5 0 0 5 0 0 5 0 0 5 0 0 5 0 0 5 0 0 5 0 0 5 0 0 5 0 0 5 0 0 5 0 0 5 0 0 5 0 0 5 0 0 5 0 0 5 0 0 5 0 0 5 0 0 5 0 0 5 0 0 5 0 0 5 0 0
5 0 0 5 0 0 5 0 0 5 0 0 5 0 0 5 0 0 5 0 0 5 0 0 5 0 0 5 0 0 5 0 0 5 0 0 5 0 0 5 0 0 5 0 0 5 0 0 5 0 0 5 0 0 5 0 0 5 0 0 5 0 0 5 0 0 5 0 0 5 0 0 5 0 0 5 0 0 5 0 0 5 0 0 5 0 0 5 0 0 5 0 0 5 0 0 5 0 0 5 0 0 5 0 0 5 0 0 5 0 0 5 0 0 5 0 0 5 0 0 5 0 0 5 0 0 5 0 0 5 0 0 5 0 0 5 0 0 5 0 0 5 0 0 5 0 0 5 0 0 5 0 0 5 0 0 5 0 0 5 0 0 5 0 0 5 0 0 5 0 0 5 0 0 5 0 0 5 0 0 5 0 0 5 0 0 5 0 0 5 0 0 5 0 0 5 0 0 5 0 0 5 0 0 5 0 0 5 0 0 5 0 0 5 0 0 5 0 0 5 0 0 5 0 0 5 0 0 5 0 0 5 0 0 5 0 0 5 0 0 5 0 0 5 0 0 5 0 0 5 0 0 5 0 0 5 0 0 5 0 0 5 0 0 5 0 0 5 0 0 5 0 0 5 0 0 5 0 0 5 0 0 5 0 0 5 0 0 5 0 0 5 0 0 5 0 0 5 0 0 5 0 0 5 0 0 5 0 0 5 0 0 5 0 0 5 0 0 5 0 0 5 0 0 5 0 0 5 0 0 5 0 0 5 0 0 5 0 0 5 0 0 5 0 0 5 0 0 5 0 0 5 0 0 5 0 0 5 0 0 5 0 0 5 0 0 5 0 0 5 0 0 5 0 0 5 0 0 5 0 0 5 0 0 5 0 0 5 0 0 5 0 0 5 0 0 5 0 0 5 0 0 5 0 0 5 0 0 5 0 0 5 0 0 5 0 0 5 0 0 5 0 0 5 0 0 5 0 0 5 0 0 5 0 0 5 0 0 5 0 0 5 0 0 5 0 0 5 0 0 5 0 0 5 0 0 5 0 0 5 0 0 5 0 0 5 0 0 5 0 0 5 0 0 5 0 0 5 0 0 5 0 0 5 0 0 5 0 0 5 0 0 5 0 0 5 0 0 5 0 0 5 0 0 5 0 0 5 0 0 5 0 0 5 0 0 5 0 0 5 0 0 5 0 0 5 0 0 5 0 0 5 0 0 5 0 0 5 0 0 5 0 0 5 0 0 5 0 0 5 0 0 5 0 0 5 0 0 5 0 0 5 0 0 5 0 0 5 0 0 5 0 0 5 0 0 5 0 0 5 0 0 5 0 0 5 0 0 5 0 0 5 0 0 5 0 0 5 0 0 5 0 0 5 0 0 5 0 0 5 0 0 5 0 0 5 0 0 5 0 0 5 0 0 5 0 0 5 0 0 5 0 0 5 0 0 5 0 0 5 0 0 5 0 0 5 0 0 5 0 0 5 0 0 5 0 0 5 0 0 5 0 0 5 0 0 5 0 0 5 0 0 5 0 0 5 0 0 5 0 0 5 0 0 5 0 0 5 0 0 5 0 0 5 0 0 5 0 0 5 0 0 5 0 0 5 0 0 5 0 0 5 0 0 5 0 0 5 0 0
5 0 0 5 0 0 5 0 0 5 0 0 5 0 0 5 0 0 5 0 0 5 0 0 5 0 0 5 0 0 5 0 0 5 0 0 5 0 0 5 0 0 5 0 0 5 0 0 5 0 0 5 0 0 5 0 0 5 0 0 5 0 0 5 0 0 5 0 0 5 0 0 5 0 0 5 0 0 5 0 0 5 0 0 5 0 0 5 0 0 5 0 0 5 0 0 5 0 0 5 0 0 5 0 0 5 0 0 5 0 0 5 0 0 5 0 0 5 0 0 5 0 0 5 0 0 5 0 0 5 0 0 5 0 0 5 0 0 5 0 0 5 0 0 5 0 0 5 0 0 5 0 0 5 0 0 5 0 0 5 0 0 5 0 0 5 0 0 5 0 0 5 0 0 5 0 0 5 0 0 5 0 0 5 0 0 5 0 0 5 0 0 5 0 0 5 0 0 5 0 0 5 0 0 5 0 0 5 0 0 5 0 0 5 0 0 5 0 0 5 0 0 5 0 0 5 0 0 5 0 0 5 0 0 5 0 0 5 0 0 5 0 0 5 0 0 5 0 0 5 0 0 5 0 0 5 0 0 5 0 0 5 0 0 5 0 0 5 0 0 5 0 0 5 0 0 5 0 0 5 0 0 5 0 0 5 0 0 5 0 0 5 0 0 5 0 0 5 0 0 5 0 0 5 0 0 5 0 0 5 0 0 5 0 0 5 0 0 5 0 0 5 0 0 5 0 0 5 0 0 5 0 0 5 0 0 5 0 0 5 0 0 5 0 0 5 0 0 5 0 0 5 0 0 5 0 0 5 0 0 5 0 0 5 0 0 5 0 0 5 0 0 5 0 0 5 0 0 5 0 0 5 0 0 5 0 0 5 0 0 5 0 0 5 0 0 5 0 0 5 0 0 5 0 0 5 0 0 5 0 0 5 0 0 5 0 0 5 0 0 5 0 0 5 0 0 5 0 0 5 0 0 5 0 0 5 0 0 5 0 0 5 0 0 5 0 0 5 0 0 5 0 0 5 0 0 5 0 0 5 0 0 5 0 0 5 0 0 5 0 0 5 0 0 5 0 0 5 0 0 5 0 0 5 0 0 5 0 0 5 0 0 5 0 0 5 0 0 5 0 0 5 0 0 5 0 0 5 0 0 5 0 0 5 0 0 5 0 0 5 0 0 5 0 0 5 0 0 5 0 0 5 0 0 5 0 0 5 0 0 5 0 0 5 0 0 5 0 0 5 0 0 5 0 0 5 0 0 5 0 0 5 0 0 5 0 0 5 0 0 5 0 0 5 0 0 5 0 0 5 0 0 5 0 0 5 0 0 5 0 0 5 0 0 5 0 0 5 0 0 5 0 0 5 0 0 5 0 0 5 0 0 5 0 0 5 0 0 5 0 0 5 0 0 5 0 0 5 0 0 5 0 0 5 0 0 5 0 0 5 0 0 5 0 0 5 0 0 5 0 0 5 0 0 5 0 0 5 0 0 5 0 0 5 0 0 5 0 0 5 0 0 5 0 0 5 0 0 5 0 0 5 0 0 5 0 0 5 0 0 5 0 0 5 0 0 5 0 0 5 0 0 5 0 0 5 0 0 5 0 0 5 0 0 5 0 0 5 0 0
5 0 0 5 0 0 5 0 0 5 0 0 5 0 0 5 0 0 5 0 0 5 0 0 5 0 0 5 0 0 5 0 0 5 0 0 5 0 0 5 0 0 5 0 0 5 0 0 5 0 0 5 0 0 5 0 0 5 0 0 5 0 0 5 0 0 5 0 0 5 0 0 5 0 0 5 0 0 5 0 0 5 0 0 5 0 0 5 0 0 5 0 0 5 0 0 5 0 0 5 0 0 5 0 0 5 0 0 5 0 0 5 0 0 5 0 0 5 0 0 5 0 0 5 0 0 5 0 0 5 0 0 5 0 0 5 0 0 5 0 0 5 0 0 5 0 0 5 0 0 5 0 0 5 0 0 5 0 0 5 0 0 5 0 0 5 0 0 5 0 0 5 0 0 5 0 0 5 0 0 5 0 0 5 0 0 5 0 0 5 0 0 5 0 0 5 0 0 5 0 0 5 0 0 5 0 0 5 0 0 5 0 0 5 0 0 5 0 0 5 0 0 5 0 0 5 0 0 5 0 0 5 0 0 5 0 0 5 0 0 5 0 0 5 0 0 5 0 0 5 0 0 5 0 0 5 0 0 5 0 0 5 0 0 5 0 0 5 0 0 5 0 0 5 0 0 5 0 0 5 0 0 5 0 0 5 0 0 5 0 0 5 0 0 5 0 0 5 0 0 5 0 0 5 0 0 5 0 0 5 0 0 5 0 0 5 0 0 5 0 0 5 0 0 5 0 0 5 0 0 5 0 0 5 0 0 5 0 0 5 0 0 5 0 0 5 0 0 5 0 0 5 0 0 5 0 0 5 0 0 5 0 0 5 0 0 5 0 0 5 0 0 5 0 0 5 0 0 5 0 0 5 0 0 5 0 0 5 0 0 5 0 0 5 0 0 5 0 0 5 0 0 5 0 0 5 0 0 5 0 0 5 0 0 5 0 0 5 0 0 5 0 0 5 0 0 5 0 0 5 0 0 5 0 0 5 0 0 5 0 0 5 0 0 5 0 0 5 0 0 5 0 0 5 0 0 5 0 0 5 0 0 5 0 0 5 0 0 5 0 0 5 0 0 5 0 0 5 0 0 5 0 0 5 0 0 5 0 0 5 0 0 5 0 0 5 0 0 5 0 0 5 0 0 5 0 0 5 0 0 5 0 0 5 0 0 5 0 0 5 0 0 5 0 0 5 0 0 5 0 0 5 0 0 5 0 0 5 0 0 5 0 0 5 0 0 5 0 0 5 0 0 5 0 0 5 0 0 5 0 0 5 0 0 5 0 0 5 0 0 5 0 0 5 0 0 5 0 0 5 0 0 5 0 0 5 0 0 5 0 0 5 0 0 5 0 0 5 0 0 5 0 0 5 0 0 5 0 0 5 0 0 5 0 0 5 0 0 5 0 0 5 0 0 5 0 0 5 0 0 5 0 0 5 0 0 5 0 0 5 0 0 5 0 0 5 0 0 5 0 0 5 0 0 5 0 0 5 0 0 5 0 0 5 0 0 5 0 0 5 0 0 5 0 0 5 0 0 5 0 0 5 0 0 5 0 0 5 0 0 5 0 0 5 0 0 5 0 0 5 0 0 5 0 0 5 0 0 5 0 0 5 0 0 5 0 0 5 0 0
5 0 0 5 0 0 5 0 0 5 0 0 5 0 0 5 0 0 5 0 0 5 0 0 5 0 0 5 0 0 5 0 0 5 0 0 5 0 0 5 0 0 5 0 0 5 0 0 5 0 0 5 0 0 5 0 0 5 0 0 5 0 0 5 0 0 5 0 0 5 0 0 5 0 0 5 0 0 5 0 0 5 0 0 5 0 0 5 0 0 5 0 0 5 0 0 5 0 0 5 0 0 5 0 0 5 0 0 5 0 0 5 0 0 5 0 0 5 0 0 5 0 0 5 0 0 5 0 0 5 0 0 5 0 0 5 0 0 5 0 0 5 0 0 5 0 0 5 0 0 5 0 0 5 0 0 5 0 0 5 0 0 5 0 0 5 0 0 5 0 0 5 0 0 5 0 0 5 0 0 5 0 0 5 0 0 5 0 0 5 0 0 5 0 0 5 0 0 5 0 0 5 0 0 5 0 0 5 0 0 5 0 0 5 0 0 5 0 0 5 0 0 5 0 0 5 0 0 5 0 0 5 0 0 5 0 0 5 0 0 5 0 0 5 0 0 5 0 0 5 0 0 5 0 0 5 0 0 5 0 0 5 0 0 5 0 0 5 0 0 5 0 0 5 0 0 5 0 0 5 0 0 5 0 0 5 0 0 5 0 0 5 0 0 5 0 0 5 0 0 5 0 0 5 0 0 5 0 0 5 0 0 5 0 0 5 0 0 5 0 0 5 0 0 5 0 0 5 0 0 5 0 0 5 0 0 5 0 0 5 0 0 5 0 0 5 0 0 5 0 0 5 0 0 5 0 0 5 0 0 5 0 0 5 0 0 5 0 0 5 0 0 5 0 0 5 0 0 5 0 0 5 0 0 5 0 0 5 0 0 5 0 0 5 0 0 5 0 0 5 0 0 5 0 0 5 0 0 5 0 0 5 0 0 5 0 0 5 0 0 5 0 0 5 0 0 5 0 0 5 0 0 5 0 0 5 0 0 5 0 0 5 0 0 5 0 0 5 0 0 5 0 0 5 0 0 5 0 0 5 0 0 5 0 0 5 0 0 5 0 0 5 0 0 5 0 0 5 0 0 5 0 0 5 0 0 5 0 0 5 0 0 5 0 0 5 0 0 5 0 0 5 0 0 5 0 0 5 0 0 5 0 0 5 0 0 5 0 0 5 0 0 5 0 0 5 0 0 5 0 0 5 0 0 5 0 0 5 0 0 5 0 0 5 0 0 5 0 0 5 0 0 5 0 0 5 0 0 5 0 0 5 0 0 5 0 0 5 0 0 5 0 0 5 0 0 5 0 0 5 0 0 5 0 0 5 0 0 5 0 0 5 0 0 5 0 0 5 0 0 5 0 0 5 0 0 5 0 0 5 0 0 5 0 0 5 0 0 5 0 0 5 0 0 5 0 0 5 0 0 5 0 0 5 0 0 5 0 0 5 0 0 5 0 0 5 0 0 5 0 0 5 0 0 5 0 0 5 0 0 5 0 0 5 0 0 5 0 0 5 0 0 5 0 0 5 0 0 5 0 0 5 0 0 5 0 0 5 0 0 5 0 0 5 0 0 5 0 0 5 0 0 5 0 0 5 0 0 5 0 0 5 0 0 5 0 0 5 0 0
5 0 0 5 0 0 5 0 0 5 0 0 5 0 0 5 0 0 5 0 0 5 0 0 5 0 0 5 0 0 5 0 0 5 0 0 5 0 0 5 0 0 5 0 0 5 0 0 5 0 0 5 0 0 5 0 0 5 0 0 5 0 0 5 0 0 5 0 0 5 0 0 5 0 0 5 0 0 5 0 0 5 0 0 5 0 0 5 0 0 5 0 0 5 0 0 5 0 0 5 0 0 5 0 0 5 0 0 5 0 0 5 0 0 5 0 0 5 0 0 5 0 0 5 0 0 5 0 0 5 0 0 5 0 0 5 0 0 5 0 0 5 0 0 5 0 0 5 0 0 5 0 0 5 0 0 5 0 0 5 0 0 5 0 0 5 0 0 5 0 0 5 0 0 5 0 0 5 0 0 5 0 0 5 0 0 5 0 0 5 0 0 5 0 0 5 0 0 5 0 0 5 0 0 5 0 0 5 0 0 5 0 0 5 0 0 5 0 0 5 0 0 5 0 0 5 0 0 5 0 0 5 0 0 5 0 0 5 0 0 5 0 0 5 0 0 5 0 0 5 0 0 5 0 0 5 0 0 5 0 0 5 0 0 5 0 0 5 0 0 5 0 0 5 0 0 5 0 0 5 0 0 5 0 0 5 0 0 5 0 0 5 0 0 5 0 0 5 0 0 5 0 0 5 0 0 5 0 0 5 0 0 5 0 0 5 0 0 5 0 0 5 0 0 5 0 0 5 0 0 5 0 0 5 0 0 5 0 0 5 0 0 5 0 0 5 0 0 5 0 0 5 0 0 5 0 0 5 0 0 5 0 0 5 0 0 5 0 0 5 0 0 5 0 0 5 0 0 5 0 0 5 0 0 5 0 0 5 0 0 5 0 0 5 0 0 5 0 0 5 0 0 5 0 0 5 0 0 5 0 0 5 0 0 5 0 0 5 0 0 5 0 0 5 0 0 5 0 0 5 0 0 5 0 0 5 0 0 5 0 0 5 0 0 5 0 0 5 0 0 5 0 0 5 0 0 5 0 0 5 0 0 5 0 0 5 0 0 5 0 0 5 0 0 5 0 0 5 0 0 5 0 0 5 0 0 5 0 0 5 0 0 5 0 0 5 0 0 5 0 0 5 0 0 5 0 0 5 0 0 5 0 0 5 0 0 5 0 0 5 0 0 5 0 0 5 0 0 5 0 0 5 0 0 5 0 0 5 0 0 5 0 0 5 0 0 5 0 0 5 0 0 5 0 0 5 0 0 5 0 0 5 0 0 5 0 0 5 0 0 5 0 0 5 0 0 5 0 0 5 0 0 5 0 0 5 0 0 5 0 0 5 0 0 5 0 0 5 0 0 5 0 0 5 0 0 5 0 0 5 0 0 5 0 0 5 0 0 5 0 0 5 0 0 5 0 0 5 0 0 5 0 0 5 0 0 5 0 0 5 0 0 5 0 0 5 0 0 5 0 0 5 0 0 5 0 0 5 0 0 5 0 0 5 0 0 5 0 0 5 0 0 5 0 0 5 0 0 5 0 0 5 0 0 5 0 0 5 0 0 5 0 0 5 0 0 5 0 0 5 0 0 5 0 0 5 0 0 5 0 0 5 0 0 5 0 0 5 0 0
5 0 0 5 0 0 5 0 0 5 0 0 5 0 0 5 0 0 5 0 0 5 0 0 5 0 0 5 0 0 5 0 0 5 0 0 5 0 0 5 0 0 5 0 0 5 0 0 5 0 0 5 0 0 5 0 0 5 0 0 5 0 0 5 0 0 5 0 0 5 0 0 5 0 0 5 0 0 5 0 0 5 0 0 5 0 0 5 0 0 5 0 0 5 0 0 5 0 0 5 0 0 5 0 0 5 0 0 5 0 0 5 0 0 5 0 0 5 0 0 5 0 0 5 0 0 5 0 0 5 0 0 5 0 0 5 0 0 5 0 0 5 0 0 5 0 0 5 0 0 5 0 0 5 0 0 5 0 0 5 0 0 5 0 0 5 0 0 5 0 0 5 0 0 5 0 0 5 0 0 5 0 0 5 0 0 5 0 0 5 0 0 5 0 0 5 0 0 5 0 0 5 0 0 5 0 0 5 0 0 5 0 0 5 0 0 5 0 0 5 0 0 5 0 0 5 0 0 5 0 0 5 0 0 5 0 0 5 0 0 5 0 0 5 0 0 5 0 0 5 0 0 5 0 0 5 0 0 5 0 0 5 0 0 5 0 0 5 0 0 5 0 0 5 0 0 5 0 0 5 0 0 5 0 0 5 0 0 5 0 0 5 0 0 5 0 0 5 0 0 5 0 0 5 0 0 5 0 0 5 0 0 5 0 0 5 0 0 5 0 0 5 0 0 5 0 0 5 0 0 5 0 0 5 0 0 5 0 0 5 0 0 5 0 0 5 0 0 5 0 0 5 0 0 5 0 0 5 0 0 5 0 0 5 0 0 5 0 0 5 0 0 5 0 0 5 0 0 5 0 0 5 0 0 5 0 0 5 0 0 5 0 0 5 0 0 5 0 0 5 0 0 5 0 0 5 0 0 5 0 0 5 0 0 5 0 0 5 0 0 5 0 0 5 0 0 5 0 0 5 0 0 5 0 0 5 0 0 5 0 0 5 0 0 5 0 0 5 0 0 5 0 0 5 0 0 5 0 0 5 0 0 5 0 0 5 0 0 5 0 0 5 0 0 5 0 0 5 0 0 5 0 0 5 0 0 5 0 0 5 0 0 5 0 0 5 0 0 5 0 0 5 0 0 5 0 0 5 0 0 5 0 0 5 0 0 5 0 0 5 0 0 5 0 0 5 0 0 5 0 0 5 0 0 5 0 0 5 0 0 5 0 0 5 0 0 5 0 0 5 0 0 5 0 0 5 0 0 5 0 0 5 0 0 5 0 0 5 0 0 5 0 0 5 0 0 5 0 0 5 0 0 5 0 0 5 0 0 5 0 0 5 0 0 5 0 0 5 0 0 5 0 0 5 0 0 5 0 0 5 0 0 5 0 0 5 0 0 5 0 0 5 0 0 5 0 0 5 0 0 5 0 0 5 0 0 5 0 0 5 0 0 5 0 0 5 0 0 5 0 0 5 0 0 5 0 0 5 0 0 5 0 0 5 0 0 5 0 0 5 0 0 5 0 0 5 0 0 5 0 0 5 0 0 5 0 0 5 0 0 5 0 0 5 0 0 5 0 0 5 0 0 5 0 0 5 0 0 5 0 0 5 0 0 5 0 0 5 0 0
5 0 0 5 0 0 5 0 0 5 0 0 5 0 0 5 0 0 5 0 0 5 0 0 5 0 0 5 0 0 5 0 0 5 0 0 5 0 0 5 0 0 5 0 0 5 0 0 5 0 0 5 0 0 5 0 0 5 0 0 5 0 0 5 0 0 5 0 0 5 0 0 5 0 0 5 0 0 5 0 0 5 0 0 5 0 0 5 0 0 5 0 0 5 0 0 5 0 0 5 0 0 5 0 0 5 0 0 5 0 0 5 0 0 5 0 0 5 0 0 5 0 0 5 0 0 5 0 0 5 0 0 5 0 0 5 0 0 5 0 0 5 0 0 5 0 0 5 0 0 5 0 0 5 0 0 5 0 0 5 0 0 5 0 0 5 0 0 5 0 0 5 0 0 5 0 0 5 0 0 5 0 0 5 0 0 5 0 0 5 0 0 5 0 0 5 0 0 5 0 0 5 0 0 5 0 0 5 0 0 5 0 0 5 0 0 5 0 0 5 0 0 5 0 0 5 0 0 5 0 0 5 0 0 5 0 0 5 0 0 5 0 0 5 0 0 5 0 0 5 0 0 5 0 0 5 0 0 5 0 0 5 0 0 5 0 0 5 0 0 5 0 0 5 0 0 5 0 0 5 0 0 5 0 0 5 0 0 5 0 0 5 0 0 5 0 0 5 0 0 5 0 0 5 0 0 5 0 0 5 0 0 5 0 0 5 0 0 5 0 0 5 0 0 5 0 0 5 0 0 5 0 0 5 0 0 5 0 0 5 0 0 5 0 0 5 0 0 5 0 0 5 0 0 5 0 0 5 0 0 5 0 0 5 0 0 5 0 0 5 0 0 5 0 0 5 0 0 5 0 0 5 0 0 5 0 0 5 0 0 5 0 0 5 0 0 5 0 0 5 0 0 5 0 0 5 0 0 5 0 0 5 0 0 5 0 0 5 0 0 5 0 0 5 0 0 5 0 0 5 0 0 5 0 0 5 0 0 5 0 0 5 0 0 5 0 0 5 0 0 5 0 0 5 0 0 5 0 0 5 0 0 5 0 0 5 0 0 5 0 0 5 0 0 5 0 0 5 0 0 5 0 0 5 0 0 5 0 0 5 0 0 5 0 0 5 0 0 5 0 0 5 0 0 5 0 0 5 0 0 5 0 0 5 0 0 5 0 0 5 0 0 5 0 0 5 0 0 5 0 0 5 0 0 5 0 0 5 0 0 5 0 0 5 0 0 5 0 0 5 0 0 5 0 0 5 0 0 5 0 0 5 0 0 5 0 0 5 0 0 5 0 0 5 0 0 5 0 0 5 0 0 5 0 0 5 0 0 5 0 0 5 0 0 5 0 0 5 0 0 5 0 0 5 0 0 5 0 0 5 0 0 5 0 0 5 0 0 5 0 0 5 0 0 5 0 0 5 0 0 5 0 0 5 0 0 5 0 0 5 0 0 5 0 0 5 0 0 5 0 0 5 0 0 5 0 0 5 0 0 5 0 0 5 0 0 5 0 0 5 0 0 5 0 0 5 0 0 5 0 0 5 0 0 5 0 0 5 0 0 5 0 0 5 0 0 5 0 0 5 0 0 5 0 0 5 0 0 5 0 0 5 0 0 5 0 0 5 0 0
5 0 0 5 0 0 5 0 0 5 0 0 5 0 0 5 0 0 5 0 0 5 0 0 5 0 0 5 0 0 5 0 0 5 0 0 5 0 0 5 0 0 5 0 0 5 0 0 5 0 0 5 0 0 5 0 0 5 0 0 5 0 0 5 0 0 5 0 0 5 0 0 5 0 0 5 0 0 5 0 0 5 0 0 5 0 0 5 0 0 5 0 0 5 0 0 5 0 0 5 0 0 5 0 0 5 0 0 5 0 0 5 0 0 5 0 0 5 0 0 5 0 0 5 0 0 5 0 0 5 0 0 5 0 0 5 0 0 5 0 0 5 0 0 5 0 0 5 0 0 5 0 0 5 0 0 5 0 0 5 0 0 5 0 0 5 0 0 5 0 0 5 0 0 5 0 0 5 0 0 5 0 0 5 0 0 5 0 0 5 0 0 5 0 0 5 0 0 5 0 0 5 0 0 5 0 0 5 0 0 5 0 0 5 0 0 5 0 0 5 0 0 5 0 0 5 0 0 5 0 0 5 0 0 5 0 0 5 0 0 5 0 0 5 0 0 5 0 0 5 0 0 5 0 0 5 0 0 5 0 0 5 0 0 5 0 0 5 0 0 5 0 0 5 0 0 5 0 0 5 0 0 5 0 0 5 0 0 5 0 0 5 0 0 5 0 0 5 0 0 5 0 0 5 0 0 5 0 0 5 0 0 5 0 0 5 0 0 5 0 0 5 0 0 5 0 0 5 0 0 5 0 0 5 0 0 5 0 0 5 0 0 5 0 0 5 0 0 5 0 0 5 0 0 5 0 0 5 0 0 5 0 0 5 0 0 5 0 0 5 0 0 5 0 0 5 0 0 5 0 0 5 0 0 5 0 0 5 0 0 5 0 0 5 0 0 5 0 0 5 0 0 5 0 0 5 0 0 5 0 0 5 0 0 5 0 0 5 0 0 5 0 0 5 0 0 5 0 0 5 0 0 5 0 0 5 0 0 5 0 0 5 0 0 5 0 0 5 0 0 5 0 0 5 0 0 5 0 0 5 0 0 5 0 0 5 0 0 5 0 0 5 0 0 5 0 0 5 0 0 5 0 0 5 0 0 5 0 0 5 0 0 5 0 0 5 0 0 5 0 0 5 0 0 5 0 0 5 0 0 5 0 0 5 0 0 5 0 0 5 0 0 5 0 0 5 0 0 5 0 0 5 0 0 5 0 0 5 0 0 5 0 0 5 0 0 5 0 0 5 0 0 5 0 0 5 0 0 5 0 0 5 0 0 5 0 0 5 0 0 5 0 0 5 0 0 5 0 0 5 0 0 5 0 0 5 0 0 5 0 0 5 0 0 5 0 0 5 0 0 5 0 0 5 0 0 5 0 0 5 0 0 5 0 0 5 0 0 5 0 0 5 0 0 5 0 0 5 0 0 5 0 0 5 0 0 5 0 0 5 0 0 5 0 0 5 0 0 5 0 0 5 0 0 5 0 0 5 0 0 5 0 0 5 0 0 5 0 0 5 0 0 5 0 0 5 0 0 5 0 0 5 0 0 5 0 0 5 0 0 5 0 0 5 0 0 5 0 0 5 0 0 5 0 0 5 0 0 5 0 0 5 0 0 5 0 0 5 0 0
5 0 0 5 0 0 5 0 0 5 0 0 5 0 0 5 0 0 5 0 0 5 0 0 5 0 0 5 0 0 5 0 0 5 0 0 5 0 0 5 0 0 5 0 0 5 0 0 5 0 0 5 0 0 5 0 0 5 0 0 5 0 0 5 0 0 5 0 0 5 0 0 5 0 0 5 0 0 5 0 0 5 0 0 5 0 0 5 0 0 5 0 0 5 0 0 5 0 0 5 0 0 5 0 0 5 0 0 5 0 0 5 0 0 5 0 0 5 0 0 5 0 0 5 0 0 5 0 0 5 0 0 5 0 0 5 0 0 5 0 0 5 0 0 5 0 0 5 0 0 5 0 0 5 0 0 5 0 0 5 0 0 5 0 0 5 0 0 5 0 0 5 0 0 5 0 0 5 0 0 5 0 0 5 0 0 5 0 0 5 0 0 5 0 0 5 0 0 5 0 0 5 0 0 5 0 0 5 0 0 5 0 0 5 0 0 5 0 0 5 0 0 5 0 0 5 0 0 5 0 0 5 0 0 5 0 0 5 0 0 5 0 0 5 0 0 5 0 0 5 0 0 5 0 0 5 0 0 5 0 0 5 0 0 5 0 0 5 0 0 5 0 0 5 0 0 5 0 0 5 0 0 5 0 0 5 0 0 5 0 0 5 0 0 5 0 0 5 0 0 5 0 0 5 0 0 5 0 0 5 0 0 5 0 0 5 0 0 5 0 0 5 0 0 5 0 0 5 0 0 5 0 0 5 0 0 5 0 0 5 0 0 5 0 0 5 0 0 5 0 0 5 0 0 5 0 0 5 0 0 5 0 0 5 0 0 5 0 0 5 0 0 5 0 0 5 0 0 5 0 0 5 0 0 5 0 0 5 0 0 5 0 0 5 0 0 5 0 0 5 0 0 5 0 0 5 0 0 5 0 0 5 0 0 5 0 0 5 0 0 5 0 0 5 0 0 5 0 0 5 0 0 5 0 0 5 0 0 5 0 0 5 0 0 5 0 0 5 0 0 5 0 0 5 0 0 5 0 0 5 0 0 5 0 0 5 0 0 5 0 0 5 0 0 5 0 0 5 0 0 5 0 0 5 0 0 5 0 0 5 0 0 5 0 0 5 0 0 5 0 0 5 0 0 5 0 0 5 0 0 5 0 0 5 0 0 5 0 0 5 0 0 5 0 0 5 0 0 5 0 0 5 0 0 5 0 0 5 0 0 5 0 0 5 0 0 5 0 0 5 0 0 5 0 0 5 0 0 5 0 0 5 0 0 5 0 0 5 0 0 5 0 0 5 0 0 5 0 0 5 0 0 5 0 0 5 0 0 5 0 0 5 0 0 5 0 0 5 0 0 5 0 0 5 0 0 5 0 0 5 0 0 5 0 0 5 0 0 5 0 0 5 0 0 5 0 0 5 0 0 5 0 0 5 0 0 5 0 0 5 0 0 5 0 0 5 0 0 5 0 0 5 0 0 5 0 0 5 0 0 5 0 0 5 0 0 5 0 0 5 0 0 5 0 0 5 0 0 5 0 0 5 0 0 5 0 0 5 0 0 5 0 0 5 0 0 5 0 0 5 0 0 5 0 0 5 0 0 5 0 0 5 0 0 5 0 0 5 0 0
5 0 0 5 0 0 5 0 0 5 0 0 5 0 0 5 0 0 5 0 0 5 0 0 5 0 0 5 0 0 5 0 0 5 0 0 5 0 0 5 0 0 5 0 0 5 0 0 5 0 0 5 0 0 5 0 0 5 0 0 5 0 0 5 0 0 5 0 0 5 0 0 5 0 0 5 0 0 5 0 0 5 0 0 5 0 0 5 0 0 5 0 0 5 0 0 5 0 0 5 0 0 5 0 0 5 0 0 5 0 0 5 0 0 5 0 0 5 0 0 5 0 0 5 0 0 5 0 0 5 0 0 5 0 0 5 0 0 5 0 0 5 0 0 5 0 0 5 0 0 5 0 0 5 0 0 5 0 0 5 0 0 5 0 0 5 0 0 5 0 0 5 0 0 5 0 0 5 0 0 5 0 0 5 0 0 5 0 0 5 0 0 5 0 0 5 0 0 5 0 0 5 0 0 5 0 0 5 0 0 5 0 0 5 0 0 5 0 0 5 0 0 5 0 0 5 0 0 5 0 0 5 0 0 5 0 0 5 0 0 5 0 0 5 0 0 5 0 0 5 0 0 5 0 0 5 0 0 5 0 0 5 0 0 5 0 0 5 0 0 5 0 0 5 0 0 5 0 0 5 0 0 5 0 0 5 0 0 5 0 0 5 0 0 5 0 0 5 0 0 5 0 0 5 0 0 5 0 0 5 0 0 5 0 0 5 0 0 5 0 0 5 0 0 5 0 0 5 0 0 5 0 0 5 0 0 5 0 0 5 0 0 5 0 0 5 0 0 5 0 0 5 0 0 5 0 0 5 0 0 5 0 0 5 0 0 5 0 0 5 0 0 5 0 0 5 0 0 5 0 0 5 0 0 5 0 0 5 0 0 5 0 0 5 0 0 5 0 0 5 0 0 5 0 0 5 0 0 5 0 0 5 0 0 5 0 0 5 0 0 5 0 0 5 0 0 5 0 0 5 0 0 5 0 0 5 0 0 5 0 0 5 0 0 5 0 0 5 0 0 5 0 0 5 0 0 5 0 0 5 0 0 5 0 0 5 0 0 5 0 0 5 0 0 5 0 0 5 0 0 5 0 0 5 0 0 5 0 0 5 0 0 5 0 0 5 0 0 5 0 0 5 0 0 5 0 0 5 0 0 5 0 0 5 0 0 5 0 0 5 0 0 5 0 0 5 0 0 5 0 0 5 0 0 5 0 0 5 0 0 5 0 0 5 0 0 5 0 0 5 0 0 5 0 0 5 0 0 5 0 0 5 0 0 5 0 0 5 0 0 5 0 0 5 0 0 5 0 0 5 0 0 5 0 0 5 0 0 5 0 0 5 0 0 5 0 0 5 0 0 5 0 0 5 0 0 5 0 0 5 0 0 5 0 0 5 0 0 5 0 0 5 0 0 5 0 0 5 0 0 5 0 0 5 0 0 5 0 0 5 0 0 5 0 0 5 0 0 5 0 0 5 0 0 5 0 0 5 0 0 5 0 0 5 0 0 5 0 0 5 0 0 5 0 0 5 0 0 5 0 0 5 0 0 5 0 0 5 0 0 5 0 0 5 0 0 5 0 0 5 0 0 5 0 0 5 0 0 5 0 0 5 0 0 5 0 0 5 0 0
5 0 0 5 0 0 5 0 0 5 0 0 5 0 0 5 0 0 5 0 0 5 0 0 5 0 0 5 0 0 5 0 0 5 0 0 5 0 0 5 0 0 5 0 0 5 0 0 5 0 0 5 0 0 5 0 0 5 0 0 5 0 0 5 0 0 5 0 0 5 0 0 5 0 0 5 0 0 5 0 0 5 0 0 5 0 0 5 0 0 5 0 0 5 0 0 5 0 0 5 0 0 5 0 0 5 0 0 5 0 0 5 0 0 5 0 0 5 0 0 5 0 0 5 0 0 5 0 0 5 0 0 5 0 0 5 0 0 5 0 0 5 0 0 5 0 0 5 0 0 5 0 0 5 0 0 5 0 0 5 0 0 5 0 0 5 0 0 5 0 0 5 0 0 5 0 0 5 0 0 5 0 0 5 0 0 5 0 0 5 0 0 5 0 0 5 0 0 5 0 0 5 0 0 5 0 0 5 0 0 5 0 0 5 0 0 5 0 0 5 0 0 5 0 0 5 0 0 5 0 0 5 0 0 5 0 0 5 0 0 5 0 0 5 0 0 5 0 0 5 0 0 5 0 0 5 0 0 5 0 0 5 0 0 5 0 0 5 0 0 5 0 0 5 0 0 5 0 0 5 0 0 5 0 0 5 0 0 5 0 0 5 0 0 5 0 0 5 0 0 5 0 0 5 0 0 5 0 0 5 0 0 5 0 0 5 0 0 5 0 0 5 0 0 5 0 0 5 0 0 5 0 0 5 0 0 5 0 0 5 0 0 5 0 0 5 0 0 5 0 0 5 0 0 5 0 0 5 0 0 5 0 0 5 0 0 5 0 0 5 0 0 5 0 0 5 0 0 5 0 0 5 0 0 5 0 0 5 0 0 5 0 0 5 0 0 5 0 0 5 0 0 5 0 0 5 0 0 5 0 0 5 0 0 5 0 0 5 0 0 5 0 0 5 0 0 5 0 0 5 0 0 5 0 0 5 0 0 5 0 0 5 0 0 5 0 0 5 0 0 5 0 0 5 0 0 5 0 0 5 0 0 5 0 0 5 0 0 5 0 0 5 0 0 5 0 0 5 0 0 5 0 0 5 0 0 5 0 0 5 0 0 5 0 0 5 0 0 5 0 0 5 0 0 5 0 0 5 0 0 5 0 0 5 0 0 5 0 0 5 0 0 5 0 0 5 0 0 5 0 0 5 0 0 5 0 0 5 0 0 5 0 0 5 0 0 5 0 0 5 0 0 5 0 0 5 0 0 5 0 0 5 0 0 5 0 0 5 0 0 5 0 0 5 0 0 5 0 0 5 0 0 5 0 0 5 0 0 5 0 0 5 0 0 5 0 0 5 0 0 5 0 0 5 0 0 5 0 0 5 0 0 5 0 0 5 0 0 5 0 0 5 0 0 5 0 0 5 0 0 5 0 0 5 0 0 5 0 0 5 0 0 5 0 0 5 0 0 5 0 0 5 0 0 5 0 0 5 0 0 5 0 0 5 0 0 5 0 0 5 0 0 5 0 0 5 0 0 5 0 0 5 0 0 5 0 0 5 0 0 5 0 0 5 0 0 5 0 0 5 0 0 5 0 0 5 0 0 5 0 0 5 0 0 5 0 0 5 0 0
5 0 0 5 0 0 5 0 0 5 0 0 5 0 0 5 0 0 5 0 0 5 0 0 5 0 0 5 0 0 5 0 0 5 0 0 5 0 0 5 0 0 5 0 0 5 0 0 5 0 0 5 0 0 5 0 0 5 0 0 5 0 0 5 0 0 5 0 0 5 0 0 5 0 0 5 0 0 5 0 0 5 0 0 5 0 0 5 0 0 5 0 0 5 0 0 5 0 0 5 0 0 5 0 0 5 0 0 5 0 0 5 0 0 5 0 0 5 0 0 5 0 0 5 0 0 5 0 0 5 0 0 5 0 0 5 0 0 5 0 0 5 0 0 5 0 0 5 0 0 5 0 0 5 0 0 5 0 0 5 0 0 5 0 0 5 0 0 5 0 0 5 0 0 5 0 0 5 0 0 5 0 0 5 0 0 5 0 0 5 0 0 5 0 0 5 0 0 5 0 0 5 0 0 5 0 0 5 0 0 5 0 0 5 0 0 5 0 0 5 0 0 5 0 0 5 0 0 5 0 0 5 0 0 5 0 0 5 0 0 5 0 0 5 0 0 5 0 0 5 0 0 5 0 0 5 0 0 5 0 0 5 0 0 5 0 0 5 0 0 5 0 0 5 0 0 5 0 0 5 0 0 5 0 0 5 0 0 5 0 0 5 0 0 5 0 0 5 0 0 5 0 0 5 0 0 5 0 0 5 0 0 5 0 0 5 0 0 5 0 0 5 0 0 5 0 0 5 0 0 5 0 0 5 0 0 5 0 0 5 0 0 5 0 0 5 0 0 5 0 0 5 0 0 5 0 0 5 0 0 5 0 0 5 0 0 5 0 0 5 0 0 5 0 0 5 0 0 5 0 0 5 0 0 5 0 0 5 0 0 5 0 0 5 0 0 5 0 0 5 0 0 5 0 0 5 0 0 5 0 0 5 0 0 5 0 0 5 0 0 5 0 0 5 0 0 5 0 0 5 0 0 5 0 0 5 0 0 5 0 0 5 0 0 5 0 0 5 0 0 5 0 0 5 0 0 5 0 0 5 0 0 5 0 0 5 0 0 5 0 0 5 0 0 5 0 0 5 0 0 5 0 0 5 0 0 5 0 0 5 0 0 5 0 0 5 0 0 5 0 0 5 0 0 5 0 0 5 0 0 5 0 0 5 0 0 5 0 0 5 0 0 5 0 0 5 0 0 5 0 0 5 0 0 5 0 0 5 0 0 5 0 0 5 0 0 5 0 0 5 0 0 5 0 0 5 0 0 5 0 0 5 0 0 5 0 0 5 0 0 5 0 0 5 0 0 5 0 0 5 0 0 5 0 0 5 0 0 5 0 0 5 0 0 5 0 0 5 0 0 5 0 0 5 0 0 5 0 0 5 0 0 5 0 0 5 0 0 5 0 0 5 0 0 5 0 0 5 0 0 5 0 0 5 0 0 5 0 0 5 0 0 5 0 0 5 0 0 5 0 0 5 0 0 5 0 0 5 0 0 5 0 0 5 0 0 5 0 0 5 0 0 5 0 0 5 0 0 5 0 0 5 0 0 5 0 0 5 0 0 5 0 0 5 0 0 5 0 0 5 0 0 5 0 0 5 0 0 5 0 0 5 0 0 5 0 0 5 0 0
5 0 0 5 0 0 5 0 0 5 0 0 5 0 0 5 0 0 5 0 0 5 0 0 5 0 0 5 0 0 5 0 0 5 0 0 5 0 0 5 0 0 5 0 0 5 0 0 5 0 0 5 0 0 5 0 0 5 0 0 5 0 0 5 0 0 5 0 0 5 0 0 5 0 0 5 0 0 5 0 0 5 0 0 5 0 0 5 0 0 5 0 0 5 0 0 5 0 0 5 0 0 5 0 0 5 0 0 5 0 0 5 0 0 5 0 0 5 0 0 5 0 0 5 0 0 5 0 0 5 0 0 5 0 0 5 0 0 5 0 0 5 0 0 5 0 0 5 0 0 5 0 0 5 0 0 5 0 0 5 0 0 5 0 0 5 0 0 5 0 0 5 0 0 5 0 0 5 0 0 5 0 0 5 0 0 5 0 0 5 0 0 5 0 0 5 0 0 5 0 0 5 0 0 5 0 0 5 0 0 5 0 0 5 0 0 5 0 0 5 0 0 5 0 0 5 0 0 5 0 0 5 0 0 5 0 0 5 0 0 5 0 0 5 0 0 5 0 0 5 0 0 5 0 0 5 0 0 5 0 0 5 0 0 5 0 0 5 0 0 5 0 0 5 0 0 5 0 0 5 0 0 5 0 0 5 0 0 5 0 0 5 0 0 5 0 0 5 0 0 5 0 0 5 0 0 5 0 0 5 0 0 5 0 0 5 0 0 5 0 0 5 0 0 5 0 0 5 0 0 5 0 0 5 0 0 5 0 0 5 0 0 5 0 0 5 0 0 5 0 0 5 0 0 5 0 0 5 0 0 5 0 0 5 0 0 5 0 0 5 0 0 5 0 0 5 0 0 5 0 0 5 0 0 5 0 0 5 0 0 5 0 0 5 0 0 5 0 0 5 0 0 5 0 0 5 0 0 5 0 0 5 0 0 5 0 0 5 0 0 5 0 0 5 0 0 5 0 0 5 0 0 5 0 0 5 0 0 5 0 0 5 0 0 5 0 0 5 0 0 5 0 0 5 0 0 5 0 0 5 0 0 5 0 0 5 0 0 5 0 0 5 0 0 5 0 0 5 0 0 5 0 0 5 0 0 5 0 0 5 0 0 5 0 0 5 0 0 5 0 0 5 0 0 5 0 0 5 0 0 5 0 0 5 0 0 5 0 0 5 0 0 5 0 0 5 0 0 5 0 0 5 0 0 5 0 0 5 0 0 5 0 0 5 0 0 5 0 0 5 0 0 5 0 0 5 0 0 5 0 0 5 0 0 5 0 0 5 0 0 5 0 0 5 0 0 5 0 0 5 0 0 5 0 0 5 0 0 5 0 0 5 0 0 5 0 0 5 0 0 5 0 0 5 0 0 5 0 0 5 0 0 5 0 0 5 0 0 5 0 0 5 0 0 5 0 0 5 0 0 5 0 0 5 0 0 5 0 0 5 0 0 5 0 0 5 0 0 5 0 0 5 0 0 5 0 0 5 0 0 5 0 0 5 0 0 5 0 0 5 0 0 5 0 0 5 0 0 5 0 0 5 0 0 5 0 0 5 0 0 5 0 0 5 0 0 5 0 0 5 0 0 5 0 0 5 0 0 5 0 0 5 0 0 5 0 0 5 0 0
5 0 0 5 0 0 5 0 0 5 0 0 5 0 0 5 0 0 5 0 0 5 0 0 5 0 0 5 0 0 5 0 0 5 0 0 5 0 0 5 0 0 5 0 0 5 0 0 5 0 0 5 0 0 5 0 0 5 0 0 5 0 0 5 0 0 5 0 0 5 0 0 5 0 0 5 0 0 5 0 0 5 0 0 5 0 0 5 0 0 5 0 0 5 0 0 5 0 0 5 0 0 5 0 0 5 0 0 5 0 0 5 0 0 5 0 0 5 0 0 5 0 0 5 0 0 5 0 0 5 0 0 5 0 0 5 0 0 5 0 0 5 0 0 5 0 0 5 0 0 5 0 0 5 0 0 5 0 0 5 0 0 5 0 0 5 0 0 5 0 0 5 0 0 5 0 0 5 0 0 5 0 0 5 0 0 5 0 0 5 0 0 5 0 0 5 0 0 5 0 0 5 0 0 5 0 0 5 0 0 5 0 0 5 0 0 5 0 0 5 0 0 5 0 0 5 0 0 5 0 0 5 0 0 5 0 0 5 0 0 5 0 0 5 0 0 5 0 0 5 0 0 5 0 0 5 0 0 5 0 0 5 0 0 5 0 0 5 0 0 5 0 0 5 0 0 5 0 0 5 0 0 5 0 0 5 0 0 5 0 0 5 0 0 5 0 0 5 0 0 5 0 0 5 0 0 5 0 0 5 0 0 5 0 0 5 0 0 5 0 0 5 0 0 5 0 0 5 0 0 5 0 0 5 0 0 5 0 0 5 0 0 5 0 0 5 0 0 5 0 0 5 0 0 5 0 0 5 0 0 5 0 0 5 0 0 5 0 0 5 0 0 5 0 0 5 0 0 5 0 0 5 0 0 5 0 0 5 0 0 5 0 0 5 0 0 5 0 0 5 0 0 5 0 0 5 0 0 5 0 0 5 0 0 5 0 0 5 0 0 5 0 0 5 0 0 5 0 0 5 0 0 5 0 0 5 0 0 5 0 0 5 0 0 5 0 0 5 0 0 5 0 0 5 0 0 5 0 0 5 0 0 5 0 0 5 0 0 5 0 0 5 0 0 5 0 0 5 0 0 5 0 0 5 0 0 5 0 0 5 0 0 5 0 0 5 0 0 5 0 0 5 0 0 5 0 0 5 0 0 5 0 0 5 0 0 5 0 0 5 0 0 5 0 0 5 0 0 5 0 0 5 0 0 5 0 0 5 0 0 5 0 0 5 0 0 5 0 0 5 0 0 5 0 0 5 0 0 5 0 0 5 0 0 5 0 0 5 0 0 5 0 0 5 0 0 5 0 0 5 0 0 5 0 0 5 0 0 5 0 0 5 0 0 5 0 0 5 0 0 5 0 0 5 0 0 5 0 0 5 0 0 5 0 0 5 0 0 5 0 0 5 0 0 5 0 0 5 0 0 5 0 0 5 0 0 5 0 0 5 0 0 5 0 0 5 0 0 5 0 0 5 0 0 5 0 0 5 0 0 5 0 0 5 0 0 5 0 0 5 0 0 5 0 0 5 0 0 5 0 0 5 0 0 5 0 0 5 0 0 5 0 0 5 0 0 5 0 0 5 0 0 5 0 0 5 0 0 5 0 0 5 0 0 5 0 0 5 0 0
5 0 0 5 0 0 5 0 0 5 0 0 5 0 0 5 0 0 5 0 0 5 0 0 5 0 0 5 0 0 5 0 0 5 0 0 5 0 0 5 0 0 5 0 0 5 0 0 5 0 0 5 0 0 5 0 0 5 0 0 5 0 0 5 0 0 5 0 0 5 0 0 5 0 0 5 0 0 5 0 0 5 0 0 5 0 0 5 0 0 5 0 0 5 0 0 5 0 0 5 0 0 5 0 0 5 0 0 5 0 0 5 0 0 5 0 0 5 0 0 5 0 0 5 0 0 5 0 0 5 0 0 5 0 0 5 0 0 5 0 0 5 0 0 5 0 0 5 0 0 5 0 0 5 0 0 5 0 0 5 0 0 5 0 0 5 0 0 5 0 0 5 0 0 5 0 0 5 0 0 5 0 0 5 0 0 5 0 0 5 0 0 5 0 0 5 0 0 5 0 0 5 0 0 5 0 0 5 0 0 5 0 0 5 0 0 5 0 0 5 0 0 5 0 0 5 0 0 5 0 0 5 0 0 5 0 0 5 0 0 5 0 0 5 0 0 5 0 0 5 0 0 5 0 0 5 0 0 5 0 0 5 0 0 5 0 0 5 0 0 5 0 0 5 0 0 5 0 0 5 0 0 5 0 0 5 0 0 5 0 0 5 0 0 5 0 0 5 0 0 5 0 0 5 0 0 5 0 0 5 0 0 5 0 0 5 0 0 5 0 0 5 0 0 5 0 0 5 0 0 5 0 0 5 0 0 5 0 0 5 0 0 5 0 0 5 0 0 5 0 0 5 0 0 5 0 0 5 0 0 5 0 0 5 0 0 5 0 0 5 0 0 5 0 0 5 0 0 5 0 0 5 0 0 5 0 0 5 0 0 5 0 0 5 0 0 5 0 0 5 0 0 5 0 0 5 0 0 5 0 0 5 0 0 5 0 0 5 0 0 5 0 0 5 0 0 5 0 0 5 0 0 5 0 0 5 0 0 5 0 0 5 0 0 5 0 0 5 0 0 5 0 0 5 0 0 5 0 0 5 0 0 5 0 0 5 0 0 5 0 0 5 0 0 5 0 0 5 0 0 5 0 0 5 0 0 5 0 0 5 0 0 5 0 0 5 0 0 5 0 0 5 0 0 5 0 0 5 0 0 5 0 0 5 0 0 5 0 0 5 0 0 5 0 0 5 0 0 5 0 0 5 0 0 5 0 0 5 0 0 5 0 0 5 0 0 5 0 0 5 0 0 5 0 0 5 0 0 5 0 0 5 0 0 5 0 0 5 0 0 5 0 0 5 0 0 5 0 0 5 0 0 5 0 0 5 0 0 5 0 0 5 0 0 5 0 0 5 0 0 5 0 0 5 0 0 5 0 0 5 0 0 5 0 0 5 0 0 5 0 0 5 0 0 5 0 0 5 0 0 5 0 0 5 0 0 5 0 0 5 0 0 5 0 0 5 0 0 5 0 0 5 0 0 5 0 0 5 0 0 5 0 0 5 0 0 5 0 0 5 0 0 5 0 0 5 0 0 5 0 0 5 0 0 5 0 0 5 0 0 5 0 0 5 0 0 5 0 0 5 0 0 5 0 0 5 0 0 5 0 0 5 0 0 5 0 0 5 0 0
5 0 0 5 0 0 5 0 0 5 0 0 5 0 0 5 0 0 5 0 0 5 0 0 5 0 0 5 0 0 5 0 0 5 0 0 5 0 0 5 0 0 5 0 0 5 0 0 5 0 0 5 0 0 5 0 0 5 0 0 5 0 0 5 0 0 5 0 0 5 0 0 5 0 0 5 0 0 5 0 0 5 0 0 5 0 0 5 0 0 5 0 0 5 0 0 5 0 0 5 0 0 5 0 0 5 0 0 5 0 0 5 0 0 5 0 0 5 0 0 5 0 0 5 0 0 5 0 0 5 0 0 5 0 0 5 0 0 5 0 0 5 0 0 5 0 0 5 0 0 5 0 0 5 0 0 5 0 0 5 0 0 5 0 0 5 0 0 5 0 0 5 0 0 5 0 0 5 0 0 5 0 0 5 0 0 5 0 0 5 0 0 5 0 0 5 0 0 5 0 0 5 0 0 5 0 0 5 0 0 5 0 0 5 0 0 5 0 0 5 0 0 5 0 0 5 0 0 5 0 0 5 0 0 5 0 0 5 0 0 5 0 0 5 0 0 5 0 0 5 0 0 5 0 0 5 0 0 5 0 0 5 0 0 5 0 0 5 0 0 5 0 0 5 0 0 5 0 0 5 0 0 5 0 0 5 0 0 5 0 0 5 0 0 5 0 0 5 0 0 5 0 0 5 0 0 5 0 0 5 0 0 5 0 0 5 0 0 5 0 0 5 0 0 5 0 0 5 0 0 5 0 0 5 0 0 5 0 0 5 0 0 5 0 0 5 0 0 5 0 0 5 0 0 5 0 0 5 0 0 5 0 0 5 0 0 5 0 0 5 0 0 5 0 0 5 0 0 5 0 0 5 0 0 5 0 0 5 0 0 5 0 0 5 0 0 5 0 0 5 0 0 5 0 0 5 0 0 5 0 0 5 0 0 5 0 0 5 0 0 5 0 0 5 0 0 5 0 0 5 0 0 5 0 0 5 0 0 5 0 0 5 0 0 5 0 0 5 0 0 5 0 0 5 0 0 5 0 0 5 0 0 5 0 0 5 0 0 5 0 0 5 0 0 5 0 0 5 0 0 5 0 0 5 0 0 5 0 0 5 0 0 5 0 0 5 0 0 5 0 0 5 0 0 5 0 0 5 0 0 5 0 0 5 0 0 5 0 0 5 0 0 5 0 0 5 0 0 5 0 0 5 0 0 5 0 0 5 0 0 5 0 0 5 0 0 5 0 0 5 0 0 5 0 0 5 0 0 5 0 0 5 0 0 5 0 0 5 0 0 5 0 0 5 0 0 5 0 0 5 0 0 5 0 0 5 0 0 5 0 0 5 0 0 5 0 0 5 0 0 5 0 0 5 0 0 5 0 0 5 0 0 5 0 0 5 0 0 5 0 0 5 0 0 5 0 0 5 0 0 5 0 0 5 0 0 5 0 0 5 0 0 5 0 0 5 0 0 5 0 0 5 0 0 5 0 0 5 0 0 5 0 0 5 0 0 5 0 0 5 0 0 5 0 0 5 0 0 5 0 0 5 0 0 5 0 0 5 0 0 5 0 0 5 0 0 5 0 0 5 0 0 5 0 0 5 0 0 5 0 0 5 0 0 5 0 0 5 0 0
5 0 0 5 0 0 5 0 0 5 0 0 5 0 0 5 0 0 5 0 0 5 0 0 5 0 0 5 0 0 5 0 0 5 0 0 5 0 0 5 0 0 5 0 0 5 0 0 5 0 0 5 0 0 5 0 0 5 0 0 5 0 0 5 0 0 5 0 0 5 0 0 5 0 0 5 0 0 5 0 0 5 0 0 5 0 0 5 0 0 5 0 0 5 0 0 5 0 0 5 0 0 5 0 0 5 0 0 5 0 0 5 0 0 5 0 0 5 0 0 5 0 0 5 0 0 5 0 0 5 0 0 5 0 0 5 0 0 5 0 0 5 0 0 5 0 0 5 0 0 5 0 0 5 0 0 5 0 0 5 0 0 5 0 0 5 0 0 5 0 0 5 0 0 5 0 0 5 0 0 5 0 0 5 0 0 5 0 0 5 0 0 5 0 0 5 0 0 5 0 0 5 0 0 5 0 0 5 0 0 5 0 0 5 0 0 5 0 0 5 0 0 5 0 0 5 0 0 5 0 0 5 0 0 5 0 0 5 0 0 5 0 0 5 0 0 5 0 0 5 0 0 5 0 0 5 0 0 5 0 0 5 0 0 5 0 0 5 0 0 5 0 0 5 0 0 5 0 0 5 0 0 5 0 0 5 0 0 5 0 0 5 0 0 5 0 0 5 0 0 5 0 0 5 0 0 5 0 0 5 0 0 5 0 0 5 0 0 5 0 0 5 0 0 5 0 0 5 0 0 5 0 0 5 0 0 5 0 0 5 0 0 5 0 0 5 0 0 5 0 0 5 0 0 5 0 0 5 0 0 5 0 0 5 0 0 5 0 0 5 0 0 5 0 0 5 0 0 5 0 0 5 0 0 5 0 0 5 0 0 5 0 0 5 0 0 5 0 0 5 0 0 5 0 0 5 0 0 5 0 0 5 0 0 5 0 0 5 0 0 5 0 0 5 0 0 5 0 0 5 0 0 5 0 0 5 0 0 5 0 0 5 0 0 5 0 0 5 0 0 5 0 0 5 0 0 5 0 0 5 0 0 5 0 0 5 0 0 5 0 0 5 0 0 5 0 0 5 0 0 5 0 0 5 0 0 5 0 0 5 0 0 5 0 0 5 0 0 5 0 0 5 0 0 5 0 0 5 0 0 5 0 0 5 0 0 5 0 0 5 0 0 5 0 0 5 0 0 5 0 0 5 0 0 5 0 0 5 0 0 5 0 0 5 0 0 5 0 0 5 0 0 5 0 0 5 0 0 5 0 0 5 0 0 5 0 0 5 0 0 5 0 0 5 0 0 5 0 0 5 0 0 5 0 0 5 0 0 5 0 0 5 0 0 5 0 0 5 0 0 5 0 0 5 0 0 5 0 0 5 0 0 5 0 0 5 0 0 5 0 0 5 0 0 5 0 0 5 0 0 5 0 0 5 0 0 5 0 0 5 0 0 5 0 0 5 0 0 5 0 0 5 0 0 5 0 0 5 0 0 5 0 0 5 0 0 5 0 0 5 0 0 5 0 0 5 0 0 5 0 0 5 0 0 5 0 0 5 0 0 5 0 0 5 0 0 5 0 0 5 0 0 5 0 0 5 0 0 5 0 0 5 0 0 5 0 0 5 0 0
5 0 0 5 0 0 5 0 0 5 0 0 5 0 0 5 0 0 5 0 0 5 0 0 5 0 0 5 0 0 5 0 0 5 0 0 5 0 0 5 0 0 5 0 0 5 0 0 5 0 0 5 0 0 5 0 0 5 0 0 5 0 0 5 0 0 5 0 0 5 0 0 5 0 0 5 0 0 5 0 0 5 0 0 5 0 0 5 0 0 5 0 0 5 0 0 5 0 0 5 0 0 5 0 0 5 0 0 5 0 0 5 0 0 5 0 0 5 0 0 5 0 0 5 0 0 5 0 0 5 0 0 5 0 0 5 0 0 5 0 0 5 0 0 5 0 0 5 0 0 5 0 0 5 0 0 5 0 0 5 0 0 5 0 0 5 0 0 5 0 0 5 0 0 5 0 0 5 0 0 5 0 0 5 0 0 5 0 0 5 0 0 5 0 0 5 0 0 5 0 0 5 0 0 5 0 0 5 0 0 5 0 0 5 0 0 5 0 0 5 0 0 5 0 0 5 0 0 5 0 0 5 0 0 5 0 0 5 0 0 5 0 0 5 0 0 5 0 0 5 0 0 5 0 0 5 0 0 5 0 0 5 0 0 5 0 0 5 0 0 5 0 0 5 0 0 5 0 0 5 0 0 5 0 0 5 0 0 5 0 0 5 0 0 5 0 0 5 0 0 5 0 0 5 0 0 5 0 0 5 0 0 5 0 0 5 0 0 5 0 0 5 0 0 5 0 0 5 0 0 5 0 0 5 0 0 5 0 0 5 0 0 5 0 0 5 0 0 5 0 0 5 0 0 5 0 0 5 0 0 5 0 0 5 0 0 5 0 0 5 0 0 5 0 0 5 0 0 5 0 0 5 0 0 5 0 0 5 0 0 5 0 0 5 0 0 5 0 0 5 0 0 5 0 0 5 0 0 5 0 0 5 0 0 5 0 0 5 0 0 5 0 0 5 0 0 5 0 0 5 0 0 5 0 0 5 0 0 5 0 0 5 0 0 5 0 0 5 0 0 5 0 0 5 0 0 5 0 0 5 0 0 5 0 0 5 0 0 5 0 0 5 0 0 5 0 0 5 0 0 5 0 0 5 0 0 5 0 0 5 0 0 5 0 0 5 0 0 5 0 0 5 0 0 5 0 0 5 0 0 5 0 0 5 0 0 5 0 0 5 0 0 5 0 0 5 0 0 5 0 0 5 0 0 5 0 0 5 0 0 5 0 0 5 0 0 5 0 0 5 0 0 5 0 0 5 0 0 5 0 0 5 0 0 5 0 0 5 0 0 5 0 0 5 0 0 5 0 0 5 0 0 5 0 0 5 0 0 5 0 0 5 0 0 5 0 0 5 0 0 5 0 0 5 0 0 5 0 0 5 0 0 5 0 0 5 0 0 5 0 0 5 0 0 5 0 0 5 0 0 5 0 0 5 0 0 5 0 0 5 0 0 5 0 0 5 0 0 5 0 0 5 0 0 5 0 0 5 0 0 5 0 0 5 0 0 5 0 0 5 0 0 5 0 0 5 0 0 5 0 0 5 0 0 5 0 0 5 0 0 5 0 0 5 0 0 5 0 0 5 0 0 5 0 0 5 0 0 5 0 0 5 0 0 5 0 0 5 0 0
5 0 0 5 0 0 5 0 0 5 0 0 5 0 0 5 0 0 5 0 0 5 0 0 5 0 0 5 0 0 5 0 0 5 0 0 5 0 0 5 0 0 5 0 0 5 0 0 5 0 0 5 0 0 5 0 0 5 0 0 5 0 0 5 0 0 5 0 0 5 0 0 5 0 0 5 0 0 5 0 0 5 0 0 5 0 0 5 0 0 5 0 0 5 0 0 5 0 0 5 0 0 5 0 0 5 0 0 5 0 0 5 0 0 5 0 0 5 0 0 5 0 0 5 0 0 5 0 0 5 0 0 5 0 0 5 0 0 5 0 0 5 0 0 5 0 0 5 0 0 5 0 0 5 0 0 5 0 0 5 0 0 5 0 0 5 0 0 5 0 0 5 0 0 5 0 0 5 0 0 5 0 0 5 0 0 5 0 0 5 0 0 5 0 0 5 0 0 5 0 0 5 0 0 5 0 0 5 0 0 5 0 0 5 0 0 5 0 0 5 0 0 5 0 0 5 0 0 5 0 0 5 0 0 5 0 0 5 0 0 5 0 0 5 0 0 5 0 0 5 0 0 5 0 0 5 0 0 5 0 0 5 0 0 5 0 0 5 0 0 5 0 0 5 0 0 5 0 0 5 0 0 5 0 0 5 0 0 5 0 0 5 0 0 5 0 0 5 0 0 5 0 0 5 0 0 5 0 0 5 0 0 5 0 0 5 0 0 5 0 0 5 0 0 5 0 0 5 0 0 5 0 0 5 0 0 5 0 0 5 0 0 5 0 0 5 0 0 5 0 0 5 0 0 5 0 0 5 0 0 5 0 0 5 0 0 5 0 0 5 0 0 5 0 0 5 0 0 5 0 0 5 0 0 5 0 0 5 0 0 5 0 0 5 0 0 5 0 0 5 0 0 5 0 0 5 0 0 5 0 0 5 0 0 5 0 0 5 0 0 5 0 0 5 0 0 5 0 0 5 0 0 5 0 0 5 0 0 5 0 0 5 0 0 5 0 0 5 0 0 5 0 0 5 0 0 5 0 0 5 0 0 5 0 0 5 0 0 5 0 0 5 0 0 5 0 0 5 0 0 5 0 0 5 0 0 5 0 0 5 0 0 5 0 0 5 0 0 5 0 0 5 0 0 5 0 0 5 0 0 5 0 0 5 0 0 5 0 0 5 0 0 5 0 0 5 0 0 5 0 0 5 0 0 5 0 0 5 0 0 5 0 0 5 0 0 5 0 0 5 0 0 5 0 0 5 0 0 5 0 0 5 0 0 5 0 0 5 0 0 5 0 0 5 0 0 5 0 0 5 0 0 5 0 0 5 0 0 5 0 0 5 0 0 5 0 0 5 0 0 5 0 0 5 0 0 5 0 0 5 0 0 5 0 0 5 0 0 5 0 0 5 0 0 5 0 0 5 0 0 5 0 0 5 0 0 5 0 0 5 0 0 5 0 0 5 0 0 5 0 0 5 0 0 5 0 0 5 0 0 5 0 0 5 0 0 5 0 0 5 0 0 5 0 0 5 0 0 5 0 0 5 0 0 5 0 0 5 0 0 5 0 0 5 0 0 5 0 0 5 0 0 5 0 0 5 0 0 5 0 0 5 0 0 5 0 0 5 0 0
0 0 0 0 0 0 0 0 0 0 0 0 0 0 0 0 0 0 0 0 0 0 0 0 0 0 0 0 0 0 0 0 0 0 0 0 0 0 0 0 0 0 0 0 0 0 0 0 0 0 0 0 0 0 0 0 0 0 0 0 0 0 0 0 0 0 0 0 0 0 0 0 0 0 0 0 0 0 0 0 0 0 0 0 0 0 0 0 0 0 0 0 0 0 0 0 0 0 0 0 0 0 0 0 0 0 0 0 0 0 0 0 0 0 0 0 0 0 0 0 0 0 0 0 0 0 0 0 0 0 0 0 0 0 0 0 0 0 0 0 0 0 0 0 0 0 0 0 0 0 0 0 0 0 0 0 0 0 0 0 0 0 0 0 0 0 0 0 0 0 0 0 0 0 0 0 0 0 0 0 0 0 0 0 0 0 0 0 0 0 0 0 0 0 0 0 0 0 0 0 0 0 0 0 0 0 0 0 0 0 0 0 0 0 0 0 0 0 0 0 0 0 0 0 0 0 0 0 0 0 0 0 0 0 0 0 0 0 0 0 0 0 0 0 0 0 0 0 0 0 0 0 0 0 0 0 0 0 0 0 0 0 0 0 0 0 0 0 0 0 0 0 0 0 0 0 0 0 0 0 0 0 0 0 0 0 0 0 0 0 0 0 0 0 0 0 0 0 0 0 0 0 0 0 0 0 0 0 0 0 0 0 0 0 0 0 0 0 0 0 0 0 0 0 0 0 0 0 0 0 0 0 0 0 0 0 0 0 0 0 0 0 0 0 0 0 0 0 0 0 0 0 0 0 0 0 0 0 0 0 0 0 0 0 0 0 0 0 0 0 0 0 0 0 0 0 0 0 0 0 0 0 0 0 0 0 0 0 0 0 0 0 0 0 0 0 0 0 0 0 0 0 0 0 0 0 0 0 0 0 0 0 0 0 0 0 0 0 0 0 0 0 0 0 0 0 0 0 0 0 0 0 0 0 0 0 0 0 0 0 0 0 0 0 0 0 0 0 0 0 0 0 0 0 0 0 0 0 0 0 0 0 0 0 0 0 0 0 0 0 0 0 0 0 0 0 0 0 0 0 0 0 0 0 0 0 0 0 0 0 0 0 0 0 0 0 0 0 0 0 0 0 0 0 0 0 0 0 0 0 0 0 0 0 0 0 0 0 0 0 0 0 0 0 0 0 0 0 0 0 0 0 0 0 0 0 0 0 0 0 0 0 0 0 0 0 0 0 0 0 0 0 0 0 0 0 0 0 0 0 0 0 0 0 0 0 0 0 0 0 0 0 0 0 0 0 0 0 0 0 0 0 0 0 0 0 0 0 0 0 0 0 0 0 0 0 0 0 0 0 0 0 0 0 0 0 0 0 0 0 0 0 0 0 0 0 0 0 0 0 0 0 0 0 0 0 0 0 0 0 0 0 0 0 0 0 0 0 0 0 0 0 0 0 0 0 0 0 0 0 0 0 0 0 0 0 0 0 0 0 0 0 0 0 0 0 0 0 0 0 0 0 0 0 0 0 0 0 0 0 0 0 0 0 0 0 0 0 0 0 0 0 0 0 0 0 0 0 0 0 0 0 0 0 0 0 0 0 0 0 0 0 0 0 0 0 0 0 0 0
0 0 0 0 0 0 0 0 0 0 0 0 0 0 0 0 0 0 0 0 0 0 0 0 0 0 0 0 0 0 0 0 0 0 0 0 0 0 0 0 0 0 0 0 0 0 0 0 0 0 0 0 0 0 0 0 0 0 0 0 0 0 0 0 0 0 0 0 0 0 0 0 0 0 0 0 0 0 0 0 0 0 0 0 0 0 0 0 0 0 0 0 0 0 0 0 0 0 0 0 0 0 0 0 0 0 0 0 0 0 0 0 0 0 0 0 0 0 0 0 0 0 0 0 0 0 0 0 0 0 0 0 0 0 0 0 0 0 0 0 0 0 0 0 0 0 0 0 0 0 0 0 0 0 0 0 0 0 0 0 0 0 0 0 0 0 0 0 0 0 0 0 0 0 0 0 0 0 0 0 0 0 0 0 0 0 0 0 0 0 0 0 0 0 0 0 0 0 0 0 0 0 0 0 0 0 0 0 0 0 0 0 0 0 0 0 0 0 0 0 0 0 0 0 0 0 0 0 0 0 0 0 0 0 0 0 0 0 0 0 0 0 0 0 0 0 0 0 0 0 0 0 0 0 0 0 0 0 0 0 0 0 0 0 0 0 0 0 0 0 0 0 0 0 0 0 0 0 0 0 0 0 0 0 0 0 0 0 0 0 0 0 0 0 0 0 0 0 0 0 0 0 0 0 0 0 0 0 0 0 0 0 0 0 0 0 0 0 0 0 0 0 0 0 0 0 0 0 0 0 0 0 0 0 0 0 0 0 0 0 0 0 0 0 0 0 0 0 0 0 0 0 0 0 0 0 0 0 0 0 0 0 0 0 0 0 0 0 0 0 0 0 0 0 0 0 0 0 0 0 0 0 0 0 0 0 0 0 0 0 0 0 0 0 0 0 0 0 0 0 0 0 0 0 0 0 0 0 0 0 0 0 0 0 0 0 0 0 0 0 0 0 0 0 0 0 0 0 0 0 0 0 0 0 0 0 0 0 0 0 0 0 0 0 0 0 0 0 0 0 0 0 0 0 0 0 0 0 0 0 0 0 0 0 0 0 0 0 0 0 0 0 0 0 0 0 0 0 0 0 0 0 0 0 0 0 0 0 0 0 0 0 0 0 0 0 0 0 0 0 0 0 0 0 0 0 0 0 0 0 0 0 0 0 0 0 0 0 0 0 0 0 0 0 0 0 0 0 0 0 0 0 0 0 0 0 0 0 0 0 0 0 0 0 0 0 0 0 0 0 0 0 0 0 0 0 0 0 0 0 0 0 0 0 0 0 0 0 0 0 0 0 0 0 0 0 0 0 0 0 0 0 0 0 0 0 0 0 0 0 0 0 0 0 0 0 0 0 0 0 0 0 0 0 0 0 0 0 0 0 0 0 0 0 0 0 0 0 0 0 0 0 0 0 0 0 0 0 0 0 0 0 0 0 0 0 0 0 0 0 0 0 0 0 0 0 0 0 0 0 0 0 0 0 0 0 0 0 0 0 0 0 0 0 0 0 0 0 0 0 0 0 0 0 0 0 0 0 0 0 0 0 0 0 0 0 0 0 0 0 0 0 0 0 0 0 0 0 0 0 0 0 0 0 0 0 0 0 0 0 0 0 0 0 0 0 0 0 0 0
0 0 0 0 0 0 0 0 0 0 0 0 0 0 0 0 0 0 0 0 0 0 0 0 0 0 0 0 0 0 0 0 0 0 0 0 0 0 0 0 0 0 0 0 0 0 0 0 0 0 0 0 0 0 0 0 0 0 0 0 0 0 0 0 0 0 0 0 0 0 0 0 0 0 0 0 0 0 0 0 0 0 0 0 0 0 0 0 0 0 0 0 0 0 0 0 0 0 0 0 0 0 0 0 0 0 0 0 0 0 0 0 0 0 0 0 0 0 0 0 0 0 0 0 0 0 0 0 0 0 0 0 0 0 0 0 0 0 0 0 0 0 0 0 0 0 0 0 0 0 0 0 0 0 0 0 0 0 0 0 0 0 0 0 0 0 0 0 0 0 0 0 0 0 0 0 0 0 0 0 0 0 0 0 0 0 0 0 0 0 0 0 0 0 0 0 0 0 0 0 0 0 0 0 0 0 0 0 0 0 0 0 0 0 0 0 0 0 0 0 0 0 0 0 0 0 0 0 0 0 0 0 0 0 0 0 0 0 0 0 0 0 0 0 0 0 0 0 0 0 0 0 0 0 0 0 0 0 0 0 0 0 0 0 0 0 0 0 0 0 0 0 0 0 0 0 0 0 0 0 0 0 0 0 0 0 0 0 0 0 0 0 0 0 0 0 0 0 0 0 0 0 0 0 0 0 0 0 0 0 0 0 0 0 0 0 0 0 0 0 0 0 0 0 0 0 0 0 0 0 0 0 0 0 0 0 0 0 0 0 0 0 0 0 0 0 0 0 0 0 0 0 0 0 0 0 0 0 0 0 0 0 0 0 0 0 0 0 0 0 0 0 0 0 0 0 0 0 0 0 0 0 0 0 0 0 0 0 0 0 0 0 0 0 0 0 0 0 0 0 0 0 0 0 0 0 0 0 0 0 0 0 0 0 0 0 0 0 0 0 0 0 0 0 0 0 0 0 0 0 0 0 0 0 0 0 0 0 0 0 0 0 0 0 0 0 0 0 0 0 0 0 0 0 0 0 0 0 0 0 0 0 0 0 0 0 0 0 0 0 0 0 0 0 0 0 0 0 0 0 0 0 0 0 0 0 0 0 0 0 0 0 0 0 0 0 0 0 0 0 0 0 0 0 0 0 0 0 0 0 0 0 0 0 0 0 0 0 0 0 0 0 0 0 0 0 0 0 0 0 0 0 0 0 0 0 0 0 0 0 0 0 0 0 0 0 0 0 0 0 0 0 0 0 0 0 0 0 0 0 0 0 0 0 0 0 0 0 0 0 0 0 0 0 0 0 0 0 0 0 0 0 0 0 0 0 0 0 0 0 0 0 0 0 0 0 0 0 0 0 0 0 0 0 0 0 0 0 0 0 0 0 0 0 0 0 0 0 0 0 0 0 0 0 0 0 0 0 0 0 0 0 0 0 0 0 0 0 0 0 0 0 0 0 0 0 0 0 0 0 0 0 0 0 0 0 0 0 0 0 0 0 0 0 0 0 0 0 0 0 0 0 0 0 0 0 0 0 0 0 0 0 0 0 0 0 0 0 0 0 0 0 0 0 0 0 0 0 0 0 0 0 0 0 0 0 0 0 0 0 0 0 0 0 0 0 0 0 0 0
0 0 0 0 0 0 0 0 0 0 0 0 0 0 0 0 0 0 0 0 0 0 0 0 0 0 0 0 0 0 0 0 0 0 0 0 0 0 0 0 0 0 0 0 0 0 0 0 0 0 0 0 0 0 0 0 0 0 0 0 0 0 0 0 0 0 0 0 0 0 0 0 0 0 0 0 0 0 0 0 0 0 0 0 0 0 0 0 0 0 0 0 0 0 0 0 0 0 0 0 0 0 0 0 0 0 0 0 0 0 0 0 0 0 0 0 0 0 0 0 0 0 0 0 0 0 0 0 0 0 0 0 0 0 0 0 0 0 0 0 0 0 0 0 0 0 0 0 0 0 0 0 0 0 0 0 0 0 0 0 0 0 0 0 0 0 0 0 0 0 0 0 0 0 0 0 0 0 0 0 0 0 0 0 0 0 0 0 0 0 0 0 0 0 0 0 0 0 0 0 0 0 0 0 0 0 0 0 0 0 0 0 0 0 0 0 0 0 0 0 0 0 0 0 0 0 0 0 0 0 0 0 0 0 0 0 0 0 0 0 0 0 0 0 0 0 0 0 0 0 0 0 0 0 0 0 0 0 0 0 0 0 0 0 0 0 0 0 0 0 0 0 0 0 0 0 0 0 0 0 0 0 0 0 0 0 0 0 0 0 0 0 0 0 0 0 0 0 0 0 0 0 0 0 0 0 0 0 0 0 0 0 0 0 0 0 0 0 0 0 0 0 0 0 0 0 0 0 0 0 0 0 0 0 0 0 0 0 0 0 0 0 0 0 0 0 0 0 0 0 0 0 0 0 0 0 0 0 0 0 0 0 0 0 0 0 0 0 0 0 0 0 0 0 0 0 0 0 0 0 0 0 0 0 0 0 0 0 0 0 0 0 0 0 0 0 0 0 0 0 0 0 0 0 0 0 0 0 0 0 0 0 0 0 0 0 0 0 0 0 0 0 0 0 0 0 0 0 0 0 0 0 0 0 0 0 0 0 0 0 0 0 0 0 0 0 0 0 0 0 0 0 0 0 0 0 0 0 0 0 0 0 0 0 0 0 0 0 0 0 0 0 0 0 0 0 0 0 0 0 0 0 0 0 0 0 0 0 0 0 0 0 0 0 0 0 0 0 0 0 0 0 0 0 0 0 0 0 0 0 0 0 0 0 0 0 0 0 0 0 0 0 0 0 0 0 0 0 0 0 0 0 0 0 0 0 0 0 0 0 0 0 0 0 0 0 0 0 0 0 0 0 0 0 0 0 0 0 0 0 0 0 0 0 0 0 0 0 0 0 0 0 0 0 0 0 0 0 0 0 0 0 0 0 0 0 0 0 0 0 0 0 0 0 0 0 0 0 0 0 0 0 0 0 0 0 0 0 0 0 0 0 0 0 0 0 0 0 0 0 0 0 0 0 0 0 0 0 0 0 0 0 0 0 0 0 0 0 0 0 0 0 0 0 0 0 0 0 0 0 0 0 0 0 0 0 0 0 0 0 0 0 0 0 0 0 0 0 0 0 0 0 0 0 0 0 0 0 0 0 0 0 0 0 0 0 0 0 0 0 0 0 0 0 0 0 0 0 0 0 0 0 0 0 0 0 0 0 0 0 0 0 0 0 0 0 0 0 0 0
0 0 0 0 0 0 0 0 0 0 0 0 0 0 0 0 0 0 0 0 0 0 0 0 0 0 0 0 0 0 0 0 0 0 0 0 0 0 0 0 0 0 0 0 0 0 0 0 0 0 0 0 0 0 0 0 0 0 0 0 0 0 0 0 0 0 0 0 0 0 0 0 0 0 0 0 0 0 0 0 0 0 0 0 0 0 0 0 0 0 0 0 0 0 0 0 0 0 0 0 0 0 0 0 0 0 0 0 0 0 0 0 0 0 0 0 0 0 0 0 0 0 0 0 0 0 0 0 0 0 0 0 0 0 0 0 0 0 0 0 0 0 0 0 0 0 0 0 0 0 0 0 0 0 0 0 0 0 0 0 0 0 0 0 0 0 0 0 0 0 0 0 0 0 0 0 0 0 0 0 0 0 0 0 0 0 0 0 0 0 0 0 0 0 0 0 0 0 0 0 0 0 0 0 0 0 0 0 0 0 0 0 0 0 0 0 0 0 0 0 0 0 0 0 0 0 0 0 0 0 0 0 0 0 0 0 0 0 0 0 0 0 0 0 0 0 0 0 0 0 0 0 0 0 0 0 0 0 0 0 0 0 0 0 0 0 0 0 0 0 0 0 0 0 0 0 0 0 0 0 0 0 0 0 0 0 0 0 0 0 0 0 0 0 0 0 0 0 0 0 0 0 0 0 0 0 0 0 0 0 0 0 0 0 0 0 0 0 0 0 0 0 0 0 0 0 0 0 0 0 0 0 0 0 0 0 0 0 0 0 0 0 0 0 0 0 0 0 0 0 0 0 0 0 0 0 0 0 0 0 0 0 0 0 0 0 0 0 0 0 0 0 0 0 0 0 0 0 0 0 0 0 0 0 0 0 0 0 0 0 0 0 0 0 0 0 0 0 0 0 0 0 0 0 0 0 0 0 0 0 0 0 0 0 0 0 0 0 0 0 0 0 0 0 0 0 0 0 0 0 0 0 0 0 0 0 0 0 0 0 0 0 0 0 0 0 0 0 0 0 0 0 0 0 0 0 0 0 0 0 0 0 0 0 0 0 0 0 0 0 0 0 0 0 0 0 0 0 0 0 0 0 0 0 0 0 0 0 0 0 0 0 0 0 0 0 0 0 0 0 0 0 0 0 0 0 0 0 0 0 0 0 0 0 0 0 0 0 0 0 0 0 0 0 0 0 0 0 0 0 0 0 0 0 0 0 0 0 0 0 0 0 0 0 0 0 0 0 0 0 0 0 0 0 0 0 0 0 0 0 0 0 0 0 0 0 0 0 0 0 0 0 0 0 0 0 0 0 0 0 0 0 0 0 0 0 0 0 0 0 0 0 0 0 0 0 0 0 0 0 0 0 0 0 0 0 0 0 0 0 0 0 0 0 0 0 0 0 0 0 0 0 0 0 0 0 0 0 0 0 0 0 0 0 0 0 0 0 0 0 0 0 0 0 0 0 0 0 0 0 0 0 0 0 0 0 0 0 0 0 0 0 0 0 0 0 0 0 0 0 0 0 0 0 0 0 0 0 0 0 0 0 0 0 0 0 0 0 0 0 0 0 0 0 0 0 0 0 0 0 0 0 0 0 0 0 0 0 0 0 0 0 0 0 0 0 0 0 0 0
0 0 0 0 0 0 0 0 0 0 0 0 0 0 0 0 0 0 0 0 0 0 0 0 0 0 0 0 0 0 0 0 0 0 0 0 0 0 0 0 0 0 0 0 0 0 0 0 0 0 0 0 0 0 0 0 0 0 0 0 0 0 0 0 0 0 0 0 0 0 0 0 0 0 0 0 0 0 0 0 0 0 0 0 0 0 0 0 0 0 0 0 0 0 0 0 0 0 0 0 0 0 0 0 0 0 0 0 0 0 0 0 0 0 0 0 0 0 0 0 0 0 0 0 0 0 0 0 0 0 0 0 0 0 0 0 0 0 0 0 0 0 0 0 0 0 0 0 0 0 0 0 0 0 0 0 0 0 0 0 0 0 0 0 0 0 0 0 0 0 0 0 0 0 0 0 0 0 0 0 0 0 0 0 0 0 0 0 0 0 0 0 0 0 0 0 0 0 0 0 0 0 0 0 0 0 0 0 0 0 0 0 0 0 0 0 0 0 0 0 0 0 0 0 0 0 0 0 0 0 0 0 0 0 0 0 0 0 0 0 0 0 0 0 0 0 0 0 0 0 0 0 0 0 0 0 0 0 0 0 0 0 0 0 0 0 0 0 0 0 0 0 0 0 0 0 0 0 0 0 0 0 0 0 0 0 0 0 0 0 0 0 0 0 0 0 0 0 0 0 0 0 0 0 0 0 0 0 0 0 0 0 0 0 0 0 0 0 0 0 0 0 0 0 0 0 0 0 0 0 0 0 0 0 0 0 0 0 0 0 0 0 0 0 0 0 0 0 0 0 0 0 0 0 0 0 0 0 0 0 0 0 0 0 0 0 0 0 0 0 0 0 0 0 0 0 0 0 0 0 0 0 0 0 0 0 0 0 0 0 0 0 0 0 0 0 0 0 0 0 0 0 0 0 0 0 0 0 0 0 0 0 0 0 0 0 0 0 0 0 0 0 0 0 0 0 0 0 0 0 0 0 0 0 0 0 0 0 0 0 0 0 0 0 0 0 0 0 0 0 0 0 0 0 0 0 0 0 0 0 0 0 0 0 0 0 0 0 0 0 0 0 0 0 0 0 0 0 0 0 0 0 0 0 0 0 0 0 0 0 0 0 0 0 0 0 0 0 0 0 0 0 0 0 0 0 0 0 0 0 0 0 0 0 0 0 0 0 0 0 0 0 0 0 0 0 0 0 0 0 0 0 0 0 0 0 0 0 0 0 0 0 0 0 0 0 0 0 0 0 0 0 0 0 0 0 0 0 0 0 0 0 0 0 0 0 0 0 0 0 0 0 0 0 0 0 0 0 0 0 0 0 0 0 0 0 0 0 0 0 0 0 0 0 0 0 0 0 0 0 0 0 0 0 0 0 0 0 0 0 0 0 0 0 0 0 0 0 0 0 0 0 0 0 0 0 0 0 0 0 0 0 0 0 0 0 0 0 0 0 0 0 0 0 0 0 0 0 0 0 0 0 0 0 0 0 0 0 0 0 0 0 0 0 0 0 0 0 0 0 0 0 0 0 0 0 0 0 0 0 0 0 0 0 0 0 0 0 0 0 0 0 0 0 0 0 0 0 0 0 0 0 0 0 0 0 0 0 0 0 0 0 0 0 0 0 0 0 0 0
0 0 0 0 0 0 0 0 0 0 0 0 0 0 0 0 0 0 0 0 0 0 0 0 0 0 0 0 0 0 0 0 0 0 0 0 0 0 0 0 0 0 0 0 0 0 0 0 0 0 0 0 0 0 0 0 0 0 0 0 0 0 0 0 0 0 0 0 0 0 0 0 0 0 0 0 0 0 0 0 0 0 0 0 0 0 0 0 0 0 0 0 0 0 0 0 0 0 0 0 0 0 0 0 0 0 0 0 0 0 0 0 0 0 0 0 0 0 0 0 0 0 0 0 0 0 0 0 0 0 0 0 0 0 0 0 0 0 0 0 0 0 0 0 0 0 0 0 0 0 0 0 0 0 0 0 0 0 0 0 0 0 0 0 0 0 0 0 0 0 0 0 0 0 0 0 0 0 0 0 0 0 0 0 0 0 0 0 0 0 0 0 0 0 0 0 0 0 0 0 0 0 0 0 0 0 0 0 0 0 0 0 0 0 0 0 0 0 0 0 0 0 0 0 0 0 0 0 0 0 0 0 0 0 0 0 0 0 0 0 0 0 0 0 0 0 0 0 0 0 0 0 0 0 0 0 0 0 0 0 0 0 0 0 0 0 0 0 0 0 0 0 0 0 0 0 0 0 0 0 0 0 0 0 0 0 0 0 0 0 0 0 0 0 0 0 0 0 0 0 0 0 0 0 0 0 0 0 0 0 0 0 0 0 0 0 0 0 0 0 0 0 0 0 0 0 0 0 0 0 0 0 0 0 0 0 0 0 0 0 0 0 0 0 0 0 0 0 0 0 0 0 0 0 0 0 0 0 0 0 0 0 0 0 0 0 0 0 0 0 0 0 0 0 0 0 0 0 0 0 0 0 0 0 0 0 0 0 0 0 0 0 0 0 0 0 0 0 0 0 0 0 0 0 0 0 0 0 0 0 0 0 0 0 0 0 0 0 0 0 0 0 0 0 0 0 0 0 0 0 0 0 0 0 0 0 0 0 0 0 0 0 0 0 0 0 0 0 0 0 0 0 0 0 0 0 0 0 0 0 0 0 0 0 0 0 0 0 0 0 0 0 0 0 0 0 0 0 0 0 0 0 0 0 0 0 0 0 0 0 0 0 0 0 0 0 0 0 0 0 0 0 0 0 0 0 0 0 0 0 0 0 0 0 0 0 0 0 0 0 0 0 0 0 0 0 0 0 0 0 0 0 0 0 0 0 0 0 0 0 0 0 0 0 0 0 0 0 0 0 0 0 0 0 0 0 0 0 0 0 0 0 0 0 0 0 0 0 0 0 0 0 0 0 0 0 0 0 0 0 0 0 0 0 0 0 0 0 0 0 0 0 0 0 0 0 0 0 0 0 0 0 0 0 0 0 0 0 0 0 0 0 0 0 0 0 0 0 0 0 0 0 0 0 0 0 0 0 0 0 0 0 0 0 0 0 0 0 0 0 0 0 0 0 0 0 0 0 0 0 0 0 0 0 0 0 0 0 0 0 0 0 0 0 0 0 0 0 0 0 0 0 0 0 0 0 0 0 0 0 0 0 0 0 0 0 0 0 0 0 0 0 0 0 0 0 0 0 0 0 0 0 0 0 0 0 0 0 0 0 0 0 0 0 0 0 0 0 0 0
0 0 0 0 0 0 0 0 0 0 0 0 0 0 0 0 0 0 0 0 0 0 0 0 0 0 0 0 0 0 0 0 0 0 0 0 0 0 0 0 0 0 0 0 0 0 0 0 0 0 0 0 0 0 0 0 0 0 0 0 0 0 0 0 0 0 0 0 0 0 0 0 0 0 0 0 0 0 0 0 0 0 0 0 0 0 0 0 0 0 0 0 0 0 0 0 0 0 0 0 0 0 0 0 0 0 0 0 0 0 0 0 0 0 0 0 0 0 0 0 0 0 0 0 0 0 0 0 0 0 0 0 0 0 0 0 0 0 0 0 0 0 0 0 0 0 0 0 0 0 0 0 0 0 0 0 0 0 0 0 0 0 0 0 0 0 0 0 0 0 0 0 0 0 0 0 0 0 0 0 0 0 0 0 0 0 0 0 0 0 0 0 0 0 0 0 0 0 0 0 0 0 0 0 0 0 0 0 0 0 0 0 0 0 0 0 0 0 0 0 0 0 0 0 0 0 0 0 0 0 0 0 0 0 0 0 0 0 0 0 0 0 0 0 0 0 0 0 0 0 0 0 0 0 0 0 0 0 0 0 0 0 0 0 0 0 0 0 0 0 0 0 0 0 0 0 0 0 0 0 0 0 0 0 0 0 0 0 0 0 0 0 0 0 0 0 0 0 0 0 0 0 0 0 0 0 0 0 0 0 0 0 0 0 0 0 0 0 0 0 0 0 0 0 0 0 0 0 0 0 0 0 0 0 0 0 0 0 0 0 0 0 0 0 0 0 0 0 0 0 0 0 0 0 0 0 0 0 0 0 0 0 0 0 0 0 0 0 0 0 0 0 0 0 0 0 0 0 0 0 0 0 0 0 0 0 0 0 0 0 0 0 0 0 0 0 0 0 0 0 0 0 0 0 0 0 0 0 0 0 0 0 0 0 0 0 0 0 0 0 0 0 0 0 0 0 0 0 0 0 0 0 0 0 0 0 0 0 0 0 0 0 0 0 0 0 0 0 0 0 0 0 0 0 0 0 0 0 0 0 0 0 0 0 0 0 0 0 0 0 0 0 0 0 0 0 0 0 0 0 0 0 0 0 0 0 0 0 0 0 0 0 0 0 0 0 0 0 0 0 0 0 0 0 0 0 0 0 0 0 0 0 0 0 0 0 0 0 0 0 0 0 0 0 0 0 0 0 0 0 0 0 0 0 0 0 0 0 0 0 0 0 0 0 0 0 0 0 0 0 0 0 0 0 0 0 0 0 0 0 0 0 0 0 0 0 0 0 0 0 0 0 0 0 0 0 0 0 0 0 0 0 0 0 0 0 0 0 0 0 0 0 0 0 0 0 0 0 0 0 0 0 0 0 0 0 0 0 0 0 0 0 0 0 0 0 0 0 0 0 0 0 0 0 0 0 0 0 0 0 0 0 0 0 0 0 0 0 0 0 0 0 0 0 0 0 0 0 0 0 0 0 0 0 0 0 0 0 0 0 0 0 0 0 0 0 0 0 0 0 0 0 0 0 0 0 0 0 0 0 0 0 0 0 0 0 0 0 0 0 0 0 0 0 0 0 0 0 0 0 0 0 0 0 0 0 0 0 0 0 0 0 0 0 0 0 0 0 0 0
0 0 0 0 0 0 0 0 0 0 0 0 0 0 0 0 0 0 0 0 0 0 0 0 0 0 0 0 0 0 0 0 0 0 0 0 0 0 0 0 0 0 0 0 0 0 0 0 0 0 0 0 0 0 0 0 0 0 0 0 0 0 0 0 0 0 0 0 0 0 0 0 0 0 0 0 0 0 0 0 0 0 0 0 0 0 0 0 0 0 0 0 0 0 0 0 0 0 0 0 0 0 0 0 0 0 0 0 0 0 0 0 0 0 0 0 0 0 0 0 0 0 0 0 0 0 0 0 0 0 0 0 0 0 0 0 0 0 0 0 0 0 0 0 0 0 0 0 0 0 0 0 0 0 0 0 0 0 0 0 0 0 0 0 0 0 0 0 0 0 0 0 0 0 0 0 0 0 0 0 0 0 0 0 0 0 0 0 0 0 0 0 0 0 0 0 0 0 0 0 0 0 0 0 0 0 0 0 0 0 0 0 0 0 0 0 0 0 0 0 0 0 0 0 0 0 0 0 0 0 0 0 0 0 0 0 0 0 0 0 0 0 0 0 0 0 0 0 0 0 0 0 0 0 0 0 0 0 0 0 0 0 0 0 0 0 0 0 0 0 0 0 0 0 0 0 0 0 0 0 0 0 0 0 0 0 0 0 0 0 0 0 0 0 0 0 0 0 0 0 0 0 0 0 0 0 0 0 0 0 0 0 0 0 0 0 0 0 0 0 0 0 0 0 0 0 0 0 0 0 0 0 0 0 0 0 0 0 0 0 0 0 0 0 0 0 0 0 0 0 0 0 0 0 0 0 0 0 0 0 0 0 0 0 0 0 0 0 0 0 0 0 0 0 0 0 0 0 0 0 0 0 0 0 0 0 0 0 0 0 0 0 0 0 0 0 0 0 0 0 0 0 0 0 0 0 0 0 0 0 0 0 0 0 0 0 0 0 0 0 0 0 0 0 0 0 0 0 0 0 0 0 0 0 0 0 0 0 0 0 0 0 0 0 0 0 0 0 0 0 0 0 0 0 0 0 0 0 0 0 0 0 0 0 0 0 0 0 0 0 0 0 0 0 0 0 0 0 0 0 0 0 0 0 0 0 0 0 0 0 0 0 0 0 0 0 0 0 0 0 0 0 0 0 0 0 0 0 0 0 0 0 0 0 0 0 0 0 0 0 0 0 0 0 0 0 0 0 0 0 0 0 0 0 0 0 0 0 0 0 0 0 0 0 0 0 0 0 0 0 0 0 0 0 0 0 0 0 0 0 0 0 0 0 0 0 0 0 0 0 0 0 0 0 0 0 0 0 0 0 0 0 0 0 0 0 0 0 0 0 0 0 0 0 0 0 0 0 0 0 0 0 0 0 0 0 0 0 0 0 0 0 0 0 0 0 0 0 0 0 0 0 0 0 0 0 0 0 0 0 0 0 0 0 0 0 0 0 0 0 0 0 0 0 0 0 0 0 0 0 0 0 0 0 0 0 0 0 0 0 0 0 0 0 0 0 0 0 0 0 0 0 0 0 0 0 0 0 0 0 0 0 0 0 0 0 0 0 0 0 0 0 0 0 0 0 0 0 0 0 0 0 0 0 0 0 0 0 0 0 0 0 0 0 0 0 0 0 0 0
0 0 0 0 0 0 0 0 0 0 0 0 0 0 0 0 0 0 0 0 0 0 0 0 0 0 0 0 0 0 0 0 0 0 0 0 0 0 0 0 0 0 0 0 0 0 0 0 0 0 0 0 0 0 0 0 0 0 0 0 0 0 0 0 0 0 0 0 0 0 0 0 0 0 0 0 0 0 0 0 0 0 0 0 0 0 0 0 0 0 0 0 0 0 0 0 0 0 0 0 0 0 0 0 0 0 0 0 0 0 0 0 0 0 0 0 0 0 0 0 0 0 0 0 0 0 0 0 0 0 0 0 0 0 0 0 0 0 0 0 0 0 0 0 0 0 0 0 0 0 0 0 0 0 0 0 0 0 0 0 0 0 0 0 0 0 0 0 0 0 0 0 0 0 0 0 0 0 0 0 0 0 0 0 0 0 0 0 0 0 0 0 0 0 0 0 0 0 0 0 0 0 0 0 0 0 0 0 0 0 0 0 0 0 0 0 0 0 0 0 0 0 0 0 0 0 0 0 0 0 0 0 0 0 0 0 0 0 0 0 0 0 0 0 0 0 0 0 0 0 0 0 0 0 0 0 0 0 0 0 0 0 0 0 0 0 0 0 0 0 0 0 0 0 0 0 0 0 0 0 0 0 0 0 0 0 0 0 0 0 0 0 0 0 0 0 0 0 0 0 0 0 0 0 0 0 0 0 0 0 0 0 0 0 0 0 0 0 0 0 0 0 0 0 0 0 0 0 0 0 0 0 0 0 0 0 0 0 0 0 0 0 0 0 0 0 0 0 0 0 0 0 0 0 0 0 0 0 0 0 0 0 0 0 0 0 0 0 0 0 0 0 0 0 0 0 0 0 0 0 0 0 0 0 0 0 0 0 0 0 0 0 0 0 0 0 0 0 0 0 0 0 0 0 0 0 0 0 0 0 0 0 0 0 0 0 0 0 0 0 0 0 0 0 0 0 0 0 0 0 0 0 0 0 0 0 0 0 0 0 0 0 0 0 0 0 0 0 0 0 0 0 0 0 0 0 0 0 0 0 0 0 0 0 0 0 0 0 0 0 0 0 0 0 0 0 0 0 0 0 0 0 0 0 0 0 0 0 0 0 0 0 0 0 0 0 0 0 0 0 0 0 0 0 0 0 0 0 0 0 0 0 0 0 0 0 0 0 0 0 0 0 0 0 0 0 0 0 0 0 0 0 0 0 0 0 0 0 0 0 0 0 0 0 0 0 0 0 0 0 0 0 0 0 0 0 0 0 0 0 0 0 0 0 0 0 0 0 0 0 0 0 0 0 0 0 0 0 0 0 0 0 0 0 0 0 0 0 0 0 0 0 0 0 0 0 0 0 0 0 0 0 0 0 0 0 0 0 0 0 0 0 0 0 0 0 0 0 0 0 0 0 0 0 0 0 0 0 0 0 0 0 0 0 0 0 0 0 0 0 0 0 0 0 0 0 0 0 0 0 0 0 0 0 0 0 0 0 0 0 0 0 0 0 0 0 0 0 0 0 0 0 0 0 0 0 0 0 0 0 0 0 0 0 0 0 0 0 0 0 0 0 0 0 0 0 0 0 0 0 0 0 0 0 0 0 0 0 0 0 0 0 0 0 0 0 0 0 0 0
0 0 0 0 0 0 0 0 0 0 0 0 0 0 0 0 0 0 0 0 0 0 0 0 0 0 0 0 0 0 0 0 0 0 0 0 0 0 0 0 0 0 0 0 0 0 0 0 0 0 0 0 0 0 0 0 0 0 0 0 0 0 0 0 0 0 0 0 0 0 0 0 0 0 0 0 0 0 0 0 0 0 0 0 0 0 0 0 0 0 0 0 0 0 0 0 0 0 0 0 0 0 0 0 0 0 0 0 0 0 0 0 0 0 0 0 0 0 0 0 0 0 0 0 0 0 0 0 0 0 0 0 0 0 0 0 0 0 0 0 0 0 0 0 0 0 0 0 0 0 0 0 0 0 0 0 0 0 0 0 0 0 0 0 0 0 0 0 0 0 0 0 0 0 0 0 0 0 0 0 0 0 0 0 0 0 0 0 0 0 0 0 0 0 0 0 0 0 0 0 0 0 0 0 0 0 0 0 0 0 0 0 0 0 0 0 0 0 0 0 0 0 0 0 0 0 0 0 0 0 0 0 0 0 0 0 0 0 0 0 0 0 0 0 0 0 0 0 0 0 0 0 0 0 0 0 0 0 0 0 0 0 0 0 0 0 0 0 0 0 0 0 0 0 0 0 0 0 0 0 0 0 0 0 0 0 0 0 0 0 0 0 0 0 0 0 0 0 0 0 0 0 0 0 0 0 0 0 0 0 0 0 0 0 0 0 0 0 0 0 0 0 0 0 0 0 0 0 0 0 0 0 0 0 0 0 0 0 0 0 0 0 0 0 0 0 0 0 0 0 0 0 0 0 0 0 0 0 0 0 0 0 0 0 0 0 0 0 0 0 0 0 0 0 0 0 0 0 0 0 0 0 0 0 0 0 0 0 0 0 0 0 0 0 0 0 0 0 0 0 0 0 0 0 0 0 0 0 0 0 0 0 0 0 0 0 0 0 0 0 0 0 0 0 0 0 0 0 0 0 0 0 0 0 0 0 0 0 0 0 0 0 0 0 0 0 0 0 0 0 0 0 0 0 0 0 0 0 0 0 0 0 0 0 0 0 0 0 0 0 0 0 0 0 0 0 0 0 0 0 0 0 0 0 0 0 0 0 0 0 0 0 0 0 0 0 0 0 0 0 0 0 0 0 0 0 0 0 0 0 0 0 0 0 0 0 0 0 0 0 0 0 0 0 0 0 0 0 0 0 0 0 0 0 0 0 0 0 0 0 0 0 0 0 0 0 0 0 0 0 0 0 0 0 0 0 0 0 0 0 0 0 0 0 0 0 0 0 0 0 0 0 0 0 0 0 0 0 0 0 0 0 0 0 0 0 0 0 0 0 0 0 0 0 0 0 0 0 0 0 0 0 0 0 0 0 0 0 0 0 0 0 0 0 0 0 0 0 0 0 0 0 0 0 0 0 0 0 0 0 0 0 0 0 0 0 0 0 0 0 0 0 0 0 0 0 0 0 0 0 0 0 0 0 0 0 0 0 0 0 0 0 0 0 0 0 0 0 0 0 0 0 0 0 0 0 0 0 0 0 0 0 0 0 0 0 0 0 0 0 0 0 0 0 0 0 0 0 0 0 0 0 0 0 0 0 0 0 0 0 0 0 0 0 0 0 0 0 0 0
0 0 0 0 0 0 0 0 0 0 0 0 0 0 0 0 0 0 0 0 0 0 0 0 0 0 0 0 0 0 0 0 0 0 0 0 0 0 0 0 0 0 0 0 0 0 0 0 0 0 0 0 0 0 0 0 0 0 0 0 0 0 0 0 0 0 0 0 0 0 0 0 0 0 0 0 0 0 0 0 0 0 0 0 0 0 0 0 0 0 0 0 0 0 0 0 0 0 0 0 0 0 0 0 0 0 0 0 0 0 0 0 0 0 0 0 0 0 0 0 0 0 0 0 0 0 0 0 0 0 0 0 0 0 0 0 0 0 0 0 0 0 0 0 0 0 0 0 0 0 0 0 0 0 0 0 0 0 0 0 0 0 0 0 0 0 0 0 0 0 0 0 0 0 0 0 0 0 0 0 0 0 0 0 0 0 0 0 0 0 0 0 0 0 0 0 0 0 0 0 0 0 0 0 0 0 0 0 0 0 0 0 0 0 0 0 0 0 0 0 0 0 0 0 0 0 0 0 0 0 0 0 0 0 0 0 0 0 0 0 0 0 0 0 0 0 0 0 0 0 0 0 0 0 0 0 0 0 0 0 0 0 0 0 0 0 0 0 0 0 0 0 0 0 0 0 0 0 0 0 0 0 0 0 0 0 0 0 0 0 0 0 0 0 0 0 0 0 0 0 0 0 0 0 0 0 0 0 0 0 0 0 0 0 0 0 0 0 0 0 0 0 0 0 0 0 0 0 0 0 0 0 0 0 0 0 0 0 0 0 0 0 0 0 0 0 0 0 0 0 0 0 0 0 0 0 0 0 0 0 0 0 0 0 0 0 0 0 0 0 0 0 0 0 0 0 0 0 0 0 0 0 0 0 0 0 0 0 0 0 0 0 0 0 0 0 0 0 0 0 0 0 0 0 0 0 0 0 0 0 0 0 0 0 0 0 0 0 0 0 0 0 0 0 0 0 0 0 0 0 0 0 0 0 0 0 0 0 0 0 0 0 0 0 0 0 0 0 0 0 0 0 0 0 0 0 0 0 0 0 0 0 0 0 0 0 0 0 0 0 0 0 0 0 0 0 0 0 0 0 0 0 0 0 0 0 0 0 0 0 0 0 0 0 0 0 0 0 0 0 0 0 0 0 0 0 0 0 0 0 0 0 0 0 0 0 0 0 0 0 0 0 0 0 0 0 0 0 0 0 0 0 0 0 0 0 0 0 0 0 0 0 0 0 0 0 0 0 0 0 0 0 0 0 0 0 0 0 0 0 0 0 0 0 0 0 0 0 0 0 0 0 0 0 0 0 0 0 0 0 0 0 0 0 0 0 0 0 0 0 0 0 0 0 0 0 0 0 0 0 0 0 0 0 0 0 0 0 0 0 0 0 0 0 0 0 0 0 0 0 0 0 0 0 0 0 0 0 0 0 0 0 0 0 0 0 0 0 0 0 0 0 0 0 0 0 0 0 0 0 0 0 0 0 0 0 0 0 0 0 0 0 0 0 0 0 0 0 0 0 0 0 0 0 0 0 0 0 0 0 0 0 0 0 0 0 0 0 0 0 0 0 0 0 0 0 0 0 0 0 0 0 0 0 0 0 0 0 0 0 0 0 0 0 0 0 0 0 0 0
0 0 0 0 0 0 0 0 0 0 0 0 0 0 0 0 0 0 0 0 0 0 0 0 0 0 0 0 0 0 0 0 0 0 0 0 0 0 0 0 0 0 0 0 0 0 0 0 0 0 0 0 0 0 0 0 0 0 0 0 0 0 0 0 0 0 0 0 0 0 0 0 0 0 0 0 0 0 0 0 0 0 0 0 0 0 0 0 0 0 0 0 0 0 0 0 0 0 0 0 0 0 0 0 0 0 0 0 0 0 0 0 0 0 0 0 0 0 0 0 0 0 0 0 0 0 0 0 0 0 0 0 0 0 0 0 0 0 0 0 0 0 0 0 0 0 0 0 0 0 0 0 0 0 0 0 0 0 0 0 0 0 0 0 0 0 0 0 0 0 0 0 0 0 0 0 0 0 0 0 0 0 0 0 0 0 0 0 0 0 0 0 0 0 0 0 0 0 0 0 0 0 0 0 0 0 0 0 0 0 0 0 0 0 0 0 0 0 0 0 0 0 0 0 0 0 0 0 0 0 0 0 0 0 0 0 0 0 0 0 0 0 0 0 0 0 0 0 0 0 0 0 0 0 0 0 0 0 0 0 0 0 0 0 0 0 0 0 0 0 0 0 0 0 0 0 0 0 0 0 0 0 0 0 0 0 0 0 0 0 0 0 0 0 0 0 0 0 0 0 0 0 0 0 0 0 0 0 0 0 0 0 0 0 0 0 0 0 0 0 0 0 0 0 0 0 0 0 0 0 0 0 0 0 0 0 0 0 0 0 0 0 0 0 0 0 0 0 0 0 0 0 0 0 0 0 0 0 0 0 0 0 0 0 0 0 0 0 0 0 0 0 0 0 0 0 0 0 0 0 0 0 0 0 0 0 0 0 0 0 0 0 0 0 0 0 0 0 0 0 0 0 0 0 0 0 0 0 0 0 0 0 0 0 0 0 0 0 0 0 0 0 0 0 0 0 0 0 0 0 0 0 0 0 0 0 0 0 0 0 0 0 0 0 0 0 0 0 0 0 0 0 0 0 0 0 0 0 0 0 0 0 0 0 0 0 0 0 0 0 0 0 0 0 0 0 0 0 0 0 0 0 0 0 0 0 0 0 0 0 0 0 0 0 0 0 0 0 0 0 0 0 0 0 0 0 0 0 0 0 0 0 0 0 0 0 0 0 0 0 0 0 0 0 0 0 0 0 0 0 0 0 0 0 0 0 0 0 0 0 0 0 0 0 0 0 0 0 0 0 0 0 0 0 0 0 0 0 0 0 0 0 0 0 0 0 0 0 0 0 0 0 0 0 0 0 0 0 0 0 0 0 0 0 0 0 0 0 0 0 0 0 0 0 0 0 0 0 0 0 0 0 0 0 0 0 0 0 0 0 0 0 0 0 0 0 0 0 0 0 0 0 0 0 0 0 0 0 0 0 0 0 0 0 0 0 0 0 0 0 0 0 0 0 0 0 0 0 0 0 0 0 0 0 0 0 0 0 0 0 0 0 0 0 0 0 0 0 0 0 0 0 0 0 0 0 0 0 0 0 0 0 0 0 0 0 0 0 0 0 0 0 0 0 0 0 0 0 0 0 0 0 0 0 0 0 0 0 0 0 0 0 0 0 0 0 0 0 0 0
0 0 0 0 0 0 0 0 0 0 0 0 0 0 0 0 0 0 0 0 0 0 0 0 0 0 0 0 0 0 0 0 0 0 0 0 0 0 0 0 0 0 0 0 0 0 0 0 0 0 0 0 0 0 0 0 0 0 0 0 0 0 0 0 0 0 0 0 0 0 0 0 0 0 0 0 0 0 0 0 0 0 0 0 0 0 0 0 0 0 0 0 0 0 0 0 0 0 0 0 0 0 0 0 0 0 0 0 0 0 0 0 0 0 0 0 0 0 0 0 0 0 0 0 0 0 0 0 0 0 0 0 0 0 0 0 0 0 0 0 0 0 0 0 0 0 0 0 0 0 0 0 0 0 0 0 0 0 0 0 0 0 0 0 0 0 0 0 0 0 0 0 0 0 0 0 0 0 0 0 0 0 0 0 0 0 0 0 0 0 0 0 0 0 0 0 0 0 0 0 0 0 0 0 0 0 0 0 0 0 0 0 0 0 0 0 0 0 0 0 0 0 0 0 0 0 0 0 0 0 0 0 0 0 0 0 0 0 0 0 0 0 0 0 0 0 0 0 0 0 0 0 0 0 0 0 0 0 0 0 0 0 0 0 0 0 0 0 0 0 0 0 0 0 0 0 0 0 0 0 0 0 0 0 0 0 0 0 0 0 0 0 0 0 0 0 0 0 0 0 0 0 0 0 0 0 0 0 0 0 0 0 0 0 0 0 0 0 0 0 0 0 0 0 0 0 0 0 0 0 0 0 0 0 0 0 0 0 0 0 0 0 0 0 0 0 0 0 0 0 0 0 0 0 0 0 0 0 0 0 0 0 0 0 0 0 0 0 0 0 0 0 0 0 0 0 0 0 0 0 0 0 0 0 0 0 0 0 0 0 0 0 0 0 0 0 0 0 0 0 0 0 0 0 0 0 0 0 0 0 0 0 0 0 0 0 0 0 0 0 0 0 0 0 0 0 0 0 0 0 0 0 0 0 0 0 0 0 0 0 0 0 0 0 0 0 0 0 0 0 0 0 0 0 0 0 0 0 0 0 0 0 0 0 0 0 0 0 0 0 0 0 0 0 0 0 0 0 0 0 0 0 0 0 0 0 0 0 0 0 0 0 0 0 0 0 0 0 0 0 0 0 0 0 0 0 0 0 0 0 0 0 0 0 0 0 0 0 0 0 0 0 0 0 0 0 0 0 0 0 0 0 0 0 0 0 0 0 0 0 0 0 0 0 0 0 0 0 0 0 0 0 0 0 0 0 0 0 0 0 0 0 0 0 0 0 0 0 0 0 0 0 0 0 0 0 0 0 0 0 0 0 0 0 0 0 0 0 0 0 0 0 0 0 0 0 0 0 0 0 0 0 0 0 0 0 0 0 0 0 0 0 0 0 0 0 0 0 0 0 0 0 0 0 0 0 0 0 0 0 0 0 0 0 0 0 0 0 0 0 0 0 0 0 0 0 0 0 0 0 0 0 0 0 0 0 0 0 0 0 0 0 0 0 0 0 0 0 0 0 0 0 0 0 0 0 0 0 0 0 0 0 0 0 0 0 0 0 0 0 0 0 0 0 0 0 0 0 0 0 0 0 0 0 0 0 0 0 0 0 0 0 0 0 0 0 0 0 0 0
0 0 0 0 0 0 0 0 0 0 0 0 0 0 0 0 0 0 0 0 0 0 0 0 0 0 0 0 0 0 0 0 0 0 0 0 0 0 0 0 0 0 0 0 0 0 0 0 0 0 0 0 0 0 0 0 0 0 0 0 0 0 0 0 0 0 0 0 0 0 0 0 0 0 0 0 0 0 0 0 0 0 0 0 0 0 0 0 0 0 0 0 0 0 0 0 0 0 0 0 0 0 0 0 0 0 0 0 0 0 0 0 0 0 0 0 0 0 0 0 0 0 0 0 0 0 0 0 0 0 0 0 0 0 0 0 0 0 0 0 0 0 0 0 0 0 0 0 0 0 0 0 0 0 0 0 0 0 0 0 0 0 0 0 0 0 0 0 0 0 0 0 0 0 0 0 0 0 0 0 0 0 0 0 0 0 0 0 0 0 0 0 0 0 0 0 0 0 0 0 0 0 0 0 0 0 0 0 0 0 0 0 0 0 0 0 0 0 0 0 0 0 0 0 0 0 0 0 0 0 0 0 0 0 0 0 0 0 0 0 0 0 0 0 0 0 0 0 0 0 0 0 0 0 0 0 0 0 0 0 0 0 0 0 0 0 0 0 0 0 0 0 0 0 0 0 0 0 0 0 0 0 0 0 0 0 0 0 0 0 0 0 0 0 0 0 0 0 0 0 0 0 0 0 0 0 0 0 0 0 0 0 0 0 0 0 0 0 0 0 0 0 0 0 0 0 0 0 0 0 0 0 0 0 0 0 0 0 0 0 0 0 0 0 0 0 0 0 0 0 0 0 0 0 0 0 0 0 0 0 0 0 0 0 0 0 0 0 0 0 0 0 0 0 0 0 0 0 0 0 0 0 0 0 0 0 0 0 0 0 0 0 0 0 0 0 0 0 0 0 0 0 0 0 0 0 0 0 0 0 0 0 0 0 0 0 0 0 0 0 0 0 0 0 0 0 0 0 0 0 0 0 0 0 0 0 0 0 0 0 0 0 0 0 0 0 0 0 0 0 0 0 0 0 0 0 0 0 0 0 0 0 0 0 0 0 0 0 0 0 0 0 0 0 0 0 0 0 0 0 0 0 0 0 0 0 0 0 0 0 0 0 0 0 0 0 0 0 0 0 0 0 0 0 0 0 0 0 0 0 0 0 0 0 0 0 0 0 0 0 0 0 0 0 0 0 0 0 0 0 0 0 0 0 0 0 0 0 0 0 0 0 0 0 0 0 0 0 0 0 0 0 0 0 0 0 0 0 0 0 0 0 0 0 0 0 0 0 0 0 0 0 0 0 0 0 0 0 0 0 0 0 0 0 0 0 0 0 0 0 0 0 0 0 0 0 0 0 0 0 0 0 0 0 0 0 0 0 0 0 0 0 0 0 0 0 0 0 0 0 0 0 0 0 0 0 0 0 0 0 0 0 0 0 0 0 0 0 0 0 0 0 0 0 0 0 0 0 0 0 0 0 0 0 0 0 0 0 0 0 0 0 0 0 0 0 0 0 0 0 0 0 0 0 0 0 0 0 0 0 0 0 0 0 0 0 0 0 0 0 0 0 0 0 0 0 0 0 0 0 0 0 0 0 0 0 0 0 0 0 0 0 0 0 0 0 0 0 0 0
0 0 0 0 0 0 0 0 0 0 0 0 0 0 0 0 0 0 0 0 0 0 0 0 0 0 0 0 0 0 0 0 0 0 0 0 0 0 0 0 0 0 0 0 0 0 0 0 0 0 0 0 0 0 0 0 0 0 0 0 0 0 0 0 0 0 0 0 0 0 0 0 0 0 0 0 0 0 0 0 0 0 0 0 0 0 0 0 0 0 0 0 0 0 0 0 0 0 0 0 0 0 0 0 0 0 0 0 0 0 0 0 0 0 0 0 0 0 0 0 0 0 0 0 0 0 0 0 0 0 0 0 0 0 0 0 0 0 0 0 0 0 0 0 0 0 0 0 0 0 0 0 0 0 0 0 0 0 0 0 0 0 0 0 0 0 0 0 0 0 0 0 0 0 0 0 0 0 0 0 0 0 0 0 0 0 0 0 0 0 0 0 0 0 0 0 0 0 0 0 0 0 0 0 0 0 0 0 0 0 0 0 0 0 0 0 0 0 0 0 0 0 0 0 0 0 0 0 0 0 0 0 0 0 0 0 0 0 0 0 0 0 0 0 0 0 0 0 0 0 0 0 0 0 0 0 0 0 0 0 0 0 0 0 0 0 0 0 0 0 0 0 0 0 0 0 0 0 0 0 0 0 0 0 0 0 0 0 0 0 0 0 0 0 0 0 0 0 0 0 0 0 0 0 0 0 0 0 0 0 0 0 0 0 0 0 0 0 0 0 0 0 0 0 0 0 0 0 0 0 0 0 0 0 0 0 0 0 0 0 0 0 0 0 0 0 0 0 0 0 0 0 0 0 0 0 0 0 0 0 0 0 0 0 0 0 0 0 0 0 0 0 0 0 0 0 0 0 0 0 0 0 0 0 0 0 0 0 0 0 0 0 0 0 0 0 0 0 0 0 0 0 0 0 0 0 0 0 0 0 0 0 0 0 0 0 0 0 0 0 0 0 0 0 0 0 0 0 0 0 0 0 0 0 0 0 0 0 0 0 0 0 0 0 0 0 0 0 0 0 0 0 0 0 0 0 0 0 0 0 0 0 0 0 0 0 0 0 0 0 0 0 0 0 0 0 0 0 0 0 0 0 0 0 0 0 0 0 0 0 0 0 0 0 0 0 0 0 0 0 0 0 0 0 0 0 0 0 0 0 0 0 0 0 0 0 0 0 0 0 0 0 0 0 0 0 0 0 0 0 0 0 0 0 0 0 0 0 0 0 0 0 0 0 0 0 0 0 0 0 0 0 0 0 0 0 0 0 0 0 0 0 0 0 0 0 0 0 0 0 0 0 0 0 0 0 0 0 0 0 0 0 0 0 0 0 0 0 0 0 0 0 0 0 0 0 0 0 0 0 0 0 0 0 0 0 0 0 0 0 0 0 0 0 0 0 0 0 0 0 0 0 0 0 0 0 0 0 0 0 0 0 0 0 0 0 0 0 0 0 0 0 0 0 0 0 0 0 0 0 0 0 0 0 0 0 0 0 0 0 0 0 0 0 0 0 0 0 0 0 0 0 0 0 0 0 0 0 0 0 0 0 0 0 0 0 0 0 0 0 0 0 0 0 0 0 0 0 0 0 0 0 0 0 0 0 0 0 0 0 0 0 0 0 0 0 0 0 0 0
0 0 0 0 0 0 0 0 0 0 0 0 0 0 0 0 0 0 0 0 0 0 0 0 0 0 0 0 0 0 0 0 0 0 0 0 0 0 0 0 0 0 0 0 0 0 0 0 0 0 0 0 0 0 0 0 0 0 0 0 0 0 0 0 0 0 0 0 0 0 0 0 0 0 0 0 0 0 0 0 0 0 0 0 0 0 0 0 0 0 0 0 0 0 0 0 0 0 0 0 0 0 0 0 0 0 0 0 0 0 0 0 0 0 0 0 0 0 0 0 0 0 0 0 0 0 0 0 0 0 0 0 0 0 0 0 0 0 0 0 0 0 0 0 0 0 0 0 0 0 0 0 0 0 0 0 0 0 0 0 0 0 0 0 0 0 0 0 0 0 0 0 0 0 0 0 0 0 0 0 0 0 0 0 0 0 0 0 0 0 0 0 0 0 0 0 0 0 0 0 0 0 0 0 0 0 0 0 0 0 0 0 0 0 0 0 0 0 0 0 0 0 0 0 0 0 0 0 0 0 0 0 0 0 0 0 0 0 0 0 0 0 0 0 0 0 0 0 0 0 0 0 0 0 0 0 0 0 0 0 0 0 0 0 0 0 0 0 0 0 0 0 0 0 0 0 0 0 0 0 0 0 0 0 0 0 0 0 0 0 0 0 0 0 0 0 0 0 0 0 0 0 0 0 0 0 0 0 0 0 0 0 0 0 0 0 0 0 0 0 0 0 0 0 0 0 0 0 0 0 0 0 0 0 0 0 0 0 0 0 0 0 0 0 0 0 0 0 0 0 0 0 0 0 0 0 0 0 0 0 0 0 0 0 0 0 0 0 0 0 0 0 0 0 0 0 0 0 0 0 0 0 0 0 0 0 0 0 0 0 0 0 0 0 0 0 0 0 0 0 0 0 0 0 0 0 0 0 0 0 0 0 0 0 0 0 0 0 0 0 0 0 0 0 0 0 0 0 0 0 0 0 0 0 0 0 0 0 0 0 0 0 0 0 0 0 0 0 0 0 0 0 0 0 0 0 0 0 0 0 0 0 0 0 0 0 0 0 0 0 0 0 0 0 0 0 0 0 0 0 0 0 0 0 0 0 0 0 0 0 0 0 0 0 0 0 0 0 0 0 0 0 0 0 0 0 0 0 0 0 0 0 0 0 0 0 0 0 0 0 0 0 0 0 0 0 0 0 0 0 0 0 0 0 0 0 0 0 0 0 0 0 0 0 0 0 0 0 0 0 0 0 0 0 0 0 0 0 0 0 0 0 0 0 0 0 0 0 0 0 0 0 0 0 0 0 0 0 0 0 0 0 0 0 0 0 0 0 0 0 0 0 0 0 0 0 0 0 0 0 0 0 0 0 0 0 0 0 0 0 0 0 0 0 0 0 0 0 0 0 0 0 0 0 0 0 0 0 0 0 0 0 0 0 0 0 0 0 0 0 0 0 0 0 0 0 0 0 0 0 0 0 0 0 0 0 0 0 0 0 0 0 0 0 0 0 0 0 0 0 0 0 0 0 0 0 0 0 0 0 0 0 0 0 0 0 0 0 0 0 0 0 0 0 0 0 0 0 0 0 0 0 0 0 0 0 0 0 0 0 0 0 0 0 0 0 0 0 0 0
0 0 0 0 0 0 0 0 0 0 0 0 0 0 0 0 0 0 0 0 0 0 0 0 0 0 0 0 0 0 0 0 0 0 0 0 0 0 0 0 0 0 0 0 0 0 0 0 0 0 0 0 0 0 0 0 0 0 0 0 0 0 0 0 0 0 0 0 0 0 0 0 0 0 0 0 0 0 0 0 0 0 0 0 0 0 0 0 0 0 0 0 0 0 0 0 0 0 0 0 0 0 0 0 0 0 0 0 0 0 0 0 0 0 0 0 0 0 0 0 0 0 0 0 0 0 0 0 0 0 0 0 0 0 0 0 0 0 0 0 0 0 0 0 0 0 0 0 0 0 0 0 0 0 0 0 0 0 0 0 0 0 0 0 0 0 0 0 0 0 0 0 0 0 0 0 0 0 0 0 0 0 0 0 0 0 0 0 0 0 0 0 0 0 0 0 0 0 0 0 0 0 0 0 0 0 0 0 0 0 0 0 0 0 0 0 0 0 0 0 0 0 0 0 0 0 0 0 0 0 0 0 0 0 0 0 0 0 0 0 0 0 0 0 0 0 0 0 0 0 0 0 0 0 0 0 0 0 0 0 0 0 0 0 0 0 0 0 0 0 0 0 0 0 0 0 0 0 0 0 0 0 0 0 0 0 0 0 0 0 0 0 0 0 0 0 0 0 0 0 0 0 0 0 0 0 0 0 0 0 0 0 0 0 0 0 0 0 0 0 0 0 0 0 0 0 0 0 0 0 0 0 0 0 0 0 0 0 0 0 0 0 0 0 0 0 0 0 0 0 0 0 0 0 0 0 0 0 0 0 0 0 0 0 0 0 0 0 0 0 0 0 0 0 0 0 0 0 0 0 0 0 0 0 0 0 0 0 0 0 0 0 0 0 0 0 0 0 0 0 0 0 0 0 0 0 0 0 0 0 0 0 0 0 0 0 0 0 0 0 0 0 0 0 0 0 0 0 0 0 0 0 0 0 0 0 0 0 0 0 0 0 0 0 0 0 0 0 0 0 0 0 0 0 0 0 0 0 0 0 0 0 0 0 0 0 0 0 0 0 0 0 0 0 0 0 0 0 0 0 0 0 0 0 0 0 0 0 0 0 0 0 0 0 0 0 0 0 0 0 0 0 0 0 0 0 0 0 0 0 0 0 0 0 0 0 0 0 0 0 0 0 0 0 0 0 0 0 0 0 0 0 0 0 0 0 0 0 0 0 0 0 0 0 0 0 0 0 0 0 0 0 0 0 0 0 0 0 0 0 0 0 0 0 0 0 0 0 0 0 0 0 0 0 0 0 0 0 0 0 0 0 0 0 0 0 0 0 0 0 0 0 0 0 0 0 0 0 0 0 0 0 0 0 0 0 0 0 0 0 0 0 0 0 0 0 0 0 0 0 0 0 0 0 0 0 0 0 0 0 0 0 0 0 0 0 0 0 0 0 0 0 0 0 0 0 0 0 0 0 0 0 0 0 0 0 0 0 0 0 0 0 0 0 0 0 0 0 0 0 0 0 0 0 0 0 0 0 0 0 0 0 0 0 0 0 0 0 0 0 0 0 0 0 0 0 0 0 0 0 0 0 0 0 0 0 0 0 0 0 0 0 0 0 0 0 0 0 0 0
0 0 0 0 0 0 0 0 0 0 0 0 0 0 0 0 0 0 0 0 0 0 0 0 0 0 0 0 0 0 0 0 0 0 0 0 0 0 0 0 0 0 0 0 0 0 0 0 0 0 0 0 0 0 0 0 0 0 0 0 0 0 0 0 0 0 0 0 0 0 0 0 0 0 0 0 0 0 0 0 0 0 0 0 0 0 0 0 0 0 0 0 0 0 0 0 0 0 0 0 0 0 0 0 0 0 0 0 0 0 0 0 0 0 0 0 0 0 0 0 0 0 0 0 0 0 0 0 0 0 0 0 0 0 0 0 0 0 0 0 0 0 0 0 0 0 0 0 0 0 0 0 0 0 0 0 0 0 0 0 0 0 0 0 0 0 0 0 0 0 0 0 0 0 0 0 0 0 0 0 0 0 0 0 0 0 0 0 0 0 0 0 0 0 0 0 0 0 0 0 0 0 0 0 0 0 0 0 0 0 0 0 0 0 0 0 0 0 0 0 0 0 0 0 0 0 0 0 0 0 0 0 0 0 0 0 0 0 0 0 0 0 0 0 0 0 0 0 0 0 0 0 0 0 0 0 0 0 0 0 0 0 0 0 0 0 0 0 0 0 0 0 0 0 0 0 0 0 0 0 0 0 0 0 0 0 0 0 0 0 0 0 0 0 0 0 0 0 0 0 0 0 0 0 0 0 0 0 0 0 0 0 0 0 0 0 0 0 0 0 0 0 0 0 0 0 0 0 0 0 0 0 0 0 0 0 0 0 0 0 0 0 0 0 0 0 0 0 0 0 0 0 0 0 0 0 0 0 0 0 0 0 0 0 0 0 0 0 0 0 0 0 0 0 0 0 0 0 0 0 0 0 0 0 0 0 0 0 0 0 0 0 0 0 0 0 0 0 0 0 0 0 0 0 0 0 0 0 0 0 0 0 0 0 0 0 0 0 0 0 0 0 0 0 0 0 0 0 0 0 0 0 0 0 0 0 0 0 0 0 0 0 0 0 0 0 0 0 0 0 0 0 0 0 0 0 0 0 0 0 0 0 0 0 0 0 0 0 0 0 0 0 0 0 0 0 0 0 0 0 0 0 0 0 0 0 0 0 0 0 0 0 0 0 0 0 0 0 0 0 0 0 0 0 0 0 0 0 0 0 0 0 0 0 0 0 0 0 0 0 0 0 0 0 0 0 0 0 0 0 0 0 0 0 0 0 0 0 0 0 0 0 0 0 0 0 0 0 0 0 0 0 0 0 0 0 0 0 0 0 0 0 0 0 0 0 0 0 0 0 0 0 0 0 0 0 0 0 0 0 0 0 0 0 0 0 0 0 0 0 0 0 0 0 0 0 0 0 0 0 0 0 0 0 0 0 0 0 0 0 0 0 0 0 0 0 0 0 0 0 0 0 0 0 0 0 0 0 0 0 0 0 0 0 0 0 0 0 0 0 0 0 0 0 0 0 0 0 0 0 0 0 0 0 0 0 0 0 0 0 0 0 0 0 0 0 0 0 0 0 0 0 0 0 0 0 0 0 0 0 0 0 0 0 0 0 0 0 0 0 0 0 0 0 0 0 0 0 0 0 0 0 0 0 0 0 0 0 0 0 0 0 0 0 0 0 0 0 0 0
0 0 0 0 0 0 0 0 0 0 0 0 0 0 0 0 0 0 0 0 0 0 0 0 0 0 0 0 0 0 0 0 0 0 0 0 0 0 0 0 0 0 0 0 0 0 0 0 0 0 0 0 0 0 0 0 0 0 0 0 0 0 0 0 0 0 0 0 0 0 0 0 0 0 0 0 0 0 0 0 0 0 0 0 0 0 0 0 0 0 0 0 0 0 0 0 0 0 0 0 0 0 0 0 0 0 0 0 0 0 0 0 0 0 0 0 0 0 0 0 0 0 0 0 0 0 0 0 0 0 0 0 0 0 0 0 0 0 0 0 0 0 0 0 0 0 0 0 0 0 0 0 0 0 0 0 0 0 0 0 0 0 0 0 0 0 0 0 0 0 0 0 0 0 0 0 0 0 0 0 0 0 0 0 0 0 0 0 0 0 0 0 0 0 0 0 0 0 0 0 0 0 0 0 0 0 0 0 0 0 0 0 0 0 0 0 0 0 0 0 0 0 0 0 0 0 0 0 0 0 0 0 0 0 0 0 0 0 0 0 0 0 0 0 0 0 0 0 0 0 0 0 0 0 0 0 0 0 0 0 0 0 0 0 0 0 0 0 0 0 0 0 0 0 0 0 0 0 0 0 0 0 0 0 0 0 0 0 0 0 0 0 0 0 0 0 0 0 0 0 0 0 0 0 0 0 0 0 0 0 0 0 0 0 0 0 0 0 0 0 0 0 0 0 0 0 0 0 0 0 0 0 0 0 0 0 0 0 0 0 0 0 0 0 0 0 0 0 0 0 0 0 0 0 0 0 0 0 0 0 0 0 0 0 0 0 0 0 0 0 0 0 0 0 0 0 0 0 0 0 0 0 0 0 0 0 0 0 0 0 0 0 0 0 0 0 0 0 0 0 0 0 0 0 0 0 0 0 0 0 0 0 0 0 0 0 0 0 0 0 0 0 0 0 0 0 0 0 0 0 0 0 0 0 0 0 0 0 0 0 0 0 0 0 0 0 0 0 0 0 0 0 0 0 0 0 0 0 0 0 0 0 0 0 0 0 0 0 0 0 0 0 0 0 0 0 0 0 0 0 0 0 0 0 0 0 0 0 0 0 0 0 0 0 0 0 0 0 0 0 0 0 0 0 0 0 0 0 0 0 0 0 0 0 0 0 0 0 0 0 0 0 0 0 0 0 0 0 0 0 0 0 0 0 0 0 0 0 0 0 0 0 0 0 0 0 0 0 0 0 0 0 0 0 0 0 0 0 0 0 0 0 0 0 0 0 0 0 0 0 0 0 0 0 0 0 0 0 0 0 0 0 0 0 0 0 0 0 0 0 0 0 0 0 0 0 0 0 0 0 0 0 0 0 0 0 0 0 0 0 0 0 0 0 0 0 0 0 0 0 0 0 0 0 0 0 0 0 0 0 0 0 0 0 0 0 0 0 0 0 0 0 0 0 0 0 0 0 0 0 0 0 0 0 0 0 0 0 0 0 0 0 0 0 0 0 0 0 0 0 0 0 0 0 0 0 0 0 0 0 0 0 0 0 0 0 0 0 0 0 0 0 0 0 0 0 0 0 0 0 0 0 0 0 0 0 0 0 0 0 0 0 0 0 0 0 0 0 0 0
0 0 0 0 0 0 0 0 0 0 0 0 0 0 0 0 0 0 0 0 0 0 0 0 0 0 0 0 0 0 0 0 0 0 0 0 0 0 0 0 0 0 0 0 0 0 0 0 0 0 0 0 0 0 0 0 0 0 0 0 0 0 0 0 0 0 0 0 0 0 0 0 0 0 0 0 0 0 0 0 0 0 0 0 0 0 0 0 0 0 0 0 0 0 0 0 0 0 0 0 0 0 0 0 0 0 0 0 0 0 0 0 0 0 0 0 0 0 0 0 0 0 0 0 0 0 0 0 0 0 0 0 0 0 0 0 0 0 0 0 0 0 0 0 0 0 0 0 0 0 0 0 0 0 0 0 0 0 0 0 0 0 0 0 0 0 0 0 0 0 0 0 0 0 0 0 0 0 0 0 0 0 0 0 0 0 0 0 0 0 0 0 0 0 0 0 0 0 0 0 0 0 0 0 0 0 0 0 0 0 0 0 0 0 0 0 0 0 0 0 0 0 0 0 0 0 0 0 0 0 0 0 0 0 0 0 0 0 0 0 0 0 0 0 0 0 0 0 0 0 0 0 0 0 0 0 0 0 0 0 0 0 0 0 0 0 0 0 0 0 0 0 0 0 0 0 0 0 0 0 0 0 0 0 0 0 0 0 0 0 0 0 0 0 0 0 0 0 0 0 0 0 0 0 0 0 0 0 0 0 0 0 0 0 0 0 0 0 0 0 0 0 0 0 0 0 0 0 0 0 0 0 0 0 0 0 0 0 0 0 0 0 0 0 0 0 0 0 0 0 0 0 0 0 0 0 0 0 0 0 0 0 0 0 0 0 0 0 0 0 0 0 0 0 0 0 0 0 0 0 0 0 0 0 0 0 0 0 0 0 0 0 0 0 0 0 0 0 0 0 0 0 0 0 0 0 0 0 0 0 0 0 0 0 0 0 0 0 0 0 0 0 0 0 0 0 0 0 0 0 0 0 0 0 0 0 0 0 0 0 0 0 0 0 0 0 0 0 0 0 0 0 0 0 0 0 0 0 0 0 0 0 0 0 0 0 0 0 0 0 0 0 0 0 0 0 0 0 0 0 0 0 0 0 0 0 0 0 0 0 0 0 0 0 0 0 0 0 0 0 0 0 0 0 0 0 0 0 0 0 0 0 0 0 0 0 0 0 0 0 0 0 0 0 0 0 0 0 0 0 0 0 0 0 0 0 0 0 0 0 0 0 0 0 0 0 0 0 0 0 0 0 0 0 0 0 0 0 0 0 0 0 0 0 0 0 0 0 0 0 0 0 0 0 0 0 0 0 0 0 0 0 0 0 0 0 0 0 0 0 0 0 0 0 0 0 0 0 0 0 0 0 0 0 0 0 0 0 0 0 0 0 0 0 0 0 0 0 0 0 0 0 0 0 0 0 0 0 0 0 0 0 0 0 0 0 0 0 0 0 0 0 0 0 0 0 0 0 0 0 0 0 0 0 0 0 0 0 0 0 0 0 0 0 0 0 0 0 0 0 0 0 0 0 0 0 0 0 0 0 0 0 0 0 0 0 0 0 0 0 0 0 0 0 0 0 0 0 0 0 0 0 0 0 0 0 0 0 0 0 0 0 0 0 0 0 0 0 0 0
0 0 0 0 0 0 0 0 0 0 0 0 0 0 0 0 0 0 0 0 0 0 0 0 0 0 0 0 0 0 0 0 0 0 0 0 0 0 0 0 0 0 0 0 0 0 0 0 0 0 0 0 0 0 0 0 0 0 0 0 0 0 0 0 0 0 0 0 0 0 0 0 0 0 0 0 0 0 0 0 0 0 0 0 0 0 0 0 0 0 0 0 0 0 0 0 0 0 0 0 0 0 0 0 0 0 0 0 0 0 0 0 0 0 0 0 0 0 0 0 0 0 0 0 0 0 0 0 0 0 0 0 0 0 0 0 0 0 0 0 0 0 0 0 0 0 0 0 0 0 0 0 0 0 0 0 0 0 0 0 0 0 0 0 0 0 0 0 0 0 0 0 0 0 0 0 0 0 0 0 0 0 0 0 0 0 0 0 0 0 0 0 0 0 0 0 0 0 0 0 0 0 0 0 0 0 0 0 0 0 0 0 0 0 0 0 0 0 0 0 0 0 0 0 0 0 0 0 0 0 0 0 0 0 0 0 0 0 0 0 0 0 0 0 0 0 0 0 0 0 0 0 0 0 0 0 0 0 0 0 0 0 0 0 0 0 0 0 0 0 0 0 0 0 0 0 0 0 0 0 0 0 0 0 0 0 0 0 0 0 0 0 0 0 0 0 0 0 0 0 0 0 0 0 0 0 0 0 0 0 0 0 0 0 0 0 0 0 0 0 0 0 0 0 0 0 0 0 0 0 0 0 0 0 0 0 0 0 0 0 0 0 0 0 0 0 0 0 0 0 0 0 0 0 0 0 0 0 0 0 0 0 0 0 0 0 0 0 0 0 0 0 0 0 0 0 0 0 0 0 0 0 0 0 0 0 0 0 0 0 0 0 0 0 0 0 0 0 0 0 0 0 0 0 0 0 0 0 0 0 0 0 0 0 0 0 0 0 0 0 0 0 0 0 0 0 0 0 0 0 0 0 0 0 0 0 0 0 0 0 0 0 0 0 0 0 0 0 0 0 0 0 0 0 0 0 0 0 0 0 0 0 0 0 0 0 0 0 0 0 0 0 0 0 0 0 0 0 0 0 0 0 0 0 0 0 0 0 0 0 0 0 0 0 0 0 0 0 0 0 0 0 0 0 0 0 0 0 0 0 0 0 0 0 0 0 0 0 0 0 0 0 0 0 0 0 0 0 0 0 0 0 0 0 0 0 0 0 0 0 0 0 0 0 0 0 0 0 0 0 0 0 0 0 0 0 0 0 0 0 0 0 0 0 0 0 0 0 0 0 0 0 0 0 0 0 0 0 0 0 0 0 0 0 0 0 0 0 0 0 0 0 0 0 0 0 0 0 0 0 0 0 0 0 0 0 0 0 0 0 0 0 0 0 0 0 0 0 0 0 0 0 0 0 0 0 0 0 0 0 0 0 0 0 0 0 0 0 0 0 0 0 0 0 0 0 0 0 0 0 0 0 0 0 0 0 0 0 0 0 0 0 0 0 0 0 0 0 0 0 0 0 0 0 0 0 0 0 0 0 0 0 0 0 0 0 0 0 0 0 0 0 0 0 0 0 0 0 0 0 0 0 0 0 0 0 0 0 0 0 0 0 0 0 0 0 0 0 0 0
0 0 0 0 0 0 0 0 0 0 0 0 0 0 0 0 0 0 0 0 0 0 0 0 0 0 0 0 0 0 0 0 0 0 0 0 0 0 0 0 0 0 0 0 0 0 0 0 0 0 0 0 0 0 0 0 0 0 0 0 0 0 0 0 0 0 0 0 0 0 0 0 0 0 0 0 0 0 0 0 0 0 0 0 0 0 0 0 0 0 0 0 0 0 0 0 0 0 0 0 0 0 0 0 0 0 0 0 0 0 0 0 0 0 0 0 0 0 0 0 0 0 0 0 0 0 0 0 0 0 0 0 0 0 0 0 0 0 0 0 0 0 0 0 0 0 0 0 0 0 0 0 0 0 0 0 0 0 0 0 0 0 0 0 0 0 0 0 0 0 0 0 0 0 0 0 0 0 0 0 0 0 0 0 0 0 0 0 0 0 0 0 0 0 0 0 0 0 0 0 0 0 0 0 0 0 0 0 0 0 0 0 0 0 0 0 0 0 0 0 0 0 0 0 0 0 0 0 0 0 0 0 0 0 0 0 0 0 0 0 0 0 0 0 0 0 0 0 0 0 0 0 0 0 0 0 0 0 0 0 0 0 0 0 0 0 0 0 0 0 0 0 0 0 0 0 0 0 0 0 0 0 0 0 0 0 0 0 0 0 0 0 0 0 0 0 0 0 0 0 0 0 0 0 0 0 0 0 0 0 0 0 0 0 0 0 0 0 0 0 0 0 0 0 0 0 0 0 0 0 0 0 0 0 0 0 0 0 0 0 0 0 0 0 0 0 0 0 0 0 0 0 0 0 0 0 0 0 0 0 0 0 0 0 0 0 0 0 0 0 0 0 0 0 0 0 0 0 0 0 0 0 0 0 0 0 0 0 0 0 0 0 0 0 0 0 0 0 0 0 0 0 0 0 0 0 0 0 0 0 0 0 0 0 0 0 0 0 0 0 0 0 0 0 0 0 0 0 0 0 0 0 0 0 0 0 0 0 0 0 0 0 0 0 0 0 0 0 0 0 0 0 0 0 0 0 0 0 0 0 0 0 0 0 0 0 0 0 0 0 0 0 0 0 0 0 0 0 0 0 0 0 0 0 0 0 0 0 0 0 0 0 0 0 0 0 0 0 0 0 0 0 0 0 0 0 0 0 0 0 0 0 0 0 0 0 0 0 0 0 0 0 0 0 0 0 0 0 0 0 0 0 0 0 0 0 0 0 0 0 0 0 0 0 0 0 0 0 0 0 0 0 0 0 0 0 0 0 0 0 0 0 0 0 0 0 0 0 0 0 0 0 0 0 0 0 0 0 0 0 0 0 0 0 0 0 0 0 0 0 0 0 0 0 0 0 0 0 0 0 0 0 0 0 0 0 0 0 0 0 0 0 0 0 0 0 0 0 0 0 0 0 0 0 0 0 0 0 0 0 0 0 0 0 0 0 0 0 0 0 0 0 0 0 0 0 0 0 0 0 0 0 0 0 0 0 0 0 0 0 0 0 0 0 0 0 0 0 0 0 0 0 0 0 0 0 0 0 0 0 0 0 0 0 0 0 0 0 0 0 0 0 0 0 0 0 0 0 0 0 0 0 0 0 0 0 0 0 0 0 0 0 0 0 0 0 0 0 0 0
0 0 0 0 0 0 0 0 0 0 0 0 0 0 0 0 0 0 0 0 0 0 0 0 0 0 0 0 0 0 0 0 0 0 0 0 0 0 0 0 0 0 0 0 0 0 0 0 0 0 0 0 0 0 0 0 0 0 0 0 0 0 0 0 0 0 0 0 0 0 0 0 0 0 0 0 0 0 0 0 0 0 0 0 0 0 0 0 0 0 0 0 0 0 0 0 0 0 0 0 0 0 0 0 0 0 0 0 0 0 0 0 0 0 0 0 0 0 0 0 0 0 0 0 0 0 0 0 0 0 0 0 0 0 0 0 0 0 0 0 0 0 0 0 0 0 0 0 0 0 0 0 0 0 0 0 0 0 0 0 0 0 0 0 0 0 0 0 0 0 0 0 0 0 0 0 0 0 0 0 0 0 0 0 0 0 0 0 0 0 0 0 0 0 0 0 0 0 0 0 0 0 0 0 0 0 0 0 0 0 0 0 0 0 0 0 0 0 0 0 0 0 0 0 0 0 0 0 0 0 0 0 0 0 0 0 0 0 0 0 0 0 0 0 0 0 0 0 0 0 0 0 0 0 0 0 0 0 0 0 0 0 0 0 0 0 0 0 0 0 0 0 0 0 0 0 0 0 0 0 0 0 0 0 0 0 0 0 0 0 0 0 0 0 0 0 0 0 0 0 0 0 0 0 0 0 0 0 0 0 0 0 0 0 0 0 0 0 0 0 0 0 0 0 0 0 0 0 0 0 0 0 0 0 0 0 0 0 0 0 0 0 0 0 0 0 0 0 0 0 0 0 0 0 0 0 0 0 0 0 0 0 0 0 0 0 0 0 0 0 0 0 0 0 0 0 0 0 0 0 0 0 0 0 0 0 0 0 0 0 0 0 0 0 0 0 0 0 0 0 0 0 0 0 0 0 0 0 0 0 0 0 0 0 0 0 0 0 0 0 0 0 0 0 0 0 0 0 0 0 0 0 0 0 0 0 0 0 0 0 0 0 0 0 0 0 0 0 0 0 0 0 0 0 0 0 0 0 0 0 0 0 0 0 0 0 0 0 0 0 0 0 0 0 0 0 0 0 0 0 0 0 0 0 0 0 0 0 0 0 0 0 0 0 0 0 0 0 0 0 0 0 0 0 0 0 0 0 0 0 0 0 0 0 0 0 0 0 0 0 0 0 0 0 0 0 0 0 0 0 0 0 0 0 0 0 0 0 0 0 0 0 0 0 0 0 0 0 0 0 0 0 0 0 0 0 0 0 0 0 0 0 0 0 0 0 0 0 0 0 0 0 0 0 0 0 0 0 0 0 0 0 0 0 0 0 0 0 0 0 0 0 0 0 0 0 0 0 0 0 0 0 0 0 0 0 0 0 0 0 0 0 0 0 0 0 0 0 0 0 0 0 0 0 0 0 0 0 0 0 0 0 0 0 0 0 0 0 0 0 0 0 0 0 0 0 0 0 0 0 0 0 0 0 0 0 0 0 0 0 0 0 0 0 0 0 0 0 0 0 0 0 0 0 0 0 0 0 0 0 0 0 0 0 0 0 0 0 0 0 0 0 0 0 0 0 0 0 0 0 0 0 0 0 0 0 0 0 0 0 0 0 0 0 0 0 0 0 0 0
0 0 0 0 0 0 0 0 0 0 0 0 0 0 0 0 0 0 0 0 0 0 0 0 0 0 0 0 0 0 0 0 0 0 0 0 0 0 0 0 0 0 0 0 0 0 0 0 0 0 0 0 0 0 0 0 0 0 0 0 0 0 0 0 0 0 0 0 0 0 0 0 0 0 0 0 0 0 0 0 0 0 0 0 0 0 0 0 0 0 0 0 0 0 0 0 0 0 0 0 0 0 0 0 0 0 0 0 0 0 0 0 0 0 0 0 0 0 0 0 0 0 0 0 0 0 0 0 0 0 0 0 0 0 0 0 0 0 0 0 0 0 0 0 0 0 0 0 0 0 0 0 0 0 0 0 0 0 0 0 0 0 0 0 0 0 0 0 0 0 0 0 0 0 0 0 0 0 0 0 0 0 0 0 0 0 0 0 0 0 0 0 0 0 0 0 0 0 0 0 0 0 0 0 0 0 0 0 0 0 0 0 0 0 0 0 0 0 0 0 0 0 0 0 0 0 0 0 0 0 0 0 0 0 0 0 0 0 0 0 0 0 0 0 0 0 0 0 0 0 0 0 0 0 0 0 0 0 0 0 0 0 0 0 0 0 0 0 0 0 0 0 0 0 0 0 0 0 0 0 0 0 0 0 0 0 0 0 0 0 0 0 0 0 0 0 0 0 0 0 0 0 0 0 0 0 0 0 0 0 0 0 0 0 0 0 0 0 0 0 0 0 0 0 0 0 0 0 0 0 0 0 0 0 0 0 0 0 0 0 0 0 0 0 0 0 0 0 0 0 0 0 0 0 0 0 0 0 0 0 0 0 0 0 0 0 0 0 0 0 0 0 0 0 0 0 0 0 0 0 0 0 0 0 0 0 0 0 0 0 0 0 0 0 0 0 0 0 0 0 0 0 0 0 0 0 0 0 0 0 0 0 0 0 0 0 0 0 0 0 0 0 0 0 0 0 0 0 0 0 0 0 0 0 0 0 0 0 0 0 0 0 0 0 0 0 0 0 0 0 0 0 0 0 0 0 0 0 0 0 0 0 0 0 0 0 0 0 0 0 0 0 0 0 0 0 0 0 0 0 0 0 0 0 0 0 0 0 0 0 0 0 0 0 0 0 0 0 0 0 0 0 0 0 0 0 0 0 0 0 0 0 0 0 0 0 0 0 0 0 0 0 0 0 0 0 0 0 0 0 0 0 0 0 0 0 0 0 0 0 0 0 0 0 0 0 0 0 0 0 0 0 0 0 0 0 0 0 0 0 0 0 0 0 0 0 0 0 0 0 0 0 0 0 0 0 0 0 0 0 0 0 0 0 0 0 0 0 0 0 0 0 0 0 0 0 0 0 0 0 0 0 0 0 0 0 0 0 0 0 0 0 0 0 0 0 0 0 0 0 0 0 0 0 0 0 0 0 0 0 0 0 0 0 0 0 0 0 0 0 0 0 0 0 0 0 0 0 0 0 0 0 0 0 0 0 0 0 0 0 0 0 0 0 0 0 0 0 0 0 0 0 0 0 0 0 0 0 0 0 0 0 0 0 0 0 0 0 0 0 0 0 0 0 0 0 0 0 0 0 0 0 0 0 0 0 0 0 0 0 0 0 0 0 0 0 0 0 0 0
0 0 0 0 0 0 0 0 0 0 0 0 0 0 0 0 0 0 0 0 0 0 0 0 0 0 0 0 0 0 0 0 0 0 0 0 0 0 0 0 0 0 0 0 0 0 0 0 0 0 0 0 0 0 0 0 0 0 0 0 0 0 0 0 0 0 0 0 0 0 0 0 0 0 0 0 0 0 0 0 0 0 0 0 0 0 0 0 0 0 0 0 0 0 0 0 0 0 0 0 0 0 0 0 0 0 0 0 0 0 0 0 0 0 0 0 0 0 0 0 0 0 0 0 0 0 0 0 0 0 0 0 0 0 0 0 0 0 0 0 0 0 0 0 0 0 0 0 0 0 0 0 0 0 0 0 0 0 0 0 0 0 0 0 0 0 0 0 0 0 0 0 0 0 0 0 0 0 0 0 0 0 0 0 0 0 0 0 0 0 0 0 0 0 0 0 0 0 0 0 0 0 0 0 0 0 0 0 0 0 0 0 0 0 0 0 0 0 0 0 0 0 0 0 0 0 0 0 0 0 0 0 0 0 0 0 0 0 0 0 0 0 0 0 0 0 0 0 0 0 0 0 0 0 0 0 0 0 0 0 0 0 0 0 0 0 0 0 0 0 0 0 0 0 0 0 0 0 0 0 0 0 0 0 0 0 0 0 0 0 0 0 0 0 0 0 0 0 0 0 0 0 0 0 0 0 0 0 0 0 0 0 0 0 0 0 0 0 0 0 0 0 0 0 0 0 0 0 0 0 0 0 0 0 0 0 0 0 0 0 0 0 0 0 0 0 0 0 0 0 0 0 0 0 0 0 0 0 0 0 0 0 0 0 0 0 0 0 0 0 0 0 0 0 0 0 0 0 0 0 0 0 0 0 0 0 0 0 0 0 0 0 0 0 0 0 0 0 0 0 0 0 0 0 0 0 0 0 0 0 0 0 0 0 0 0 0 0 0 0 0 0 0 0 0 0 0 0 0 0 0 0 0 0 0 0 0 0 0 0 0 0 0 0 0 0 0 0 0 0 0 0 0 0 0 0 0 0 0 0 0 0 0 0 0 0 0 0 0 0 0 0 0 0 0 0 0 0 0 0 0 0 0 0 0 0 0 0 0 0 0 0 0 0 0 0 0 0 0 0 0 0 0 0 0 0 0 0 0 0 0 0 0 0 0 0 0 0 0 0 0 0 0 0 0 0 0 0 0 0 0 0 0 0 0 0 0 0 0 0 0 0 0 0 0 0 0 0 0 0 0 0 0 0 0 0 0 0 0 0 0 0 0 0 0 0 0 0 0 0 0 0 0 0 0 0 0 0 0 0 0 0 0 0 0 0 0 0 0 0 0 0 0 0 0 0 0 0 0 0 0 0 0 0 0 0 0 0 0 0 0 0 0 0 0 0 0 0 0 0 0 0 0 0 0 0 0 0 0 0 0 0 0 0 0 0 0 0 0 0 0 0 0 0 0 0 0 0 0 0 0 0 0 0 0 0 0 0 0 0 0 0 0 0 0 0 0 0 0 0 0 0 0 0 0 0 0 0 0 0 0 0 0 0 0 0 0 0 0 0 0 0 0 0 0 0 0 0 0 0 0 0 0 0 0 0 0 0 0 0 0 0 0 0 0 0 0 0 0 0
0 0 0 0 0 0 0 0 0 0 0 0 0 0 0 0 0 0 0 0 0 0 0 0 0 0 0 0 0 0 0 0 0 0 0 0 0 0 0 0 0 0 0 0 0 0 0 0 0 0 0 0 0 0 0 0 0 0 0 0 0 0 0 0 0 0 0 0 0 0 0 0 0 0 0 0 0 0 0 0 0 0 0 0 0 0 0 0 0 0 0 0 0 0 0 0 0 0 0 0 0 0 0 0 0 0 0 0 0 0 0 0 0 0 0 0 0 0 0 0 0 0 0 0 0 0 0 0 0 0 0 0 0 0 0 0 0 0 0 0 0 0 0 0 0 0 0 0 0 0 0 0 0 0 0 0 0 0 0 0 0 0 0 0 0 0 0 0 0 0 0 0 0 0 0 0 0 0 0 0 0 0 0 0 0 0 0 0 0 0 0 0 0 0 0 0 0 0 0 0 0 0 0 0 0 0 0 0 0 0 0 0 0 0 0 0 0 0 0 0 0 0 0 0 0 0 0 0 0 0 0 0 0 0 0 0 0 0 0 0 0 0 0 0 0 0 0 0 0 0 0 0 0 0 0 0 0 0 0 0 0 0 0 0 0 0 0 0 0 0 0 0 0 0 0 0 0 0 0 0 0 0 0 0 0 0 0 0 0 0 0 0 0 0 0 0 0 0 0 0 0 0 0 0 0 0 0 0 0 0 0 0 0 0 0 0 0 0 0 0 0 0 0 0 0 0 0 0 0 0 0 0 0 0 0 0 0 0 0 0 0 0 0 0 0 0 0 0 0 0 0 0 0 0 0 0 0 0 0 0 0 0 0 0 0 0 0 0 0 0 0 0 0 0 0 0 0 0 0 0 0 0 0 0 0 0 0 0 0 0 0 0 0 0 0 0 0 0 0 0 0 0 0 0 0 0 0 0 0 0 0 0 0 0 0 0 0 0 0 0 0 0 0 0 0 0 0 0 0 0 0 0 0 0 0 0 0 0 0 0 0 0 0 0 0 0 0 0 0 0 0 0 0 0 0 0 0 0 0 0 0 0 0 0 0 0 0 0 0 0 0 0 0 0 0 0 0 0 0 0 0 0 0 0 0 0 0 0 0 0 0 0 0 0 0 0 0 0 0 0 0 0 0 0 0 0 0 0 0 0 0 0 0 0 0 0 0 0 0 0 0 0 0 0 0 0 0 0 0 0 0 0 0 0 0 0 0 0 0 0 0 0 0 0 0 0 0 0 0 0 0 0 0 0 0 0 0 0 0 0 0 0 0 0 0 0 0 0 0 0 0 0 0 0 0 0 0 0 0 0 0 0 0 0 0 0 0 0 0 0 0 0 0 0 0 0 0 0 0 0 0 0 0 0 0 0 0 0 0 0 0 0 0 0 0 0 0 0 0 0 0 0 0 0 0 0 0 0 0 0 0 0 0 0 0 0 0 0 0 0 0 0 0 0 0 0 0 0 0 0 0 0 0 0 0 0 0 0 0 0 0 0 0 0 0 0 0 0 0 0 0 0 0 0 0 0 0 0 0 0 0 0 0 0 0 0 0 0 0 0 0 0 0 0 0 0 0 0 0 0 0 0 0 0 0 0 0 0 0 0 0 0 0 0 0 0 0 0 0 0
0 0 0 0 0 0 0 0 0 0 0 0 0 0 0 0 0 0 0 0 0 0 0 0 0 0 0 0 0 0 0 0 0 0 0 0 0 0 0 0 0 0 0 0 0 0 0 0 0 0 0 0 0 0 0 0 0 0 0 0 0 0 0 0 0 0 0 0 0 0 0 0 0 0 0 0 0 0 0 0 0 0 0 0 0 0 0 0 0 0 0 0 0 0 0 0 0 0 0 0 0 0 0 0 0 0 0 0 0 0 0 0 0 0 0 0 0 0 0 0 0 0 0 0 0 0 0 0 0 0 0 0 0 0 0 0 0 0 0 0 0 0 0 0 0 0 0 0 0 0 0 0 0 0 0 0 0 0 0 0 0 0 0 0 0 0 0 0 0 0 0 0 0 0 0 0 0 0 0 0 0 0 0 0 0 0 0 0 0 0 0 0 0 0 0 0 0 0 0 0 0 0 0 0 0 0 0 0 0 0 0 0 0 0 0 0 0 0 0 0 0 0 0 0 0 0 0 0 0 0 0 0 0 0 0 0 0 0 0 0 0 0 0 0 0 0 0 0 0 0 0 0 0 0 0 0 0 0 0 0 0 0 0 0 0 0 0 0 0 0 0 0 0 0 0 0 0 0 0 0 0 0 0 0 0 0 0 0 0 0 0 0 0 0 0 0 0 0 0 0 0 0 0 0 0 0 0 0 0 0 0 0 0 0 0 0 0 0 0 0 0 0 0 0 0 0 0 0 0 0 0 0 0 0 0 0 0 0 0 0 0 0 0 0 0 0 0 0 0 0 0 0 0 0 0 0 0 0 0 0 0 0 0 0 0 0 0 0 0 0 0 0 0 0 0 0 0 0 0 0 0 0 0 0 0 0 0 0 0 0 0 0 0 0 0 0 0 0 0 0 0 0 0 0 0 0 0 0 0 0 0 0 0 0 0 0 0 0 0 0 0 0 0 0 0 0 0 0 0 0 0 0 0 0 0 0 0 0 0 0 0 0 0 0 0 0 0 0 0 0 0 0 0 0 0 0 0 0 0 0 0 0 0 0 0 0 0 0 0 0 0 0 0 0 0 0 0 0 0 0 0 0 0 0 0 0 0 0 0 0 0 0 0 0 0 0 0 0 0 0 0 0 0 0 0 0 0 0 0 0 0 0 0 0 0 0 0 0 0 0 0 0 0 0 0 0 0 0 0 0 0 0 0 0 0 0 0 0 0 0 0 0 0 0 0 0 0 0 0 0 0 0 0 0 0 0 0 0 0 0 0 0 0 0 0 0 0 0 0 0 0 0 0 0 0 0 0 0 0 0 0 0 0 0 0 0 0 0 0 0 0 0 0 0 0 0 0 0 0 0 0 0 0 0 0 0 0 0 0 0 0 0 0 0 0 0 0 0 0 0 0 0 0 0 0 0 0 0 0 0 0 0 0 0 0 0 0 0 0 0 0 0 0 0 0 0 0 0 0 0 0 0 0 0 0 0 0 0 0 0 0 0 0 0 0 0 0 0 0 0 0 0 0 0 0 0 0 0 0 0 0 0 0 0 0 0 0 0 0 0 0 0 0 0 0 0 0 0 0 0 0 0 0 0 0 0 0 0 0 0 0 0 0 0 0 0 0 0 0 0
0 0 0 0 0 0 0 0 0 0 0 0 0 0 0 0 0 0 0 0 0 0 0 0 0 0 0 0 0 0 0 0 0 0 0 0 0 0 0 0 0 0 0 0 0 0 0 0 0 0 0 0 0 0 0 0 0 0 0 0 0 0 0 0 0 0 0 0 0 0 0 0 0 0 0 0 0 0 0 0 0 0 0 0 0 0 0 0 0 0 0 0 0 0 0 0 0 0 0 0 0 0 0 0 0 0 0 0 0 0 0 0 0 0 0 0 0 0 0 0 0 0 0 0 0 0 0 0 0 0 0 0 0 0 0 0 0 0 0 0 0 0 0 0 0 0 0 0 0 0 0 0 0 0 0 0 0 0 0 0 0 0 0 0 0 0 0 0 0 0 0 0 0 0 0 0 0 0 0 0 0 0 0 0 0 0 0 0 0 0 0 0 0 0 0 0 0 0 0 0 0 0 0 0 0 0 0 0 0 0 0 0 0 0 0 0 0 0 0 0 0 0 0 0 0 0 0 0 0 0 0 0 0 0 0 0 0 0 0 0 0 0 0 0 0 0 0 0 0 0 0 0 0 0 0 0 0 0 0 0 0 0 0 0 0 0 0 0 0 0 0 0 0 0 0 0 0 0 0 0 0 0 0 0 0 0 0 0 0 0 0 0 0 0 0 0 0 0 0 0 0 0 0 0 0 0 0 0 0 0 0 0 0 0 0 0 0 0 0 0 0 0 0 0 0 0 0 0 0 0 0 0 0 0 0 0 0 0 0 0 0 0 0 0 0 0 0 0 0 0 0 0 0 0 0 0 0 0 0 0 0 0 0 0 0 0 0 0 0 0 0 0 0 0 0 0 0 0 0 0 0 0 0 0 0 0 0 0 0 0 0 0 0 0 0 0 0 0 0 0 0 0 0 0 0 0 0 0 0 0 0 0 0 0 0 0 0 0 0 0 0 0 0 0 0 0 0 0 0 0 0 0 0 0 0 0 0 0 0 0 0 0 0 0 0 0 0 0 0 0 0 0 0 0 0 0 0 0 0 0 0 0 0 0 0 0 0 0 0 0 0 0 0 0 0 0 0 0 0 0 0 0 0 0 0 0 0 0 0 0 0 0 0 0 0 0 0 0 0 0 0 0 0 0 0 0 0 0 0 0 0 0 0 0 0 0 0 0 0 0 0 0 0 0 0 0 0 0 0 0 0 0 0 0 0 0 0 0 0 0 0 0 0 0 0 0 0 0 0 0 0 0 0 0 0 0 0 0 0 0 0 0 0 0 0 0 0 0 0 0 0 0 0 0 0 0 0 0 0 0 0 0 0 0 0 0 0 0 0 0 0 0 0 0 0 0 0 0 0 0 0 0 0 0 0 0 0 0 0 0 0 0 0 0 0 0 0 0 0 0 0 0 0 0 0 0 0 0 0 0 0 0 0 0 0 0 0 0 0 0 0 0 0 0 0 0 0 0 0 0 0 0 0 0 0 0 0 0 0 0 0 0 0 0 0 0 0 0 0 0 0 0 0 0 0 0 0 0 0 0 0 0 0 0 0 0 0 0 0 0 0 0 0 0 0 0 0 0 0 0 0 0 0 0 0 0 0 0 0 0 0 0 0 0 0 0 0 0 0 0
0 0 0 0 0 0 0 0 0 0 0 0 0 0 0 0 0 0 0 0 0 0 0 0 0 0 0 0 0 0 0 0 0 0 0 0 0 0 0 0 0 0 0 0 0 0 0 0 0 0 0 0 0 0 0 0 0 0 0 0 0 0 0 0 0 0 0 0 0 0 0 0 0 0 0 0 0 0 0 0 0 0 0 0 0 0 0 0 0 0 0 0 0 0 0 0 0 0 0 0 0 0 0 0 0 0 0 0 0 0 0 0 0 0 0 0 0 0 0 0 0 0 0 0 0 0 0 0 0 0 0 0 0 0 0 0 0 0 0 0 0 0 0 0 0 0 0 0 0 0 0 0 0 0 0 0 0 0 0 0 0 0 0 0 0 0 0 0 0 0 0 0 0 0 0 0 0 0 0 0 0 0 0 0 0 0 0 0 0 0 0 0 0 0 0 0 0 0 0 0 0 0 0 0 0 0 0 0 0 0 0 0 0 0 0 0 0 0 0 0 0 0 0 0 0 0 0 0 0 0 0 0 0 0 0 0 0 0 0 0 0 0 0 0 0 0 0 0 0 0 0 0 0 0 0 0 0 0 0 0 0 0 0 0 0 0 0 0 0 0 0 0 0 0 0 0 0 0 0 0 0 0 0 0 0 0 0 0 0 0 0 0 0 0 0 0 0 0 0 0 0 0 0 0 0 0 0 0 0 0 0 0 0 0 0 0 0 0 0 0 0 0 0 0 0 0 0 0 0 0 0 0 0 0 0 0 0 0 0 0 0 0 0 0 0 0 0 0 0 0 0 0 0 0 0 0 0 0 0 0 0 0 0 0 0 0 0 0 0 0 0 0 0 0 0 0 0 0 0 0 0 0 0 0 0 0 0 0 0 0 0 0 0 0 0 0 0 0 0 0 0 0 0 0 0 0 0 0 0 0 0 0 0 0 0 0 0 0 0 0 0 0 0 0 0 0 0 0 0 0 0 0 0 0 0 0 0 0 0 0 0 0 0 0 0 0 0 0 0 0 0 0 0 0 0 0 0 0 0 0 0 0 0 0 0 0 0 0 0 0 0 0 0 0 0 0 0 0 0 0 0 0 0 0 0 0 0 0 0 0 0 0 0 0 0 0 0 0 0 0 0 0 0 0 0 0 0 0 0 0 0 0 0 0 0 0 0 0 0 0 0 0 0 0 0 0 0 0 0 0 0 0 0 0 0 0 0 0 0 0 0 0 0 0 0 0 0 0 0 0 0 0 0 0 0 0 0 0 0 0 0 0 0 0 0 0 0 0 0 0 0 0 0 0 0 0 0 0 0 0 0 0 0 0 0 0 0 0 0 0 0 0 0 0 0 0 0 0 0 0 0 0 0 0 0 0 0 0 0 0 0 0 0 0 0 0 0 0 0 0 0 0 0 0 0 0 0 0 0 0 0 0 0 0 0 0 0 0 0 0 0 0 0 0 0 0 0 0 0 0 0 0 0 0 0 0 0 0 0 0 0 0 0 0 0 0 0 0 0 0 0 0 0 0 0 0 0 0 0 0 0 0 0 0 0 0 0 0 0 0 0 0 0 0 0 0 0 0 0 0 0 0 0 0 0 0 0 0 0 0 0 0 0 0 0 0 0 0 0 0
0 0 0 0 0 0 0 0 0 0 0 0 0 0 0 0 0 0 0 0 0 0 0 0 0 0 0 0 0 0 0 0 0 0 0 0 0 0 0 0 0 0 0 0 0 0 0 0 0 0 0 0 0 0 0 0 0 0 0 0 0 0 0 0 0 0 0 0 0 0 0 0 0 0 0 0 0 0 0 0 0 0 0 0 0 0 0 0 0 0 0 0 0 0 0 0 0 0 0 0 0 0 0 0 0 0 0 0 0 0 0 0 0 0 0 0 0 0 0 0 0 0 0 0 0 0 0 0 0 0 0 0 0 0 0 0 0 0 0 0 0 0 0 0 0 0 0 0 0 0 0 0 0 0 0 0 0 0 0 0 0 0 0 0 0 0 0 0 0 0 0 0 0 0 0 0 0 0 0 0 0 0 0 0 0 0 0 0 0 0 0 0 0 0 0 0 0 0 0 0 0 0 0 0 0 0 0 0 0 0 0 0 0 0 0 0 0 0 0 0 0 0 0 0 0 0 0 0 0 0 0 0 0 0 0 0 0 0 0 0 0 0 0 0 0 0 0 0 0 0 0 0 0 0 0 0 0 0 0 0 0 0 0 0 0 0 0 0 0 0 0 0 0 0 0 0 0 0 0 0 0 0 0 0 0 0 0 0 0 0 0 0 0 0 0 0 0 0 0 0 0 0 0 0 0 0 0 0 0 0 0 0 0 0 0 0 0 0 0 0 0 0 0 0 0 0 0 0 0 0 0 0 0 0 0 0 0 0 0 0 0 0 0 0 0 0 0 0 0 0 0 0 0 0 0 0 0 0 0 0 0 0 0 0 0 0 0 0 0 0 0 0 0 0 0 0 0 0 0 0 0 0 0 0 0 0 0 0 0 0 0 0 0 0 0 0 0 0 0 0 0 0 0 0 0 0 0 0 0 0 0 0 0 0 0 0 0 0 0 0 0 0 0 0 0 0 0 0 0 0 0 0 0 0 0 0 0 0 0 0 0 0 0 0 0 0 0 0 0 0 0 0 0 0 0 0 0 0 0 0 0 0 0 0 0 0 0 0 0 0 0 0 0 0 0 0 0 0 0 0 0 0 0 0 0 0 0 0 0 0 0 0 0 0 0 0 0 0 0 0 0 0 0 0 0 0 0 0 0 0 0 0 0 0 0 0 0 0 0 0 0 0 0 0 0 0 0 0 0 0 0 0 0 0 0 0 0 0 0 0 0 0 0 0 0 0 0 0 0 0 0 0 0 0 0 0 0 0 0 0 0 0 0 0 0 0 0 0 0 0 0 0 0 0 0 0 0 0 0 0 0 0 0 0 0 0 0 0 0 0 0 0 0 0 0 0 0 0 0 0 0 0 0 0 0 0 0 0 0 0 0 0 0 0 0 0 0 0 0 0 0 0 0 0 0 0 0 0 0 0 0 0 0 0 0 0 0 0 0 0 0 0 0 0 0 0 0 0 0 0 0 0 0 0 0 0 0 0 0 0 0 0 0 0 0 0 0 0 0 0 0 0 0 0 0 0 0 0 0 0 0 0 0 0 0 0 0 0 0 0 0 0 0 0 0 0 0 0 0 0 0 0 0 0 0 0 0 0 0 0 0 0 0 0 0 0 0 0 0 0
0 0 0 0 0 0 0 0 0 0 0 0 0 0 0 0 0 0 0 0 0 0 0 0 0 0 0 0 0 0 0 0 0 0 0 0 0 0 0 0 0 0 0 0 0 0 0 0 0 0 0 0 0 0 0 0 0 0 0 0 0 0 0 0 0 0 0 0 0 0 0 0 0 0 0 0 0 0 0 0 0 0 0 0 0 0 0 0 0 0 0 0 0 0 0 0 0 0 0 0 0 0 0 0 0 0 0 0 0 0 0 0 0 0 0 0 0 0 0 0 0 0 0 0 0 0 0 0 0 0 0 0 0 0 0 0 0 0 0 0 0 0 0 0 0 0 0 0 0 0 0 0 0 0 0 0 0 0 0 0 0 0 0 0 0 0 0 0 0 0 0 0 0 0 0 0 0 0 0 0 0 0 0 0 0 0 0 0 0 0 0 0 0 0 0 0 0 0 0 0 0 0 0 0 0 0 0 0 0 0 0 0 0 0 0 0 0 0 0 0 0 0 0 0 0 0 0 0 0 0 0 0 0 0 0 0 0 0 0 0 0 0 0 0 0 0 0 0 0 0 0 0 0 0 0 0 0 0 0 0 0 0 0 0 0 0 0 0 0 0 0 0 0 0 0 0 0 0 0 0 0 0 0 0 0 0 0 0 0 0 0 0 0 0 0 0 0 0 0 0 0 0 0 0 0 0 0 0 0 0 0 0 0 0 0 0 0 0 0 0 0 0 0 0 0 0 0 0 0 0 0 0 0 0 0 0 0 0 0 0 0 0 0 0 0 0 0 0 0 0 0 0 0 0 0 0 0 0 0 0 0 0 0 0 0 0 0 0 0 0 0 0 0 0 0 0 0 0 0 0 0 0 0 0 0 0 0 0 0 0 0 0 0 0 0 0 0 0 0 0 0 0 0 0 0 0 0 0 0 0 0 0 0 0 0 0 0 0 0 0 0 0 0 0 0 0 0 0 0 0 0 0 0 0 0 0 0 0 0 0 0 0 0 0 0 0 0 0 0 0 0 0 0 0 0 0 0 0 0 0 0 0 0 0 0 0 0 0 0 0 0 0 0 0 0 0 0 0 0 0 0 0 0 0 0 0 0 0 0 0 0 0 0 0 0 0 0 0 0 0 0 0 0 0 0 0 0 0 0 0 0 0 0 0 0 0 0 0 0 0 0 0 0 0 0 0 0 0 0 0 0 0 0 0 0 0 0 0 0 0 0 0 0 0 0 0 0 0 0 0 0 0 0 0 0 0 0 0 0 0 0 0 0 0 0 0 0 0 0 0 0 0 0 0 0 0 0 0 0 0 0 0 0 0 0 0 0 0 0 0 0 0 0 0 0 0 0 0 0 0 0 0 0 0 0 0 0 0 0 0 0 0 0 0 0 0 0 0 0 0 0 0 0 0 0 0 0 0 0 0 0 0 0 0 0 0 0 0 0 0 0 0 0 0 0 0 0 0 0 0 0 0 0 0 0 0 0 0 0 0 0 0 0 0 0 0 0 0 0 0 0 0 0 0 0 0 0 0 0 0 0 0 0 0 0 0 0 0 0 0 0 0 0 0 0 0 0 0 0 0 0 0 0 0 0 0 0 0 0 0 0 0 0 0 0 0 0 0 0 0
0 0 0 0 0 0 0 0 0 0 0 0 0 0 0 0 0 0 0 0 0 0 0 0 0 0 0 0 0 0 0 0 0 0 0 0 0 0 0 0 0 0 0 0 0 0 0 0 0 0 0 0 0 0 0 0 0 0 0 0 0 0 0 0 0 0 0 0 0 0 0 0 0 0 0 0 0 0 0 0 0 0 0 0 0 0 0 0 0 0 0 0 0 0 0 0 0 0 0 0 0 0 0 0 0 0 0 0 0 0 0 0 0 0 0 0 0 0 0 0 0 0 0 0 0 0 0 0 0 0 0 0 0 0 0 0 0 0 0 0 0 0 0 0 0 0 0 0 0 0 0 0 0 0 0 0 0 0 0 0 0 0 0 0 0 0 0 0 0 0 0 0 0 0 0 0 0 0 0 0 0 0 0 0 0 0 0 0 0 0 0 0 0 0 0 0 0 0 0 0 0 0 0 0 0 0 0 0 0 0 0 0 0 0 0 0 0 0 0 0 0 0 0 0 0 0 0 0 0 0 0 0 0 0 0 0 0 0 0 0 0 0 0 0 0 0 0 0 0 0 0 0 0 0 0 0 0 0 0 0 0 0 0 0 0 0 0 0 0 0 0 0 0 0 0 0 0 0 0 0 0 0 0 0 0 0 0 0 0 0 0 0 0 0 0 0 0 0 0 0 0 0 0 0 0 0 0 0 0 0 0 0 0 0 0 0 0 0 0 0 0 0 0 0 0 0 0 0 0 0 0 0 0 0 0 0 0 0 0 0 0 0 0 0 0 0 0 0 0 0 0 0 0 0 0 0 0 0 0 0 0 0 0 0 0 0 0 0 0 0 0 0 0 0 0 0 0 0 0 0 0 0 0 0 0 0 0 0 0 0 0 0 0 0 0 0 0 0 0 0 0 0 0 0 0 0 0 0 0 0 0 0 0 0 0 0 0 0 0 0 0 0 0 0 0 0 0 0 0 0 0 0 0 0 0 0 0 0 0 0 0 0 0 0 0 0 0 0 0 0 0 0 0 0 0 0 0 0 0 0 0 0 0 0 0 0 0 0 0 0 0 0 0 0 0 0 0 0 0 0 0 0 0 0 0 0 0 0 0 0 0 0 0 0 0 0 0 0 0 0 0 0 0 0 0 0 0 0 0 0 0 0 0 0 0 0 0 0 0 0 0 0 0 0 0 0 0 0 0 0 0 0 0 0 0 0 0 0 0 0 0 0 0 0 0 0 0 0 0 0 0 0 0 0 0 0 0 0 0 0 0 0 0 0 0 0 0 0 0 0 0 0 0 0 0 0 0 0 0 0 0 0 0 0 0 0 0 0 0 0 0 0 0 0 0 0 0 0 0 0 0 0 0 0 0 0 0 0 0 0 0 0 0 0 0 0 0 0 0 0 0 0 0 0 0 0 0 0 0 0 0 0 0 0 0 0 0 0 0 0 0 0 0 0 0 0 0 0 0 0 0 0 0 0 0 0 0 0 0 0 0 0 0 0 0 0 0 0 0 0 0 0 0 0 0 0 0 0 0 0 0 0 0 0 0 0 0 0 0 0 0 0 0 0 0 0 0 0 0 0 0 0 0 0 0 0 0 0 0 0 0 0 0 0 0 0 0 0 0 0
0 0 0 0 0 0 0 0 0 0 0 0 0 0 0 0 0 0 0 0 0 0 0 0 0 0 0 0 0 0 0 0 0 0 0 0 0 0 0 0 0 0 0 0 0 0 0 0 0 0 0 0 0 0 0 0 0 0 0 0 0 0 0 0 0 0 0 0 0 0 0 0 0 0 0 0 0 0 0 0 0 0 0 0 0 0 0 0 0 0 0 0 0 0 0 0 0 0 0 0 0 0 0 0 0 0 0 0 0 0 0 0 0 0 0 0 0 0 0 0 0 0 0 0 0 0 0 0 0 0 0 0 0 0 0 0 0 0 0 0 0 0 0 0 0 0 0 0 0 0 0 0 0 0 0 0 0 0 0 0 0 0 0 0 0 0 0 0 0 0 0 0 0 0 0 0 0 0 0 0 0 0 0 0 0 0 0 0 0 0 0 0 0 0 0 0 0 0 0 0 0 0 0 0 0 0 0 0 0 0 0 0 0 0 0 0 0 0 0 0 0 0 0 0 0 0 0 0 0 0 0 0 0 0 0 0 0 0 0 0 0 0 0 0 0 0 0 0 0 0 0 0 0 0 0 0 0 0 0 0 0 0 0 0 0 0 0 0 0 0 0 0 0 0 0 0 0 0 0 0 0 0 0 0 0 0 0 0 0 0 0 0 0 0 0 0 0 0 0 0 0 0 0 0 0 0 0 0 0 0 0 0 0 0 0 0 0 0 0 0 0 0 0 0 0 0 0 0 0 0 0 0 0 0 0 0 0 0 0 0 0 0 0 0 0 0 0 0 0 0 0 0 0 0 0 0 0 0 0 0 0 0 0 0 0 0 0 0 0 0 0 0 0 0 0 0 0 0 0 0 0 0 0 0 0 0 0 0 0 0 0 0 0 0 0 0 0 0 0 0 0 0 0 0 0 0 0 0 0 0 0 0 0 0 0 0 0 0 0 0 0 0 0 0 0 0 0 0 0 0 0 0 0 0 0 0 0 0 0 0 0 0 0 0 0 0 0 0 0 0 0 0 0 0 0 0 0 0 0 0 0 0 0 0 0 0 0 0 0 0 0 0 0 0 0 0 0 0 0 0 0 0 0 0 0 0 0 0 0 0 0 0 0 0 0 0 0 0 0 0 0 0 0 0 0 0 0 0 0 0 0 0 0 0 0 0 0 0 0 0 0 0 0 0 0 0 0 0 0 0 0 0 0 0 0 0 0 0 0 0 0 0 0 0 0 0 0 0 0 0 0 0 0 0 0 0 0 0 0 0 0 0 0 0 0 0 0 0 0 0 0 0 0 0 0 0 0 0 0 0 0 0 0 0 0 0 0 0 0 0 0 0 0 0 0 0 0 0 0 0 0 0 0 0 0 0 0 0 0 0 0 0 0 0 0 0 0 0 0 0 0 0 0 0 0 0 0 0 0 0 0 0 0 0 0 0 0 0 0 0 0 0 0 0 0 0 0 0 0 0 0 0 0 0 0 0 0 0 0 0 0 0 0 0 0 0 0 0 0 0 0 0 0 0 0 0 0 0 0 0 0 0 0 0 0 0 0 0 0 0 0 0 0 0 0 0 0 0 0 0 0 0 0 0 0 0 0 0 0 0 0 0 0 0 0 0 0 0 0 0
0 0 0 0 0 0 0 0 0 0 0 0 0 0 0 0 0 0 0 0 0 0 0 0 0 0 0 0 0 0 0 0 0 0 0 0 0 0 0 0 0 0 0 0 0 0 0 0 0 0 0 0 0 0 0 0 0 0 0 0 0 0 0 0 0 0 0 0 0 0 0 0 0 0 0 0 0 0 0 0 0 0 0 0 0 0 0 0 0 0 0 0 0 0 0 0 0 0 0 0 0 0 0 0 0 0 0 0 0 0 0 0 0 0 0 0 0 0 0 0 0 0 0 0 0 0 0 0 0 0 0 0 0 0 0 0 0 0 0 0 0 0 0 0 0 0 0 0 0 0 0 0 0 0 0 0 0 0 0 0 0 0 0 0 0 0 0 0 0 0 0 0 0 0 0 0 0 0 0 0 0 0 0 0 0 0 0 0 0 0 0 0 0 0 0 0 0 0 0 0 0 0 0 0 0 0 0 0 0 0 0 0 0 0 0 0 0 0 0 0 0 0 0 0 0 0 0 0 0 0 0 0 0 0 0 0 0 0 0 0 0 0 0 0 0 0 0 0 0 0 0 0 0 0 0 0 0 0 0 0 0 0 0 0 0 0 0 0 0 0 0 0 0 0 0 0 0 0 0 0 0 0 0 0 0 0 0 0 0 0 0 0 0 0 0 0 0 0 0 0 0 0 0 0 0 0 0 0 0 0 0 0 0 0 0 0 0 0 0 0 0 0 0 0 0 0 0 0 0 0 0 0 0 0 0 0 0 0 0 0 0 0 0 0 0 0 0 0 0 0 0 0 0 0 0 0 0 0 0 0 0 0 0 0 0 0 0 0 0 0 0 0 0 0 0 0 0 0 0 0 0 0 0 0 0 0 0 0 0 0 0 0 0 0 0 0 0 0 0 0 0 0 0 0 0 0 0 0 0 0 0 0 0 0 0 0 0 0 0 0 0 0 0 0 0 0 0 0 0 0 0 0 0 0 0 0 0 0 0 0 0 0 0 0 0 0 0 0 0 0 0 0 0 0 0 0 0 0 0 0 0 0 0 0 0 0 0 0 0 0 0 0 0 0 0 0 0 0 0 0 0 0 0 0 0 0 0 0 0 0 0 0 0 0 0 0 0 0 0 0 0 0 0 0 0 0 0 0 0 0 0 0 0 0 0 0 0 0 0 0 0 0 0 0 0 0 0 0 0 0 0 0 0 0 0 0 0 0 0 0 0 0 0 0 0 0 0 0 0 0 0 0 0 0 0 0 0 0 0 0 0 0 0 0 0 0 0 0 0 0 0 0 0 0 0 0 0 0 0 0 0 0 0 0 0 0 0 0 0 0 0 0 0 0 0 0 0 0 0 0 0 0 0 0 0 0 0 0 0 0 0 0 0 0 0 0 0 0 0 0 0 0 0 0 0 0 0 0 0 0 0 0 0 0 0 0 0 0 0 0 0 0 0 0 0 0 0 0 0 0 0 0 0 0 0 0 0 0 0 0 0 0 0 0 0 0 0 0 0 0 0 0 0 0 0 0 0 0 0 0 0 0 0 0 0 0 0 0 0 0 0 0 0 0 0 0 0 0 0 0 0 0 0 0 0 0 0 0 0 0 0 0 0 0 0 0 0 0 0 0
0 0 0 0 0 0 0 0 0 0 0 0 0 0 0 0 0 0 0 0 0 0 0 0 0 0 0 0 0 0 0 0 0 0 0 0 0 0 0 0 0 0 0 0 0 0 0 0 0 0 0 0 0 0 0 0 0 0 0 0 0 0 0 0 0 0 0 0 0 0 0 0 0 0 0 0 0 0 0 0 0 0 0 0 0 0 0 0 0 0 0 0 0 0 0 0 0 0 0 0 0 0 0 0 0 0 0 0 0 0 0 0 0 0 0 0 0 0 0 0 0 0 0 0 0 0 0 0 0 0 0 0 0 0 0 0 0 0 0 0 0 0 0 0 0 0 0 0 0 0 0 0 0 0 0 0 0 0 0 0 0 0 0 0 0 0 0 0 0 0 0 0 0 0 0 0 0 0 0 0 0 0 0 0 0 0 0 0 0 0 0 0 0 0 0 0 0 0 0 0 0 0 0 0 0 0 0 0 0 0 0 0 0 0 0 0 0 0 0 0 0 0 0 0 0 0 0 0 0 0 0 0 0 0 0 0 0 0 0 0 0 0 0 0 0 0 0 0 0 0 0 0 0 0 0 0 0 0 0 0 0 0 0 0 0 0 0 0 0 0 0 0 0 0 0 0 0 0 0 0 0 0 0 0 0 0 0 0 0 0 0 0 0 0 0 0 0 0 0 0 0 0 0 0 0 0 0 0 0 0 0 0 0 0 0 0 0 0 0 0 0 0 0 0 0 0 0 0 0 0 0 0 0 0 0 0 0 0 0 0 0 0 0 0 0 0 0 0 0 0 0 0 0 0 0 0 0 0 0 0 0 0 0 0 0 0 0 0 0 0 0 0 0 0 0 0 0 0 0 0 0 0 0 0 0 0 0 0 0 0 0 0 0 0 0 0 0 0 0 0 0 0 0 0 0 0 0 0 0 0 0 0 0 0 0 0 0 0 0 0 0 0 0 0 0 0 0 0 0 0 0 0 0 0 0 0 0 0 0 0 0 0 0 0 0 0 0 0 0 0 0 0 0 0 0 0 0 0 0 0 0 0 0 0 0 0 0 0 0 0 0 0 0 0 0 0 0 0 0 0 0 0 0 0 0 0 0 0 0 0 0 0 0 0 0 0 0 0 0 0 0 0 0 0 0 0 0 0 0 0 0 0 0 0 0 0 0 0 0 0 0 0 0 0 0 0 0 0 0 0 0 0 0 0 0 0 0 0 0 0 0 0 0 0 0 0 0 0 0 0 0 0 0 0 0 0 0 0 0 0 0 0 0 0 0 0 0 0 0 0 0 0 0 0 0 0 0 0 0 0 0 0 0 0 0 0 0 0 0 0 0 0 0 0 0 0 0 0 0 0 0 0 0 0 0 0 0 0 0 0 0 0 0 0 0 0 0 0 0 0 0 0 0 0 0 0 0 0 0 0 0 0 0 0 0 0 0 0 0 0 0 0 0 0 0 0 0 0 0 0 0 0 0 0 0 0 0 0 0 0 0 0 0 0 0 0 0 0 0 0 0 0 0 0 0 0 0 0 0 0 0 0 0 0 0 0 0 0 0 0 0 0 0 0 0 0 0 0 0 0 0 0 0 0 0 0 0 0 0 0 0 0 0 0 0 0 0 0 0 0
0 0 0 0 0 0 0 0 0 0 0 0 0 0 0 0 0 0 0 0 0 0 0 0 0 0 0 0 0 0 0 0 0 0 0 0 0 0 0 0 0 0 0 0 0 0 0 0 0 0 0 0 0 0 0 0 0 0 0 0 0 0 0 0 0 0 0 0 0 0 0 0 0 0 0 0 0 0 0 0 0 0 0 0 0 0 0 0 0 0 0 0 0 0 0 0 0 0 0 0 0 0 0 0 0 0 0 0 0 0 0 0 0 0 0 0 0 0 0 0 0 0 0 0 0 0 0 0 0 0 0 0 0 0 0 0 0 0 0 0 0 0 0 0 0 0 0 0 0 0 0 0 0 0 0 0 0 0 0 0 0 0 0 0 0 0 0 0 0 0 0 0 0 0 0 0 0 0 0 0 0 0 0 0 0 0 0 0 0 0 0 0 0 0 0 0 0 0 0 0 0 0 0 0 0 0 0 0 0 0 0 0 0 0 0 0 0 0 0 0 0 0 0 0 0 0 0 0 0 0 0 0 0 0 0 0 0 0 0 0 0 0 0 0 0 0 0 0 0 0 0 0 0 0 0 0 0 0 0 0 0 0 0 0 0 0 0 0 0 0 0 0 0 0 0 0 0 0 0 0 0 0 0 0 0 0 0 0 0 0 0 0 0 0 0 0 0 0 0 0 0 0 0 0 0 0 0 0 0 0 0 0 0 0 0 0 0 0 0 0 0 0 0 0 0 0 0 0 0 0 0 0 0 0 0 0 0 0 0 0 0 0 0 0 0 0 0 0 0 0 0 0 0 0 0 0 0 0 0 0 0 0 0 0 0 0 0 0 0 0 0 0 0 0 0 0 0 0 0 0 0 0 0 0 0 0 0 0 0 0 0 0 0 0 0 0 0 0 0 0 0 0 0 0 0 0 0 0 0 0 0 0 0 0 0 0 0 0 0 0 0 0 0 0 0 0 0 0 0 0 0 0 0 0 0 0 0 0 0 0 0 0 0 0 0 0 0 0 0 0 0 0 0 0 0 0 0 0 0 0 0 0 0 0 0 0 0 0 0 0 0 0 0 0 0 0 0 0 0 0 0 0 0 0 0 0 0 0 0 0 0 0 0 0 0 0 0 0 0 0 0 0 0 0 0 0 0 0 0 0 0 0 0 0 0 0 0 0 0 0 0 0 0 0 0 0 0 0 0 0 0 0 0 0 0 0 0 0 0 0 0 0 0 0 0 0 0 0 0 0 0 0 0 0 0 0 0 0 0 0 0 0 0 0 0 0 0 0 0 0 0 0 0 0 0 0 0 0 0 0 0 0 0 0 0 0 0 0 0 0 0 0 0 0 0 0 0 0 0 0 0 0 0 0 0 0 0 0 0 0 0 0 0 0 0 0 0 0 0 0 0 0 0 0 0 0 0 0 0 0 0 0 0 0 0 0 0 0 0 0 0 0 0 0 0 0 0 0 0 0 0 0 0 0 0 0 0 0 0 0 0 0 0 0 0 0 0 0 0 0 0 0 0 0 0 0 0 0 0 0 0 0 0 0 0 0 0 0 0 0 0 0 0 0 0 0 0 0 0 0 0 0 0 0 0 0 0 0 0 0 0 0 0 0 0 0 0 0 0 0
0 0 0 0 0 0 0 0 0 0 0 0 0 0 0 0 0 0 0 0 0 0 0 0 0 0 0 0 0 0 0 0 0 0 0 0 0 0 0 0 0 0 0 0 0 0 0 0 0 0 0 0 0 0 0 0 0 0 0 0 0 0 0 0 0 0 0 0 0 0 0 0 0 0 0 0 0 0 0 0 0 0 0 0 0 0 0 0 0 0 0 0 0 0 0 0 0 0 0 0 0 0 0 0 0 0 0 0 0 0 0 0 0 0 0 0 0 0 0 0 0 0 0 0 0 0 0 0 0 0 0 0 0 0 0 0 0 0 0 0 0 0 0 0 0 0 0 0 0 0 0 0 0 0 0 0 0 0 0 0 0 0 0 0 0 0 0 0 0 0 0 0 0 0 0 0 0 0 0 0 0 0 0 0 0 0 0 0 0 0 0 0 0 0 0 0 0 0 0 0 0 0 0 0 0 0 0 0 0 0 0 0 0 0 0 0 0 0 0 0 0 0 0 0 0 0 0 0 0 0 0 0 0 0 0 0 0 0 0 0 0 0 0 0 0 0 0 0 0 0 0 0 0 0 0 0 0 0 0 0 0 0 0 0 0 0 0 0 0 0 0 0 0 0 0 0 0 0 0 0 0 0 0 0 0 0 0 0 0 0 0 0 0 0 0 0 0 0 0 0 0 0 0 0 0 0 0 0 0 0 0 0 0 0 0 0 0 0 0 0 0 0 0 0 0 0 0 0 0 0 0 0 0 0 0 0 0 0 0 0 0 0 0 0 0 0 0 0 0 0 0 0 0 0 0 0 0 0 0 0 0 0 0 0 0 0 0 0 0 0 0 0 0 0 0 0 0 0 0 0 0 0 0 0 0 0 0 0 0 0 0 0 0 0 0 0 0 0 0 0 0 0 0 0 0 0 0 0 0 0 0 0 0 0 0 0 0 0 0 0 0 0 0 0 0 0 0 0 0 0 0 0 0 0 0 0 0 0 0 0 0 0 0 0 0 0 0 0 0 0 0 0 0 0 0 0 0 0 0 0 0 0 0 0 0 0 0 0 0 0 0 0 0 0 0 0 0 0 0 0 0 0 0 0 0 0 0 0 0 0 0 0 0 0 0 0 0 0 0 0 0 0 0 0 0 0 0 0 0 0 0 0 0 0 0 0 0 0 0 0 0 0 0 0 0 0 0 0 0 0 0 0 0 0 0 0 0 0 0 0 0 0 0 0 0 0 0 0 0 0 0 0 0 0 0 0 0 0 0 0 0 0 0 0 0 0 0 0 0 0 0 0 0 0 0 0 0 0 0 0 0 0 0 0 0 0 0 0 0 0 0 0 0 0 0 0 0 0 0 0 0 0 0 0 0 0 0 0 0 0 0 0 0 0 0 0 0 0 0 0 0 0 0 0 0 0 0 0 0 0 0 0 0 0 0 0 0 0 0 0 0 0 0 0 0 0 0 0 0 0 0 0 0 0 0 0 0 0 0 0 0 0 0 0 0 0 0 0 0 0 0 0 0 0 0 0 0 0 0 0 0 0 0 0 0 0 0 0 0 0 0 0 0 0 0 0 0 0 0 0 0 0 0 0 0 0 0 0 0 0 0 0 0 0 0 0 0 0 0 0
0 0 0 0 0 0 0 0 0 0 0 0 0 0 0 0 0 0 0 0 0 0 0 0 0 0 0 0 0 0 0 0 0 0 0 0 0 0 0 0 0 0 0 0 0 0 0 0 0 0 0 0 0 0 0 0 0 0 0 0 0 0 0 0 0 0 0 0 0 0 0 0 0 0 0 0 0 0 0 0 0 0 0 0 0 0 0 0 0 0 0 0 0 0 0 0 0 0 0 0 0 0 0 0 0 0 0 0 0 0 0 0 0 0 0 0 0 0 0 0 0 0 0 0 0 0 0 0 0 0 0 0 0 0 0 0 0 0 0 0 0 0 0 0 0 0 0 0 0 0 0 0 0 0 0 0 0 0 0 0 0 0 0 0 0 0 0 0 0 0 0 0 0 0 0 0 0 0 0 0 0 0 0 0 0 0 0 0 0 0 0 0 0 0 0 0 0 0 0 0 0 0 0 0 0 0 0 0 0 0 0 0 0 0 0 0 0 0 0 0 0 0 0 0 0 0 0 0 0 0 0 0 0 0 0 0 0 0 0 0 0 0 0 0 0 0 0 0 0 0 0 0 0 0 0 0 0 0 0 0 0 0 0 0 0 0 0 0 0 0 0 0 0 0 0 0 0 0 0 0 0 0 0 0 0 0 0 0 0 0 0 0 0 0 0 0 0 0 0 0 0 0 0 0 0 0 0 0 0 0 0 0 0 0 0 0 0 0 0 0 0 0 0 0 0 0 0 0 0 0 0 0 0 0 0 0 0 0 0 0 0 0 0 0 0 0 0 0 0 0 0 0 0 0 0 0 0 0 0 0 0 0 0 0 0 0 0 0 0 0 0 0 0 0 0 0 0 0 0 0 0 0 0 0 0 0 0 0 0 0 0 0 0 0 0 0 0 0 0 0 0 0 0 0 0 0 0 0 0 0 0 0 0 0 0 0 0 0 0 0 0 0 0 0 0 0 0 0 0 0 0 0 0 0 0 0 0 0 0 0 0 0 0 0 0 0 0 0 0 0 0 0 0 0 0 0 0 0 0 0 0 0 0 0 0 0 0 0 0 0 0 0 0 0 0 0 0 0 0 0 0 0 0 0 0 0 0 0 0 0 0 0 0 0 0 0 0 0 0 0 0 0 0 0 0 0 0 0 0 0 0 0 0 0 0 0 0 0 0 0 0 0 0 0 0 0 0 0 0 0 0 0 0 0 0 0 0 0 0 0 0 0 0 0 0 0 0 0 0 0 0 0 0 0 0 0 0 0 0 0 0 0 0 0 0 0 0 0 0 0 0 0 0 0 0 0 0 0 0 0 0 0 0 0 0 0 0 0 0 0 0 0 0 0 0 0 0 0 0 0 0 0 0 0 0 0 0 0 0 0 0 0 0 0 0 0 0 0 0 0 0 0 0 0 0 0 0 0 0 0 0 0 0 0 0 0 0 0 0 0 0 0 0 0 0 0 0 0 0 0 0 0 0 0 0 0 0 0 0 0 0 0 0 0 0 0 0 0 0 0 0 0 0 0 0 0 0 0 0 0 0 0 0 0 0 0 0 0 0 0 0 0 0 0 0 0 0 0 0 0 0 0 0 0 0 0 0 0 0 0 0 0 0 0 0 0 0 0 0 0
0 0 0 0 0 0 0 0 0 0 0 0 0 0 0 0 0 0 0 0 0 0 0 0 0 0 0 0 0 0 0 0 0 0 0 0 0 0 0 0 0 0 0 0 0 0 0 0 0 0 0 0 0 0 0 0 0 0 0 0 0 0 0 0 0 0 0 0 0 0 0 0 0 0 0 0 0 0 0 0 0 0 0 0 0 0 0 0 0 0 0 0 0 0 0 0 0 0 0 0 0 0 0 0 0 0 0 0 0 0 0 0 0 0 0 0 0 0 0 0 0 0 0 0 0 0 0 0 0 0 0 0 0 0 0 0 0 0 0 0 0 0 0 0 0 0 0 0 0 0 0 0 0 0 0 0 0 0 0 0 0 0 0 0 0 0 0 0 0 0 0 0 0 0 0 0 0 0 0 0 0 0 0 0 0 0 0 0 0 0 0 0 0 0 0 0 0 0 0 0 0 0 0 0 0 0 0 0 0 0 0 0 0 0 0 0 0 0 0 0 0 0 0 0 0 0 0 0 0 0 0 0 0 0 0 0 0 0 0 0 0 0 0 0 0 0 0 0 0 0 0 0 0 0 0 0 0 0 0 0 0 0 0 0 0 0 0 0 0 0 0 0 0 0 0 0 0 0 0 0 0 0 0 0 0 0 0 0 0 0 0 0 0 0 0 0 0 0 0 0 0 0 0 0 0 0 0 0 0 0 0 0 0 0 0 0 0 0 0 0 0 0 0 0 0 0 0 0 0 0 0 0 0 0 0 0 0 0 0 0 0 0 0 0 0 0 0 0 0 0 0 0 0 0 0 0 0 0 0 0 0 0 0 0 0 0 0 0 0 0 0 0 0 0 0 0 0 0 0 0 0 0 0 0 0 0 0 0 0 0 0 0 0 0 0 0 0 0 0 0 0 0 0 0 0 0 0 0 0 0 0 0 0 0 0 0 0 0 0 0 0 0 0 0 0 0 0 0 0 0 0 0 0 0 0 0 0 0 0 0 0 0 0 0 0 0 0 0 0 0 0 0 0 0 0 0 0 0 0 0 0 0 0 0 0 0 0 0 0 0 0 0 0 0 0 0 0 0 0 0 0 0 0 0 0 0 0 0 0 0 0 0 0 0 0 0 0 0 0 0 0 0 0 0 0 0 0 0 0 0 0 0 0 0 0 0 0 0 0 0 0 0 0 0 0 0 0 0 0 0 0 0 0 0 0 0 0 0 0 0 0 0 0 0 0 0 0 0 0 0 0 0 0 0 0 0 0 0 0 0 0 0 0 0 0 0 0 0 0 0 0 0 0 0 0 0 0 0 0 0 0 0 0 0 0 0 0 0 0 0 0 0 0 0 0 0 0 0 0 0 0 0 0 0 0 0 0 0 0 0 0 0 0 0 0 0 0 0 0 0 0 0 0 0 0 0 0 0 0 0 0 0 0 0 0 0 0 0 0 0 0 0 0 0 0 0 0 0 0 0 0 0 0 0 0 0 0 0 0 0 0 0 0 0 0 0 0 0 0 0 0 0 0 0 0 0 0 0 0 0 0 0 0 0 0 0 0 0 0 0 0 0 0 0 0 0 0 0 0 0 0 0 0 0 0 0 0 0 0 0 0 0 0 0 0 0 0 0 0 0
0 0 0 0 0 0 0 0 0 0 0 0 0 0 0 0 0 0 0 0 0 0 0 0 0 0 0 0 0 0 0 0 0 0 0 0 0 0 0 0 0 0 0 0 0 0 0 0 0 0 0 0 0 0 0 0 0 0 0 0 0 0 0 0 0 0 0 0 0 0 0 0 0 0 0 0 0 0 0 0 0 0 0 0 0 0 0 0 0 0 0 0 0 0 0 0 0 0 0 0 0 0 0 0 0 0 0 0 0 0 0 0 0 0 0 0 0 0 0 0 0 0 0 0 0 0 0 0 0 0 0 0 0 0 0 0 0 0 0 0 0 0 0 0 0 0 0 0 0 0 0 0 0 0 0 0 0 0 0 0 0 0 0 0 0 0 0 0 0 0 0 0 0 0 0 0 0 0 0 0 0 0 0 0 0 0 0 0 0 0 0 0 0 0 0 0 0 0 0 0 0 0 0 0 0 0 0 0 0 0 0 0 0 0 0 0 0 0 0 0 0 0 0 0 0 0 0 0 0 0 0 0 0 0 0 0 0 0 0 0 0 0 0 0 0 0 0 0 0 0 0 0 0 0 0 0 0 0 0 0 0 0 0 0 0 0 0 0 0 0 0 0 0 0 0 0 0 0 0 0 0 0 0 0 0 0 0 0 0 0 0 0 0 0 0 0 0 0 0 0 0 0 0 0 0 0 0 0 0 0 0 0 0 0 0 0 0 0 0 0 0 0 0 0 0 0 0 0 0 0 0 0 0 0 0 0 0 0 0 0 0 0 0 0 0 0 0 0 0 0 0 0 0 0 0 0 0 0 0 0 0 0 0 0 0 0 0 0 0 0 0 0 0 0 0 0 0 0 0 0 0 0 0 0 0 0 0 0 0 0 0 0 0 0 0 0 0 0 0 0 0 0 0 0 0 0 0 0 0 0 0 0 0 0 0 0 0 0 0 0 0 0 0 0 0 0 0 0 0 0 0 0 0 0 0 0 0 0 0 0 0 0 0 0 0 0 0 0 0 0 0 0 0 0 0 0 0 0 0 0 0 0 0 0 0 0 0 0 0 0 0 0 0 0 0 0 0 0 0 0 0 0 0 0 0 0 0 0 0 0 0 0 0 0 0 0 0 0 0 0 0 0 0 0 0 0 0 0 0 0 0 0 0 0 0 0 0 0 0 0 0 0 0 0 0 0 0 0 0 0 0 0 0 0 0 0 0 0 0 0 0 0 0 0 0 0 0 0 0 0 0 0 0 0 0 0 0 0 0 0 0 0 0 0 0 0 0 0 0 0 0 0 0 0 0 0 0 0 0 0 0 0 0 0 0 0 0 0 0 0 0 0 0 0 0 0 0 0 0 0 0 0 0 0 0 0 0 0 0 0 0 0 0 0 0 0 0 0 0 0 0 0 0 0 0 0 0 0 0 0 0 0 0 0 0 0 0 0 0 0 0 0 0 0 0 0 0 0 0 0 0 0 0 0 0 0 0 0 0 0 0 0 0 0 0 0 0 0 0 0 0 0 0 0 0 0 0 0 0 0 0 0 0 0 0 0 0 0 0 0 0 0 0 0 0 0 0 0 0 0 0 0 0 0 0 0 0 0 0 0 0 0 0 0 0 0 0 0 0 0
0 0 0 0 0 0 0 0 0 0 0 0 0 0 0 0 0 0 0 0 0 0 0 0 0 0 0 0 0 0 0 0 0 0 0 0 0 0 0 0 0 0 0 0 0 0 0 0 0 0 0 0 0 0 0 0 0 0 0 0 0 0 0 0 0 0 0 0 0 0 0 0 0 0 0 0 0 0 0 0 0 0 0 0 0 0 0 0 0 0 0 0 0 0 0 0 0 0 0 0 0 0 0 0 0 0 0 0 0 0 0 0 0 0 0 0 0 0 0 0 0 0 0 0 0 0 0 0 0 0 0 0 0 0 0 0 0 0 0 0 0 0 0 0 0 0 0 0 0 0 0 0 0 0 0 0 0 0 0 0 0 0 0 0 0 0 0 0 0 0 0 0 0 0 0 0 0 0 0 0 0 0 0 0 0 0 0 0 0 0 0 0 0 0 0 0 0 0 0 0 0 0 0 0 0 0 0 0 0 0 0 0 0 0 0 0 0 0 0 0 0 0 0 0 0 0 0 0 0 0 0 0 0 0 0 0 0 0 0 0 0 0 0 0 0 0 0 0 0 0 0 0 0 0 0 0 0 0 0 0 0 0 0 0 0 0 0 0 0 0 0 0 0 0 0 0 0 0 0 0 0 0 0 0 0 0 0 0 0 0 0 0 0 0 0 0 0 0 0 0 0 0 0 0 0 0 0 0 0 0 0 0 0 0 0 0 0 0 0 0 0 0 0 0 0 0 0 0 0 0 0 0 0 0 0 0 0 0 0 0 0 0 0 0 0 0 0 0 0 0 0 0 0 0 0 0 0 0 0 0 0 0 0 0 0 0 0 0 0 0 0 0 0 0 0 0 0 0 0 0 0 0 0 0 0 0 0 0 0 0 0 0 0 0 0 0 0 0 0 0 0 0 0 0 0 0 0 0 0 0 0 0 0 0 0 0 0 0 0 0 0 0 0 0 0 0 0 0 0 0 0 0 0 0 0 0 0 0 0 0 0 0 0 0 0 0 0 0 0 0 0 0 0 0 0 0 0 0 0 0 0 0 0 0 0 0 0 0 0 0 0 0 0 0 0 0 0 0 0 0 0 0 0 0 0 0 0 0 0 0 0 0 0 0 0 0 0 0 0 0 0 0 0 0 0 0 0 0 0 0 0 0 0 0 0 0 0 0 0 0 0 0 0 0 0 0 0 0 0 0 0 0 0 0 0 0 0 0 0 0 0 0 0 0 0 0 0 0 0 0 0 0 0 0 0 0 0 0 0 0 0 0 0 0 0 0 0 0 0 0 0 0 0 0 0 0 0 0 0 0 0 0 0 0 0 0 0 0 0 0 0 0 0 0 0 0 0 0 0 0 0 0 0 0 0 0 0 0 0 0 0 0 0 0 0 0 0 0 0 0 0 0 0 0 0 0 0 0 0 0 0 0 0 0 0 0 0 0 0 0 0 0 0 0 0 0 0 0 0 0 0 0 0 0 0 0 0 0 0 0 0 0 0 0 0 0 0 0 0 0 0 0 0 0 0 0 0 0 0 0 0 0 0 0 0 0 0 0 0 0 0 0 0 0 0 0 0 0 0 0 0 0 0 0 0 0 0 0 0 0 0 0 0 0 0 0 0 0 0 0
0 0 0 0 0 0 0 0 0 0 0 0 0 0 0 0 0 0 0 0 0 0 0 0 0 0 0 0 0 0 0 0 0 0 0 0 0 0 0 0 0 0 0 0 0 0 0 0 0 0 0 0 0 0 0 0 0 0 0 0 0 0 0 0 0 0 0 0 0 0 0 0 0 0 0 0 0 0 0 0 0 0 0 0 0 0 0 0 0 0 0 0 0 0 0 0 0 0 0 0 0 0 0 0 0 0 0 0 0 0 0 0 0 0 0 0 0 0 0 0 0 0 0 0 0 0 0 0 0 0 0 0 0 0 0 0 0 0 0 0 0 0 0 0 0 0 0 0 0 0 0 0 0 0 0 0 0 0 0 0 0 0 0 0 0 0 0 0 0 0 0 0 0 0 0 0 0 0 0 0 0 0 0 0 0 0 0 0 0 0 0 0 0 0 0 0 0 0 0 0 0 0 0 0 0 0 0 0 0 0 0 0 0 0 0 0 0 0 0 0 0 0 0 0 0 0 0 0 0 0 0 0 0 0 0 0 0 0 0 0 0 0 0 0 0 0 0 0 0 0 0 0 0 0 0 0 0 0 0 0 0 0 0 0 0 0 0 0 0 0 0 0 0 0 0 0 0 0 0 0 0 0 0 0 0 0 0 0 0 0 0 0 0 0 0 0 0 0 0 0 0 0 0 0 0 0 0 0 0 0 0 0 0 0 0 0 0 0 0 0 0 0 0 0 0 0 0 0 0 0 0 0 0 0 0 0 0 0 0 0 0 0 0 0 0 0 0 0 0 0 0 0 0 0 0 0 0 0 0 0 0 0 0 0 0 0 0 0 0 0 0 0 0 0 0 0 0 0 0 0 0 0 0 0 0 0 0 0 0 0 0 0 0 0 0 0 0 0 0 0 0 0 0 0 0 0 0 0 0 0 0 0 0 0 0 0 0 0 0 0 0 0 0 0 0 0 0 0 0 0 0 0 0 0 0 0 0 0 0 0 0 0 0 0 0 0 0 0 0 0 0 0 0 0 0 0 0 0 0 0 0 0 0 0 0 0 0 0 0 0 0 0 0 0 0 0 0 0 0 0 0 0 0 0 0 0 0 0 0 0 0 0 0 0 0 0 0 0 0 0 0 0 0 0 0 0 0 0 0 0 0 0 0 0 0 0 0 0 0 0 0 0 0 0 0 0 0 0 0 0 0 0 0 0 0 0 0 0 0 0 0 0 0 0 0 0 0 0 0 0 0 0 0 0 0 0 0 0 0 0 0 0 0 0 0 0 0 0 0 0 0 0 0 0 0 0 0 0 0 0 0 0 0 0 0 0 0 0 0 0 0 0 0 0 0 0 0 0 0 0 0 0 0 0 0 0 0 0 0 0 0 0 0 0 0 0 0 0 0 0 0 0 0 0 0 0 0 0 0 0 0 0 0 0 0 0 0 0 0 0 0 0 0 0 0 0 0 0 0 0 0 0 0 0 0 0 0 0 0 0 0 0 0 0 0 0 0 0 0 0 0 0 0 0 0 0 0 0 0 0 0 0 0 0 0 0 0 0 0 0 0 0 0 0 0 0 0 0 0 0 0 0 0 0 0 0 0 0 0 0 0 0 0 0 0 0 0 0 0 0
0 0 0 0 0 0 0 0 0 0 0 0 0 0 0 0 0 0 0 0 0 0 0 0 0 0 0 0 0 0 0 0 0 0 0 0 0 0 0 0 0 0 0 0 0 0 0 0 0 0 0 0 0 0 0 0 0 0 0 0 0 0 0 0 0 0 0 0 0 0 0 0 0 0 0 0 0 0 0 0 0 0 0 0 0 0 0 0 0 0 0 0 0 0 0 0 0 0 0 0 0 0 0 0 0 0 0 0 0 0 0 0 0 0 0 0 0 0 0 0 0 0 0 0 0 0 0 0 0 0 0 0 0 0 0 0 0 0 0 0 0 0 0 0 0 0 0 0 0 0 0 0 0 0 0 0 0 0 0 0 0 0 0 0 0 0 0 0 0 0 0 0 0 0 0 0 0 0 0 0 0 0 0 0 0 0 0 0 0 0 0 0 0 0 0 0 0 0 0 0 0 0 0 0 0 0 0 0 0 0 0 0 0 0 0 0 0 0 0 0 0 0 0 0 0 0 0 0 0 0 0 0 0 0 0 0 0 0 0 0 0 0 0 0 0 0 0 0 0 0 0 0 0 0 0 0 0 0 0 0 0 0 0 0 0 0 0 0 0 0 0 0 0 0 0 0 0 0 0 0 0 0 0 0 0 0 0 0 0 0 0 0 0 0 0 0 0 0 0 0 0 0 0 0 0 0 0 0 0 0 0 0 0 0 0 0 0 0 0 0 0 0 0 0 0 0 0 0 0 0 0 0 0 0 0 0 0 0 0 0 0 0 0 0 0 0 0 0 0 0 0 0 0 0 0 0 0 0 0 0 0 0 0 0 0 0 0 0 0 0 0 0 0 0 0 0 0 0 0 0 0 0 0 0 0 0 0 0 0 0 0 0 0 0 0 0 0 0 0 0 0 0 0 0 0 0 0 0 0 0 0 0 0 0 0 0 0 0 0 0 0 0 0 0 0 0 0 0 0 0 0 0 0 0 0 0 0 0 0 0 0 0 0 0 0 0 0 0 0 0 0 0 0 0 0 0 0 0 0 0 0 0 0 0 0 0 0 0 0 0 0 0 0 0 0 0 0 0 0 0 0 0 0 0 0 0 0 0 0 0 0 0 0 0 0 0 0 0 0 0 0 0 0 0 0 0 0 0 0 0 0 0 0 0 0 0 0 0 0 0 0 0 0 0 0 0 0 0 0 0 0 0 0 0 0 0 0 0 0 0 0 0 0 0 0 0 0 0 0 0 0 0 0 0 0 0 0 0 0 0 0 0 0 0 0 0 0 0 0 0 0 0 0 0 0 0 0 0 0 0 0 0 0 0 0 0 0 0 0 0 0 0 0 0 0 0 0 0 0 0 0 0 0 0 0 0 0 0 0 0 0 0 0 0 0 0 0 0 0 0 0 0 0 0 0 0 0 0 0 0 0 0 0 0 0 0 0 0 0 0 0 0 0 0 0 0 0 0 0 0 0 0 0 0 0 0 0 0 0 0 0 0 0 0 0 0 0 0 0 0 0 0 0 0 0 0 0 0 0 0 0 0 0 0 0 0 0 0 0 0 0 0 0 0 0 0 0 0 0 0 0 0 0 0 0 0 0 0 0 0 0 0 0 0 0 0 0 0 0 0
0 0 0 0 0 0 0 0 0 0 0 0 0 0 0 0 0 0 0 0 0 0 0 0 0 0 0 0 0 0 0 0 0 0 0 0 0 0 0 0 0 0 0 0 0 0 0 0 0 0 0 0 0 0 0 0 0 0 0 0 0 0 0 0 0 0 0 0 0 0 0 0 0 0 0 0 0 0 0 0 0 0 0 0 0 0 0 0 0 0 0 0 0 0 0 0 0 0 0 0 0 0 0 0 0 0 0 0 0 0 0 0 0 0 0 0 0 0 0 0 0 0 0 0 0 0 0 0 0 0 0 0 0 0 0 0 0 0 0 0 0 0 0 0 0 0 0 0 0 0 0 0 0 0 0 0 0 0 0 0 0 0 0 0 0 0 0 0 0 0 0 0 0 0 0 0 0 0 0 0 0 0 0 0 0 0 0 0 0 0 0 0 0 0 0 0 0 0 0 0 0 0 0 0 0 0 0 0 0 0 0 0 0 0 0 0 0 0 0 0 0 0 0 0 0 0 0 0 0 0 0 0 0 0 0 0 0 0 0 0 0 0 0 0 0 0 0 0 0 0 0 0 0 0 0 0 0 0 0 0 0 0 0 0 0 0 0 0 0 0 0 0 0 0 0 0 0 0 0 0 0 0 0 0 0 0 0 0 0 0 0 0 0 0 0 0 0 0 0 0 0 0 0 0 0 0 0 0 0 0 0 0 0 0 0 0 0 0 0 0 0 0 0 0 0 0 0 0 0 0 0 0 0 0 0 0 0 0 0 0 0 0 0 0 0 0 0 0 0 0 0 0 0 0 0 0 0 0 0 0 0 0 0 0 0 0 0 0 0 0 0 0 0 0 0 0 0 0 0 0 0 0 0 0 0 0 0 0 0 0 0 0 0 0 0 0 0 0 0 0 0 0 0 0 0 0 0 0 0 0 0 0 0 0 0 0 0 0 0 0 0 0 0 0 0 0 0 0 0 0 0 0 0 0 0 0 0 0 0 0 0 0 0 0 0 0 0 0 0 0 0 0 0 0 0 0 0 0 0 0 0 0 0 0 0 0 0 0 0 0 0 0 0 0 0 0 0 0 0 0 0 0 0 0 0 0 0 0 0 0 0 0 0 0 0 0 0 0 0 0 0 0 0 0 0 0 0 0 0 0 0 0 0 0 0 0 0 0 0 0 0 0 0 0 0 0 0 0 0 0 0 0 0 0 0 0 0 0 0 0 0 0 0 0 0 0 0 0 0 0 0 0 0 0 0 0 0 0 0 0 0 0 0 0 0 0 0 0 0 0 0 0 0 0 0 0 0 0 0 0 0 0 0 0 0 0 0 0 0 0 0 0 0 0 0 0 0 0 0 0 0 0 0 0 0 0 0 0 0 0 0 0 0 0 0 0 0 0 0 0 0 0 0 0 0 0 0 0 0 0 0 0 0 0 0 0 0 0 0 0 0 0 0 0 0 0 0 0 0 0 0 0 0 0 0 0 0 0 0 0 0 0 0 0 0 0 0 0 0 0 0 0 0 0 0 0 0 0 0 0 0 0 0 0 0 0 0 0 0 0 0 0 0 0 0 0 0 0 0 0 0 0 0 0 0 0 0 0 0 0 0 0 0 0 0 0 0 0 0 0
0 0 0 0 0 0 0 0 0 0 0 0 0 0 0 0 0 0 0 0 0 0 0 0 0 0 0 0 0 0 0 0 0 0 0 0 0 0 0 0 0 0 0 0 0 0 0 0 0 0 0 0 0 0 0 0 0 0 0 0 0 0 0 0 0 0 0 0 0 0 0 0 0 0 0 0 0 0 0 0 0 0 0 0 0 0 0 0 0 0 0 0 0 0 0 0 0 0 0 0 0 0 0 0 0 0 0 0 0 0 0 0 0 0 0 0 0 0 0 0 0 0 0 0 0 0 0 0 0 0 0 0 0 0 0 0 0 0 0 0 0 0 0 0 0 0 0 0 0 0 0 0 0 0 0 0 0 0 0 0 0 0 0 0 0 0 0 0 0 0 0 0 0 0 0 0 0 0 0 0 0 0 0 0 0 0 0 0 0 0 0 0 0 0 0 0 0 0 0 0 0 0 0 0 0 0 0 0 0 0 0 0 0 0 0 0 0 0 0 0 0 0 0 0 0 0 0 0 0 0 0 0 0 0 0 0 0 0 0 0 0 0 0 0 0 0 0 0 0 0 0 0 0 0 0 0 0 0 0 0 0 0 0 0 0 0 0 0 0 0 0 0 0 0 0 0 0 0 0 0 0 0 0 0 0 0 0 0 0 0 0 0 0 0 0 0 0 0 0 0 0 0 0 0 0 0 0 0 0 0 0 0 0 0 0 0 0 0 0 0 0 0 0 0 0 0 0 0 0 0 0 0 0 0 0 0 0 0 0 0 0 0 0 0 0 0 0 0 0 0 0 0 0 0 0 0 0 0 0 0 0 0 0 0 0 0 0 0 0 0 0 0 0 0 0 0 0 0 0 0 0 0 0 0 0 0 0 0 0 0 0 0 0 0 0 0 0 0 0 0 0 0 0 0 0 0 0 0 0 0 0 0 0 0 0 0 0 0 0 0 0 0 0 0 0 0 0 0 0 0 0 0 0 0 0 0 0 0 0 0 0 0 0 0 0 0 0 0 0 0 0 0 0 0 0 0 0 0 0 0 0 0 0 0 0 0 0 0 0 0 0 0 0 0 0 0 0 0 0 0 0 0 0 0 0 0 0 0 0 0 0 0 0 0 0 0 0 0 0 0 0 0 0 0 0 0 0 0 0 0 0 0 0 0 0 0 0 0 0 0 0 0 0 0 0 0 0 0 0 0 0 0 0 0 0 0 0 0 0 0 0 0 0 0 0 0 0 0 0 0 0 0 0 0 0 0 0 0 0 0 0 0 0 0 0 0 0 0 0 0 0 0 0 0 0 0 0 0 0 0 0 0 0 0 0 0 0 0 0 0 0 0 0 0 0 0 0 0 0 0 0 0 0 0 0 0 0 0 0 0 0 0 0 0 0 0 0 0 0 0 0 0 0 0 0 0 0 0 0 0 0 0 0 0 0 0 0 0 0 0 0 0 0 0 0 0 0 0 0 0 0 0 0 0 0 0 0 0 0 0 0 0 0 0 0 0 0 0 0 0 0 0 0 0 0 0 0 0 0 0 0 0 0 0 0 0 0 0 0 0 0 0 0 0 0 0 0 0 0 0 0 0 0 0 0 0 0 0 0 0 0 0 0 0 0 0 0 0 0 0
0 0 0 0 0 0 0 0 0 0 0 0 0 0 0 0 0 0 0 0 0 0 0 0 0 0 0 0 0 0 0 0 0 0 0 0 0 0 0 0 0 0 0 0 0 0 0 0 0 0 0 0 0 0 0 0 0 0 0 0 0 0 0 0 0 0 0 0 0 0 0 0 0 0 0 0 0 0 0 0 0 0 0 0 0 0 0 0 0 0 0 0 0 0 0 0 0 0 0 0 0 0 0 0 0 0 0 0 0 0 0 0 0 0 0 0 0 0 0 0 0 0 0 0 0 0 0 0 0 0 0 0 0 0 0 0 0 0 0 0 0 0 0 0 0 0 0 0 0 0 0 0 0 0 0 0 0 0 0 0 0 0 0 0 0 0 0 0 0 0 0 0 0 0 0 0 0 0 0 0 0 0 0 0 0 0 0 0 0 0 0 0 0 0 0 0 0 0 0 0 0 0 0 0 0 0 0 0 0 0 0 0 0 0 0 0 0 0 0 0 0 0 0 0 0 0 0 0 0 0 0 0 0 0 0 0 0 0 0 0 0 0 0 0 0 0 0 0 0 0 0 0 0 0 0 0 0 0 0 0 0 0 0 0 0 0 0 0 0 0 0 0 0 0 0 0 0 0 0 0 0 0 0 0 0 0 0 0 0 0 0 0 0 0 0 0 0 0 0 0 0 0 0 0 0 0 0 0 0 0 0 0 0 0 0 0 0 0 0 0 0 0 0 0 0 0 0 0 0 0 0 0 0 0 0 0 0 0 0 0 0 0 0 0 0 0 0 0 0 0 0 0 0 0 0 0 0 0 0 0 0 0 0 0 0 0 0 0 0 0 0 0 0 0 0 0 0 0 0 0 0 0 0 0 0 0 0 0 0 0 0 0 0 0 0 0 0 0 0 0 0 0 0 0 0 0 0 0 0 0 0 0 0 0 0 0 0 0 0 0 0 0 0 0 0 0 0 0 0 0 0 0 0 0 0 0 0 0 0 0 0 0 0 0 0 0 0 0 0 0 0 0 0 0 0 0 0 0 0 0 0 0 0 0 0 0 0 0 0 0 0 0 0 0 0 0 0 0 0 0 0 0 0 0 0 0 0 0 0 0 0 0 0 0 0 0 0 0 0 0 0 0 0 0 0 0 0 0 0 0 0 0 0 0 0 0 0 0 0 0 0 0 0 0 0 0 0 0 0 0 0 0 0 0 0 0 0 0 0 0 0 0 0 0 0 0 0 0 0 0 0 0 0 0 0 0 0 0 0 0 0 0 0 0 0 0 0 0 0 0 0 0 0 0 0 0 0 0 0 0 0 0 0 0 0 0 0 0 0 0 0 0 0 0 0 0 0 0 0 0 0 0 0 0 0 0 0 0 0 0 0 0 0 0 0 0 0 0 0 0 0 0 0 0 0 0 0 0 0 0 0 0 0 0 0 0 0 0 0 0 0 0 0 0 0 0 0 0 0 0 0 0 0 0 0 0 0 0 0 0 0 0 0 0 0 0 0 0 0 0 0 0 0 0 0 0 0 0 0 0 0 0 0 0 0 0 0 0 0 0 0 0 0 0 0 0 0 0 0 0 0 0 0 0 0 0 0 0 0 0 0 0 0 0 0 0 0 0 0 0
0 0 0 0 0 0 0 0 0 0 0 0 0 0 0 0 0 0 0 0 0 0 0 0 0 0 0 0 0 0 0 0 0 0 0 0 0 0 0 0 0 0 0 0 0 0 0 0 0 0 0 0 0 0 0 0 0 0 0 0 0 0 0 0 0 0 0 0 0 0 0 0 0 0 0 0 0 0 0 0 0 0 0 0 0 0 0 0 0 0 0 0 0 0 0 0 0 0 0 0 0 0 0 0 0 0 0 0 0 0 0 0 0 0 0 0 0 0 0 0 0 0 0 0 0 0 0 0 0 0 0 0 0 0 0 0 0 0 0 0 0 0 0 0 0 0 0 0 0 0 0 0 0 0 0 0 0 0 0 0 0 0 0 0 0 0 0 0 0 0 0 0 0 0 0 0 0 0 0 0 0 0 0 0 0 0 0 0 0 0 0 0 0 0 0 0 0 0 0 0 0 0 0 0 0 0 0 0 0 0 0 0 0 0 0 0 0 0 0 0 0 0 0 0 0 0 0 0 0 0 0 0 0 0 0 0 0 0 0 0 0 0 0 0 0 0 0 0 0 0 0 0 0 0 0 0 0 0 0 0 0 0 0 0 0 0 0 0 0 0 0 0 0 0 0 0 0 0 0 0 0 0 0 0 0 0 0 0 0 0 0 0 0 0 0 0 0 0 0 0 0 0 0 0 0 0 0 0 0 0 0 0 0 0 0 0 0 0 0 0 0 0 0 0 0 0 0 0 0 0 0 0 0 0 0 0 0 0 0 0 0 0 0 0 0 0 0 0 0 0 0 0 0 0 0 0 0 0 0 0 0 0 0 0 0 0 0 0 0 0 0 0 0 0 0 0 0 0 0 0 0 0 0 0 0 0 0 0 0 0 0 0 0 0 0 0 0 0 0 0 0 0 0 0 0 0 0 0 0 0 0 0 0 0 0 0 0 0 0 0 0 0 0 0 0 0 0 0 0 0 0 0 0 0 0 0 0 0 0 0 0 0 0 0 0 0 0 0 0 0 0 0 0 0 0 0 0 0 0 0 0 0 0 0 0 0 0 0 0 0 0 0 0 0 0 0 0 0 0 0 0 0 0 0 0 0 0 0 0 0 0 0 0 0 0 0 0 0 0 0 0 0 0 0 0 0 0 0 0 0 0 0 0 0 0 0 0 0 0 0 0 0 0 0 0 0 0 0 0 0 0 0 0 0 0 0 0 0 0 0 0 0 0 0 0 0 0 0 0 0 0 0 0 0 0 0 0 0 0 0 0 0 0 0 0 0 0 0 0 0 0 0 0 0 0 0 0 0 0 0 0 0 0 0 0 0 0 0 0 0 0 0 0 0 0 0 0 0 0 0 0 0 0 0 0 0 0 0 0 0 0 0 0 0 0 0 0 0 0 0 0 0 0 0 0 0 0 0 0 0 0 0 0 0 0 0 0 0 0 0 0 0 0 0 0 0 0 0 0 0 0 0 0 0 0 0 0 0 0 0 0 0 0 0 0 0 0 0 0 0 0 0 0 0 0 0 0 0 0 0 0 0 0 0 0 0 0 0 0 0 0 0 0 0 0 0 0 0 0 0 0 0 0 0 0 0 0 0 0 0 0 0 0 0 0 0 0 0 0 0
0 0 0 0 0 0 0 0 0 0 0 0 0 0 0 0 0 0 0 0 0 0 0 0 0 0 0 0 0 0 0 0 0 0 0 0 0 0 0 0 0 0 0 0 0 0 0 0 0 0 0 0 0 0 0 0 0 0 0 0 0 0 0 0 0 0 0 0 0 0 0 0 0 0 0 0 0 0 0 0 0 0 0 0 0 0 0 0 0 0 0 0 0 0 0 0 0 0 0 0 0 0 0 0 0 0 0 0 0 0 0 0 0 0 0 0 0 0 0 0 0 0 0 0 0 0 0 0 0 0 0 0 0 0 0 0 0 0 0 0 0 0 0 0 0 0 0 0 0 0 0 0 0 0 0 0 0 0 0 0 0 0 0 0 0 0 0 0 0 0 0 0 0 0 0 0 0 0 0 0 0 0 0 0 0 0 0 0 0 0 0 0 0 0 0 0 0 0 0 0 0 0 0 0 0 0 0 0 0 0 0 0 0 0 0 0 0 0 0 0 0 0 0 0 0 0 0 0 0 0 0 0 0 0 0 0 0 0 0 0 0 0 0 0 0 0 0 0 0 0 0 0 0 0 0 0 0 0 0 0 0 0 0 0 0 0 0 0 0 0 0 0 0 0 0 0 0 0 0 0 0 0 0 0 0 0 0 0 0 0 0 0 0 0 0 0 0 0 0 0 0 0 0 0 0 0 0 0 0 0 0 0 0 0 0 0 0 0 0 0 0 0 0 0 0 0 0 0 0 0 0 0 0 0 0 0 0 0 0 0 0 0 0 0 0 0 0 0 0 0 0 0 0 0 0 0 0 0 0 0 0 0 0 0 0 0 0 0 0 0 0 0 0 0 0 0 0 0 0 0 0 0 0 0 0 0 0 0 0 0 0 0 0 0 0 0 0 0 0 0 0 0 0 0 0 0 0 0 0 0 0 0 0 0 0 0 0 0 0 0 0 0 0 0 0 0 0 0 0 0 0 0 0 0 0 0 0 0 0 0 0 0 0 0 0 0 0 0 0 0 0 0 0 0 0 0 0 0 0 0 0 0 0 0 0 0 0 0 0 0 0 0 0 0 0 0 0 0 0 0 0 0 0 0 0 0 0 0 0 0 0 0 0 0 0 0 0 0 0 0 0 0 0 0 0 0 0 0 0 0 0 0 0 0 0 0 0 0 0 0 0 0 0 0 0 0 0 0 0 0 0 0 0 0 0 0 0 0 0 0 0 0 0 0 0 0 0 0 0 0 0 0 0 0 0 0 0 0 0 0 0 0 0 0 0 0 0 0 0 0 0 0 0 0 0 0 0 0 0 0 0 0 0 0 0 0 0 0 0 0 0 0 0 0 0 0 0 0 0 0 0 0 0 0 0 0 0 0 0 0 0 0 0 0 0 0 0 0 0 0 0 0 0 0 0 0 0 0 0 0 0 0 0 0 0 0 0 0 0 0 0 0 0 0 0 0 0 0 0 0 0 0 0 0 0 0 0 0 0 0 0 0 0 0 0 0 0 0 0 0 0 0 0 0 0 0 0 0 0 0 0 0 0 0 0 0 0 0 0 0 0 0 0 0 0 0 0 0 0 0 0 0 0 0 0 0 0 0 0 0 0 0 0 0 0 0 0 0 0 0
0 0 0 0 0 0 0 0 0 0 0 0 0 0 0 0 0 0 0 0 0 0 0 0 0 0 0 0 0 0 0 0 0 0 0 0 0 0 0 0 0 0 0 0 0 0 0 0 0 0 0 0 0 0 0 0 0 0 0 0 0 0 0 0 0 0 0 0 0 0 0 0 0 0 0 0 0 0 0 0 0 0 0 0 0 0 0 0 0 0 0 0 0 0 0 0 0 0 0 0 0 0 0 0 0 0 0 0 0 0 0 0 0 0 0 0 0 0 0 0 0 0 0 0 0 0 0 0 0 0 0 0 0 0 0 0 0 0 0 0 0 0 0 0 0 0 0 0 0 0 0 0 0 0 0 0 0 0 0 0 0 0 0 0 0 0 0 0 0 0 0 0 0 0 0 0 0 0 0 0 0 0 0 0 0 0 0 0 0 0 0 0 0 0 0 0 0 0 0 0 0 0 0 0 0 0 0 0 0 0 0 0 0 0 0 0 0 0 0 0 0 0 0 0 0 0 0 0 0 0 0 0 0 0 0 0 0 0 0 0 0 0 0 0 0 0 0 0 0 0 0 0 0 0 0 0 0 0 0 0 0 0 0 0 0 0 0 0 0 0 0 0 0 0 0 0 0 0 0 0 0 0 0 0 0 0 0 0 0 0 0 0 0 0 0 0 0 0 0 0 0 0 0 0 0 0 0 0 0 0 0 0 0 0 0 0 0 0 0 0 0 0 0 0 0 0 0 0 0 0 0 0 0 0 0 0 0 0 0 0 0 0 0 0 0 0 0 0 0 0 0 0 0 0 0 0 0 0 0 0 0 0 0 0 0 0 0 0 0 0 0 0 0 0 0 0 0 0 0 0 0 0 0 0 0 0 0 0 0 0 0 0 0 0 0 0 0 0 0 0 0 0 0 0 0 0 0 0 0 0 0 0 0 0 0 0 0 0 0 0 0 0 0 0 0 0 0 0 0 0 0 0 0 0 0 0 0 0 0 0 0 0 0 0 0 0 0 0 0 0 0 0 0 0 0 0 0 0 0 0 0 0 0 0 0 0 0 0 0 0 0 0 0 0 0 0 0 0 0 0 0 0 0 0 0 0 0 0 0 0 0 0 0 0 0 0 0 0 0 0 0 0 0 0 0 0 0 0 0 0 0 0 0 0 0 0 0 0 0 0 0 0 0 0 0 0 0 0 0 0 0 0 0 0 0 0 0 0 0 0 0 0 0 0 0 0 0 0 0 0 0 0 0 0 0 0 0 0 0 0 0 0 0 0 0 0 0 0 0 0 0 0 0 0 0 0 0 0 0 0 0 0 0 0 0 0 0 0 0 0 0 0 0 0 0 0 0 0 0 0 0 0 0 0 0 0 0 0 0 0 0 0 0 0 0 0 0 0 0 0 0 0 0 0 0 0 0 0 0 0 0 0 0 0 0 0 0 0 0 0 0 0 0 0 0 0 0 0 0 0 0 0 0 0 0 0 0 0 0 0 0 0 0 0 0 0 0 0 0 0 0 0 0 0 0 0 0 0 0 0 0 0 0 0 0 0 0 0 0 0 0 0 0 0 0 0 0 0 0 0 0 0 0 0 0 0 0 0 0 0 0 0 0 0 0 0 0 0 0 0
0 0 0 0 0 0 0 0 0 0 0 0 0 0 0 0 0 0 0 0 0 0 0 0 0 0 0 0 0 0 0 0 0 0 0 0 0 0 0 0 0 0 0 0 0 0 0 0 0 0 0 0 0 0 0 0 0 0 0 0 0 0 0 0 0 0 0 0 0 0 0 0 0 0 0 0 0 0 0 0 0 0 0 0 0 0 0 0 0 0 0 0 0 0 0 0 0 0 0 0 0 0 0 0 0 0 0 0 0 0 0 0 0 0 0 0 0 0 0 0 0 0 0 0 0 0 0 0 0 0 0 0 0 0 0 0 0 0 0 0 0 0 0 0 0 0 0 0 0 0 0 0 0 0 0 0 0 0 0 0 0 0 0 0 0 0 0 0 0 0 0 0 0 0 0 0 0 0 0 0 0 0 0 0 0 0 0 0 0 0 0 0 0 0 0 0 0 0 0 0 0 0 0 0 0 0 0 0 0 0 0 0 0 0 0 0 0 0 0 0 0 0 0 0 0 0 0 0 0 0 0 0 0 0 0 0 0 0 0 0 0 0 0 0 0 0 0 0 0 0 0 0 0 0 0 0 0 0 0 0 0 0 0 0 0 0 0 0 0 0 0 0 0 0 0 0 0 0 0 0 0 0 0 0 0 0 0 0 0 0 0 0 0 0 0 0 0 0 0 0 0 0 0 0 0 0 0 0 0 0 0 0 0 0 0 0 0 0 0 0 0 0 0 0 0 0 0 0 0 0 0 0 0 0 0 0 0 0 0 0 0 0 0 0 0 0 0 0 0 0 0 0 0 0 0 0 0 0 0 0 0 0 0 0 0 0 0 0 0 0 0 0 0 0 0 0 0 0 0 0 0 0 0 0 0 0 0 0 0 0 0 0 0 0 0 0 0 0 0 0 0 0 0 0 0 0 0 0 0 0 0 0 0 0 0 0 0 0 0 0 0 0 0 0 0 0 0 0 0 0 0 0 0 0 0 0 0 0 0 0 0 0 0 0 0 0 0 0 0 0 0 0 0 0 0 0 0 0 0 0 0 0 0 0 0 0 0 0 0 0 0 0 0 0 0 0 0 0 0 0 0 0 0 0 0 0 0 0 0 0 0 0 0 0 0 0 0 0 0 0 0 0 0 0 0 0 0 0 0 0 0 0 0 0 0 0 0 0 0 0 0 0 0 0 0 0 0 0 0 0 0 0 0 0 0 0 0 0 0 0 0 0 0 0 0 0 0 0 0 0 0 0 0 0 0 0 0 0 0 0 0 0 0 0 0 0 0 0 0 0 0 0 0 0 0 0 0 0 0 0 0 0 0 0 0 0 0 0 0 0 0 0 0 0 0 0 0 0 0 0 0 0 0 0 0 0 0 0 0 0 0 0 0 0 0 0 0 0 0 0 0 0 0 0 0 0 0 0 0 0 0 0 0 0 0 0 0 0 0 0 0 0 0 0 0 0 0 0 0 0 0 0 0 0 0 0 0 0 0 0 0 0 0 0 0 0 0 0 0 0 0 0 0 0 0 0 0 0 0 0 0 0 0 0 0 0 0 0 0 0 0 0 0 0 0 0 0 0 0 0 0 0 0 0 0 0 0 0 0 0 0 0 0 0 0 0 0 0 0 0
0 0 0 0 0 0 0 0 0 0 0 0 0 0 0 0 0 0 0 0 0 0 0 0 0 0 0 0 0 0 0 0 0 0 0 0 0 0 0 0 0 0 0 0 0 0 0 0 0 0 0 0 0 0 0 0 0 0 0 0 0 0 0 0 0 0 0 0 0 0 0 0 0 0 0 0 0 0 0 0 0 0 0 0 0 0 0 0 0 0 0 0 0 0 0 0 0 0 0 0 0 0 0 0 0 0 0 0 0 0 0 0 0 0 0 0 0 0 0 0 0 0 0 0 0 0 0 0 0 0 0 0 0 0 0 0 0 0 0 0 0 0 0 0 0 0 0 0 0 0 0 0 0 0 0 0 0 0 0 0 0 0 0 0 0 0 0 0 0 0 0 0 0 0 0 0 0 0 0 0 0 0 0 0 0 0 0 0 0 0 0 0 0 0 0 0 0 0 0 0 0 0 0 0 0 0 0 0 0 0 0 0 0 0 0 0 0 0 0 0 0 0 0 0 0 0 0 0 0 0 0 0 0 0 0 0 0 0 0 0 0 0 0 0 0 0 0 0 0 0 0 0 0 0 0 0 0 0 0 0 0 0 0 0 0 0 0 0 0 0 0 0 0 0 0 0 0 0 0 0 0 0 0 0 0 0 0 0 0 0 0 0 0 0 0 0 0 0 0 0 0 0 0 0 0 0 0 0 0 0 0 0 0 0 0 0 0 0 0 0 0 0 0 0 0 0 0 0 0 0 0 0 0 0 0 0 0 0 0 0 0 0 0 0 0 0 0 0 0 0 0 0 0 0 0 0 0 0 0 0 0 0 0 0 0 0 0 0 0 0 0 0 0 0 0 0 0 0 0 0 0 0 0 0 0 0 0 0 0 0 0 0 0 0 0 0 0 0 0 0 0 0 0 0 0 0 0 0 0 0 0 0 0 0 0 0 0 0 0 0 0 0 0 0 0 0 0 0 0 0 0 0 0 0 0 0 0 0 0 0 0 0 0 0 0 0 0 0 0 0 0 0 0 0 0 0 0 0 0 0 0 0 0 0 0 0 0 0 0 0 0 0 0 0 0 0 0 0 0 0 0 0 0 0 0 0 0 0 0 0 0 0 0 0 0 0 0 0 0 0 0 0 0 0 0 0 0 0 0 0 0 0 0 0 0 0 0 0 0 0 0 0 0 0 0 0 0 0 0 0 0 0 0 0 0 0 0 0 0 0 0 0 0 0 0 0 0 0 0 0 0 0 0 0 0 0 0 0 0 0 0 0 0 0 0 0 0 0 0 0 0 0 0 0 0 0 0 0 0 0 0 0 0 0 0 0 0 0 0 0 0 0 0 0 0 0 0 0 0 0 0 0 0 0 0 0 0 0 0 0 0 0 0 0 0 0 0 0 0 0 0 0 0 0 0 0 0 0 0 0 0 0 0 0 0 0 0 0 0 0 0 0 0 0 0 0 0 0 0 0 0 0 0 0 0 0 0 0 0 0 0 0 0 0 0 0 0 0 0 0 0 0 0 0 0 0 0 0 0 0 0 0 0 0 0 0 0 0 0 0 0 0 0 0 0 0 0 0 0 0 0 0 0 0 0 0 0 0 0 0 0 0 0 0 0 0 0 0 0 0
0 0 0 0 0 0 0 0 0 0 0 0 0 0 0 0 0 0 0 0 0 0 0 0 0 0 0 0 0 0 0 0 0 0 0 0 0 0 0 0 0 0 0 0 0 0 0 0 0 0 0 0 0 0 0 0 0 0 0 0 0 0 0 0 0 0 0 0 0 0 0 0 0 0 0 0 0 0 0 0 0 0 0 0 0 0 0 0 0 0 0 0 0 0 0 0 0 0 0 0 0 0 0 0 0 0 0 0 0 0 0 0 0 0 0 0 0 0 0 0 0 0 0 0 0 0 0 0 0 0 0 0 0 0 0 0 0 0 0 0 0 0 0 0 0 0 0 0 0 0 0 0 0 0 0 0 0 0 0 0 0 0 0 0 0 0 0 0 0 0 0 0 0 0 0 0 0 0 0 0 0 0 0 0 0 0 0 0 0 0 0 0 0 0 0 0 0 0 0 0 0 0 0 0 0 0 0 0 0 0 0 0 0 0 0 0 0 0 0 0 0 0 0 0 0 0 0 0 0 0 0 0 0 0 0 0 0 0 0 0 0 0 0 0 0 0 0 0 0 0 0 0 0 0 0 0 0 0 0 0 0 0 0 0 0 0 0 0 0 0 0 0 0 0 0 0 0 0 0 0 0 0 0 0 0 0 0 0 0 0 0 0 0 0 0 0 0 0 0 0 0 0 0 0 0 0 0 0 0 0 0 0 0 0 0 0 0 0 0 0 0 0 0 0 0 0 0 0 0 0 0 0 0 0 0 0 0 0 0 0 0 0 0 0 0 0 0 0 0 0 0 0 0 0 0 0 0 0 0 0 0 0 0 0 0 0 0 0 0 0 0 0 0 0 0 0 0 0 0 0 0 0 0 0 0 0 0 0 0 0 0 0 0 0 0 0 0 0 0 0 0 0 0 0 0 0 0 0 0 0 0 0 0 0 0 0 0 0 0 0 0 0 0 0 0 0 0 0 0 0 0 0 0 0 0 0 0 0 0 0 0 0 0 0 0 0 0 0 0 0 0 0 0 0 0 0 0 0 0 0 0 0 0 0 0 0 0 0 0 0 0 0 0 0 0 0 0 0 0 0 0 0 0 0 0 0 0 0 0 0 0 0 0 0 0 0 0 0 0 0 0 0 0 0 0 0 0 0 0 0 0 0 0 0 0 0 0 0 0 0 0 0 0 0 0 0 0 0 0 0 0 0 0 0 0 0 0 0 0 0 0 0 0 0 0 0 0 0 0 0 0 0 0 0 0 0 0 0 0 0 0 0 0 0 0 0 0 0 0 0 0 0 0 0 0 0 0 0 0 0 0 0 0 0 0 0 0 0 0 0 0 0 0 0 0 0 0 0 0 0 0 0 0 0 0 0 0 0 0 0 0 0 0 0 0 0 0 0 0 0 0 0 0 0 0 0 0 0 0 0 0 0 0 0 0 0 0 0 0 0 0 0 0 0 0 0 0 0 0 0 0 0 0 0 0 0 0 0 0 0 0 0 0 0 0 0 0 0 0 0 0 0 0 0 0 0 0 0 0 0 0 0 0 0 0 0 0 0 0 0 0 0 0 0 0 0 0 0 0 0 0 0 0 0 0 0 0 0 0 0 0 0 0 0 0 0 0 0 0 0
0 0 0 0 0 0 0 0 0 0 0 0 0 0 0 0 0 0 0 0 0 0 0 0 0 0 0 0 0 0 0 0 0 0 0 0 0 0 0 0 0 0 0 0 0 0 0 0 0 0 0 0 0 0 0 0 0 0 0 0 0 0 0 0 0 0 0 0 0 0 0 0 0 0 0 0 0 0 0 0 0 0 0 0 0 0 0 0 0 0 0 0 0 0 0 0 0 0 0 0 0 0 0 0 0 0 0 0 0 0 0 0 0 0 0 0 0 0 0 0 0 0 0 0 0 0 0 0 0 0 0 0 0 0 0 0 0 0 0 0 0 0 0 0 0 0 0 0 0 0 0 0 0 0 0 0 0 0 0 0 0 0 0 0 0 0 0 0 0 0 0 0 0 0 0 0 0 0 0 0 0 0 0 0 0 0 0 0 0 0 0 0 0 0 0 0 0 0 0 0 0 0 0 0 0 0 0 0 0 0 0 0 0 0 0 0 0 0 0 0 0 0 0 0 0 0 0 0 0 0 0 0 0 0 0 0 0 0 0 0 0 0 0 0 0 0 0 0 0 0 0 0 0 0 0 0 0 0 0 0 0 0 0 0 0 0 0 0 0 0 0 0 0 0 0 0 0 0 0 0 0 0 0 0 0 0 0 0 0 0 0 0 0 0 0 0 0 0 0 0 0 0 0 0 0 0 0 0 0 0 0 0 0 0 0 0 0 0 0 0 0 0 0 0 0 0 0 0 0 0 0 0 0 0 0 0 0 0 0 0 0 0 0 0 0 0 0 0 0 0 0 0 0 0 0 0 0 0 0 0 0 0 0 0 0 0 0 0 0 0 0 0 0 0 0 0 0 0 0 0 0 0 0 0 0 0 0 0 0 0 0 0 0 0 0 0 0 0 0 0 0 0 0 0 0 0 0 0 0 0 0 0 0 0 0 0 0 0 0 0 0 0 0 0 0 0 0 0 0 0 0 0 0 0 0 0 0 0 0 0 0 0 0 0 0 0 0 0 0 0 0 0 0 0 0 0 0 0 0 0 0 0 0 0 0 0 0 0 0 0 0 0 0 0 0 0 0 0 0 0 0 0 0 0 0 0 0 0 0 0 0 0 0 0 0 0 0 0 0 0 0 0 0 0 0 0 0 0 0 0 0 0 0 0 0 0 0 0 0 0 0 0 0 0 0 0 0 0 0 0 0 0 0 0 0 0 0 0 0 0 0 0 0 0 0 0 0 0 0 0 0 0 0 0 0 0 0 0 0 0 0 0 0 0 0 0 0 0 0 0 0 0 0 0 0 0 0 0 0 0 0 0 0 0 0 0 0 0 0 0 0 0 0 0 0 0 0 0 0 0 0 0 0 0 0 0 0 0 0 0 0 0 0 0 0 0 0 0 0 0 0 0 0 0 0 0 0 0 0 0 0 0 0 0 0 0 0 0 0 0 0 0 0 0 0 0 0 0 0 0 0 0 0 0 0 0 0 0 0 0 0 0 0 0 0 0 0 0 0 0 0 0 0 0 0 0 0 0 0 0 0 0 0 0 0 0 0 0 0 0 0 0 0 0 0 0 0 0 0 0 0 0 0 0 0 0 0 0 0 0 0 0 0 0 0 0 0 0 0 0
0 0 0 0 0 0 0 0 0 0 0 0 0 0 0 0 0 0 0 0 0 0 0 0 0 0 0 0 0 0 0 0 0 0 0 0 0 0 0 0 0 0 0 0 0 0 0 0 0 0 0 0 0 0 0 0 0 0 0 0 0 0 0 0 0 0 0 0 0 0 0 0 0 0 0 0 0 0 0 0 0 0 0 0 0 0 0 0 0 0 0 0 0 0 0 0 0 0 0 0 0 0 0 0 0 0 0 0 0 0 0 0 0 0 0 0 0 0 0 0 0 0 0 0 0 0 0 0 0 0 0 0 0 0 0 0 0 0 0 0 0 0 0 0 0 0 0 0 0 0 0 0 0 0 0 0 0 0 0 0 0 0 0 0 0 0 0 0 0 0 0 0 0 0 0 0 0 0 0 0 0 0 0 0 0 0 0 0 0 0 0 0 0 0 0 0 0 0 0 0 0 0 0 0 0 0 0 0 0 0 0 0 0 0 0 0 0 0 0 0 0 0 0 0 0 0 0 0 0 0 0 0 0 0 0 0 0 0 0 0 0 0 0 0 0 0 0 0 0 0 0 0 0 0 0 0 0 0 0 0 0 0 0 0 0 0 0 0 0 0 0 0 0 0 0 0 0 0 0 0 0 0 0 0 0 0 0 0 0 0 0 0 0 0 0 0 0 0 0 0 0 0 0 0 0 0 0 0 0 0 0 0 0 0 0 0 0 0 0 0 0 0 0 0 0 0 0 0 0 0 0 0 0 0 0 0 0 0 0 0 0 0 0 0 0 0 0 0 0 0 0 0 0 0 0 0 0 0 0 0 0 0 0 0 0 0 0 0 0 0 0 0 0 0 0 0 0 0 0 0 0 0 0 0 0 0 0 0 0 0 0 0 0 0 0 0 0 0 0 0 0 0 0 0 0 0 0 0 0 0 0 0 0 0 0 0 0 0 0 0 0 0 0 0 0 0 0 0 0 0 0 0 0 0 0 0 0 0 0 0 0 0 0 0 0 0 0 0 0 0 0 0 0 0 0 0 0 0 0 0 0 0 0 0 0 0 0 0 0 0 0 0 0 0 0 0 0 0 0 0 0 0 0 0 0 0 0 0 0 0 0 0 0 0 0 0 0 0 0 0 0 0 0 0 0 0 0 0 0 0 0 0 0 0 0 0 0 0 0 0 0 0 0 0 0 0 0 0 0 0 0 0 0 0 0 0 0 0 0 0 0 0 0 0 0 0 0 0 0 0 0 0 0 0 0 0 0 0 0 0 0 0 0 0 0 0 0 0 0 0 0 0 0 0 0 0 0 0 0 0 0 0 0 0 0 0 0 0 0 0 0 0 0 0 0 0 0 0 0 0 0 0 0 0 0 0 0 0 0 0 0 0 0 0 0 0 0 0 0 0 0 0 0 0 0 0 0 0 0 0 0 0 0 0 0 0 0 0 0 0 0 0 0 0 0 0 0 0 0 0 0 0 0 0 0 0 0 0 0 0 0 0 0 0 0 0 0 0 0 0 0 0 0 0 0 0 0 0 0 0 0 0 0 0 0 0 0 0 0 0 0 0 0 0 0 0 0 0 0 0 0 0 0 0 0 0 0 0 0 0 0 0 0 0 0 0 0 0 0 0
0 0 0 0 0 0 0 0 0 0 0 0 0 0 0 0 0 0 0 0 0 0 0 0 0 0 0 0 0 0 0 0 0 0 0 0 0 0 0 0 0 0 0 0 0 0 0 0 0 0 0 0 0 0 0 0 0 0 0 0 0 0 0 0 0 0 0 0 0 0 0 0 0 0 0 0 0 0 0 0 0 0 0 0 0 0 0 0 0 0 0 0 0 0 0 0 0 0 0 0 0 0 0 0 0 0 0 0 0 0 0 0 0 0 0 0 0 0 0 0 0 0 0 0 0 0 0 0 0 0 0 0 0 0 0 0 0 0 0 0 0 0 0 0 0 0 0 0 0 0 0 0 0 0 0 0 0 0 0 0 0 0 0 0 0 0 0 0 0 0 0 0 0 0 0 0 0 0 0 0 0 0 0 0 0 0 0 0 0 0 0 0 0 0 0 0 0 0 0 0 0 0 0 0 0 0 0 0 0 0 0 0 0 0 0 0 0 0 0 0 0 0 0 0 0 0 0 0 0 0 0 0 0 0 0 0 0 0 0 0 0 0 0 0 0 0 0 0 0 0 0 0 0 0 0 0 0 0 0 0 0 0 0 0 0 0 0 0 0 0 0 0 0 0 0 0 0 0 0 0 0 0 0 0 0 0 0 0 0 0 0 0 0 0 0 0 0 0 0 0 0 0 0 0 0 0 0 0 0 0 0 0 0 0 0 0 0 0 0 0 0 0 0 0 0 0 0 0 0 0 0 0 0 0 0 0 0 0 0 0 0 0 0 0 0 0 0 0 0 0 0 0 0 0 0 0 0 0 0 0 0 0 0 0 0 0 0 0 0 0 0 0 0 0 0 0 0 0 0 0 0 0 0 0 0 0 0 0 0 0 0 0 0 0 0 0 0 0 0 0 0 0 0 0 0 0 0 0 0 0 0 0 0 0 0 0 0 0 0 0 0 0 0 0 0 0 0 0 0 0 0 0 0 0 0 0 0 0 0 0 0 0 0 0 0 0 0 0 0 0 0 0 0 0 0 0 0 0 0 0 0 0 0 0 0 0 0 0 0 0 0 0 0 0 0 0 0 0 0 0 0 0 0 0 0 0 0 0 0 0 0 0 0 0 0 0 0 0 0 0 0 0 0 0 0 0 0 0 0 0 0 0 0 0 0 0 0 0 0 0 0 0 0 0 0 0 0 0 0 0 0 0 0 0 0 0 0 0 0 0 0 0 0 0 0 0 0 0 0 0 0 0 0 0 0 0 0 0 0 0 0 0 0 0 0 0 0 0 0 0 0 0 0 0 0 0 0 0 0 0 0 0 0 0 0 0 0 0 0 0 0 0 0 0 0 0 0 0 0 0 0 0 0 0 0 0 0 0 0 0 0 0 0 0 0 0 0 0 0 0 0 0 0 0 0 0 0 0 0 0 0 0 0 0 0 0 0 0 0 0 0 0 0 0 0 0 0 0 0 0 0 0 0 0 0 0 0 0 0 0 0 0 0 0 0 0 0 0 0 0 0 0 0 0 0 0 0 0 0 0 0 0 0 0 0 0 0 0 0 0 0 0 0 0 0 0 0 0 0 0 0 0 0 0 0 0 0 0 0 0 0 0 0 0 0 0 0 0 0 0
0 0 0 0 0 0 0 0 0 0 0 0 0 0 0 0 0 0 0 0 0 0 0 0 0 0 0 0 0 0 0 0 0 0 0 0 0 0 0 0 0 0 0 0 0 0 0 0 0 0 0 0 0 0 0 0 0 0 0 0 0 0 0 0 0 0 0 0 0 0 0 0 0 0 0 0 0 0 0 0 0 0 0 0 0 0 0 0 0 0 0 0 0 0 0 0 0 0 0 0 0 0 0 0 0 0 0 0 0 0 0 0 0 0 0 0 0 0 0 0 0 0 0 0 0 0 0 0 0 0 0 0 0 0 0 0 0 0 0 0 0 0 0 0 0 0 0 0 0 0 0 0 0 0 0 0 0 0 0 0 0 0 0 0 0 0 0 0 0 0 0 0 0 0 0 0 0 0 0 0 0 0 0 0 0 0 0 0 0 0 0 0 0 0 0 0 0 0 0 0 0 0 0 0 0 0 0 0 0 0 0 0 0 0 0 0 0 0 0 0 0 0 0 0 0 0 0 0 0 0 0 0 0 0 0 0 0 0 0 0 0 0 0 0 0 0 0 0 0 0 0 0 0 0 0 0 0 0 0 0 0 0 0 0 0 0 0 0 0 0 0 0 0 0 0 0 0 0 0 0 0 0 0 0 0 0 0 0 0 0 0 0 0 0 0 0 0 0 0 0 0 0 0 0 0 0 0 0 0 0 0 0 0 0 0 0 0 0 0 0 0 0 0 0 0 0 0 0 0 0 0 0 0 0 0 0 0 0 0 0 0 0 0 0 0 0 0 0 0 0 0 0 0 0 0 0 0 0 0 0 0 0 0 0 0 0 0 0 0 0 0 0 0 0 0 0 0 0 0 0 0 0 0 0 0 0 0 0 0 0 0 0 0 0 0 0 0 0 0 0 0 0 0 0 0 0 0 0 0 0 0 0 0 0 0 0 0 0 0 0 0 0 0 0 0 0 0 0 0 0 0 0 0 0 0 0 0 0 0 0 0 0 0 0 0 0 0 0 0 0 0 0 0 0 0 0 0 0 0 0 0 0 0 0 0 0 0 0 0 0 0 0 0 0 0 0 0 0 0 0 0 0 0 0 0 0 0 0 0 0 0 0 0 0 0 0 0 0 0 0 0 0 0 0 0 0 0 0 0 0 0 0 0 0 0 0 0 0 0 0 0 0 0 0 0 0 0 0 0 0 0 0 0 0 0 0 0 0 0 0 0 0 0 0 0 0 0 0 0 0 0 0 0 0 0 0 0 0 0 0 0 0 0 0 0 0 0 0 0 0 0 0 0 0 0 0 0 0 0 0 0 0 0 0 0 0 0 0 0 0 0 0 0 0 0 0 0 0 0 0 0 0 0 0 0 0 0 0 0 0 0 0 0 0 0 0 0 0 0 0 0 0 0 0 0 0 0 0 0 0 0 0 0 0 0 0 0 0 0 0 0 0 0 0 0 0 0 0 0 0 0 0 0 0 0 0 0 0 0 0 0 0 0 0 0 0 0 0 0 0 0 0 0 0 0 0 0 0 0 0 0 0 0 0 0 0 0 0 0 0 0 0 0 0 0 0 0 0 0 0 0 0 0 0 0 0 0 0 0 0 0 0 0 0 0 0 0 0 0 0
0 0 0 0 0 0 0 0 0 0 0 0 0 0 0 0 0 0 0 0 0 0 0 0 0 0 0 0 0 0 0 0 0 0 0 0 0 0 0 0 0 0 0 0 0 0 0 0 0 0 0 0 0 0 0 0 0 0 0 0 0 0 0 0 0 0 0 0 0 0 0 0 0 0 0 0 0 0 0 0 0 0 0 0 0 0 0 0 0 0 0 0 0 0 0 0 0 0 0 0 0 0 0 0 0 0 0 0 0 0 0 0 0 0 0 0 0 0 0 0 0 0 0 0 0 0 0 0 0 0 0 0 0 0 0 0 0 0 0 0 0 0 0 0 0 0 0 0 0 0 0 0 0 0 0 0 0 0 0 0 0 0 0 0 0 0 0 0 0 0 0 0 0 0 0 0 0 0 0 0 0 0 0 0 0 0 0 0 0 0 0 0 0 0 0 0 0 0 0 0 0 0 0 0 0 0 0 0 0 0 0 0 0 0 0 0 0 0 0 0 0 0 0 0 0 0 0 0 0 0 0 0 0 0 0 0 0 0 0 0 0 0 0 0 0 0 0 0 0 0 0 0 0 0 0 0 0 0 0 0 0 0 0 0 0 0 0 0 0 0 0 0 0 0 0 0 0 0 0 0 0 0 0 0 0 0 0 0 0 0 0 0 0 0 0 0 0 0 0 0 0 0 0 0 0 0 0 0 0 0 0 0 0 0 0 0 0 0 0 0 0 0 0 0 0 0 0 0 0 0 0 0 0 0 0 0 0 0 0 0 0 0 0 0 0 0 0 0 0 0 0 0 0 0 0 0 0 0 0 0 0 0 0 0 0 0 0 0 0 0 0 0 0 0 0 0 0 0 0 0 0 0 0 0 0 0 0 0 0 0 0 0 0 0 0 0 0 0 0 0 0 0 0 0 0 0 0 0 0 0 0 0 0 0 0 0 0 0 0 0 0 0 0 0 0 0 0 0 0 0 0 0 0 0 0 0 0 0 0 0 0 0 0 0 0 0 0 0 0 0 0 0 0 0 0 0 0 0 0 0 0 0 0 0 0 0 0 0 0 0 0 0 0 0 0 0 0 0 0 0 0 0 0 0 0 0 0 0 0 0 0 0 0 0 0 0 0 0 0 0 0 0 0 0 0 0 0 0 0 0 0 0 0 0 0 0 0 0 0 0 0 0 0 0 0 0 0 0 0 0 0 0 0 0 0 0 0 0 0 0 0 0 0 0 0 0 0 0 0 0 0 0 0 0 0 0 0 0 0 0 0 0 0 0 0 0 0 0 0 0 0 0 0 0 0 0 0 0 0 0 0 0 0 0 0 0 0 0 0 0 0 0 0 0 0 0 0 0 0 0 0 0 0 0 0 0 0 0 0 0 0 0 0 0 0 0 0 0 0 0 0 0 0 0 0 0 0 0 0 0 0 0 0 0 0 0 0 0 0 0 0 0 0 0 0 0 0 0 0 0 0 0 0 0 0 0 0 0 0 0 0 0 0 0 0 0 0 0 0 0 0 0 0 0 0 0 0 0 0 0 0 0 0 0 0 0 0 0 0 0 0 0 0 0 0 0 0 0 0 0 0 0 0 0 0 0 0 0 0 0 0 0 0 0 0 0 0 0 0 0
0 0 0 0 0 0 0 0 0 0 0 0 0 0 0 0 0 0 0 0 0 0 0 0 0 0 0 0 0 0 0 0 0 0 0 0 0 0 0 0 0 0 0 0 0 0 0 0 0 0 0 0 0 0 0 0 0 0 0 0 0 0 0 0 0 0 0 0 0 0 0 0 0 0 0 0 0 0 0 0 0 0 0 0 0 0 0 0 0 0 0 0 0 0 0 0 0 0 0 0 0 0 0 0 0 0 0 0 0 0 0 0 0 0 0 0 0 0 0 0 0 0 0 0 0 0 0 0 0 0 0 0 0 0 0 0 0 0 0 0 0 0 0 0 0 0 0 0 0 0 0 0 0 0 0 0 0 0 0 0 0 0 0 0 0 0 0 0 0 0 0 0 0 0 0 0 0 0 0 0 0 0 0 0 0 0 0 0 0 0 0 0 0 0 0 0 0 0 0 0 0 0 0 0 0 0 0 0 0 0 0 0 0 0 0 0 0 0 0 0 0 0 0 0 0 0 0 0 0 0 0 0 0 0 0 0 0 0 0 0 0 0 0 0 0 0 0 0 0 0 0 0 0 0 0 0 0 0 0 0 0 0 0 0 0 0 0 0 0 0 0 0 0 0 0 0 0 0 0 0 0 0 0 0 0 0 0 0 0 0 0 0 0 0 0 0 0 0 0 0 0 0 0 0 0 0 0 0 0 0 0 0 0 0 0 0 0 0 0 0 0 0 0 0 0 0 0 0 0 0 0 0 0 0 0 0 0 0 0 0 0 0 0 0 0 0 0 0 0 0 0 0 0 0 0 0 0 0 0 0 0 0 0 0 0 0 0 0 0 0 0 0 0 0 0 0 0 0 0 0 0 0 0 0 0 0 0 0 0 0 0 0 0 0 0 0 0 0 0 0 0 0 0 0 0 0 0 0 0 0 0 0 0 0 0 0 0 0 0 0 0 0 0 0 0 0 0 0 0 0 0 0 0 0 0 0 0 0 0 0 0 0 0 0 0 0 0 0 0 0 0 0 0 0 0 0 0 0 0 0 0 0 0 0 0 0 0 0 0 0 0 0 0 0 0 0 0 0 0 0 0 0 0 0 0 0 0 0 0 0 0 0 0 0 0 0 0 0 0 0 0 0 0 0 0 0 0 0 0 0 0 0 0 0 0 0 0 0 0 0 0 0 0 0 0 0 0 0 0 0 0 0 0 0 0 0 0 0 0 0 0 0 0 0 0 0 0 0 0 0 0 0 0 0 0 0 0 0 0 0 0 0 0 0 0 0 0 0 0 0 0 0 0 0 0 0 0 0 0 0 0 0 0 0 0 0 0 0 0 0 0 0 0 0 0 0 0 0 0 0 0 0 0 0 0 0 0 0 0 0 0 0 0 0 0 0 0 0 0 0 0 0 0 0 0 0 0 0 0 0 0 0 0 0 0 0 0 0 0 0 0 0 0 0 0 0 0 0 0 0 0 0 0 0 0 0 0 0 0 0 0 0 0 0 0 0 0 0 0 0 0 0 0 0 0 0 0 0 0 0 0 0 0 0 0 0 0 0 0 0 0 0 0 0 0 0 0 0 0 0 0 0 0 0 0 0 0 0 0 0 0 0 0 0 0 0 0 0 0 0
0 0 0 0 0 0 0 0 0 0 0 0 0 0 0 0 0 0 0 0 0 0 0 0 0 0 0 0 0 0 0 0 0 0 0 0 0 0 0 0 0 0 0 0 0 0 0 0 0 0 0 0 0 0 0 0 0 0 0 0 0 0 0 0 0 0 0 0 0 0 0 0 0 0 0 0 0 0 0 0 0 0 0 0 0 0 0 0 0 0 0 0 0 0 0 0 0 0 0 0 0 0 0 0 0 0 0 0 0 0 0 0 0 0 0 0 0 0 0 0 0 0 0 0 0 0 0 0 0 0 0 0 0 0 0 0 0 0 0 0 0 0 0 0 0 0 0 0 0 0 0 0 0 0 0 0 0 0 0 0 0 0 0 0 0 0 0 0 0 0 0 0 0 0 0 0 0 0 0 0 0 0 0 0 0 0 0 0 0 0 0 0 0 0 0 0 0 0 0 0 0 0 0 0 0 0 0 0 0 0 0 0 0 0 0 0 0 0 0 0 0 0 0 0 0 0 0 0 0 0 0 0 0 0 0 0 0 0 0 0 0 0 0 0 0 0 0 0 0 0 0 0 0 0 0 0 0 0 0 0 0 0 0 0 0 0 0 0 0 0 0 0 0 0 0 0 0 0 0 0 0 0 0 0 0 0 0 0 0 0 0 0 0 0 0 0 0 0 0 0 0 0 0 0 0 0 0 0 0 0 0 0 0 0 0 0 0 0 0 0 0 0 0 0 0 0 0 0 0 0 0 0 0 0 0 0 0 0 0 0 0 0 0 0 0 0 0 0 0 0 0 0 0 0 0 0 0 0 0 0 0 0 0 0 0 0 0 0 0 0 0 0 0 0 0 0 0 0 0 0 0 0 0 0 0 0 0 0 0 0 0 0 0 0 0 0 0 0 0 0 0 0 0 0 0 0 0 0 0 0 0 0 0 0 0 0 0 0 0 0 0 0 0 0 0 0 0 0 0 0 0 0 0 0 0 0 0 0 0 0 0 0 0 0 0 0 0 0 0 0 0 0 0 0 0 0 0 0 0 0 0 0 0 0 0 0 0 0 0 0 0 0 0 0 0 0 0 0 0 0 0 0 0 0 0 0 0 0 0 0 0 0 0 0 0 0 0 0 0 0 0 0 0 0 0 0 0 0 0 0 0 0 0 0 0 0 0 0 0 0 0 0 0 0 0 0 0 0 0 0 0 0 0 0 0 0 0 0 0 0 0 0 0 0 0 0 0 0 0 0 0 0 0 0 0 0 0 0 0 0 0 0 0 0 0 0 0 0 0 0 0 0 0 0 0 0 0 0 0 0 0 0 0 0 0 0 0 0 0 0 0 0 0 0 0 0 0 0 0 0 0 0 0 0 0 0 0 0 0 0 0 0 0 0 0 0 0 0 0 0 0 0 0 0 0 0 0 0 0 0 0 0 0 0 0 0 0 0 0 0 0 0 0 0 0 0 0 0 0 0 0 0 0 0 0 0 0 0 0 0 0 0 0 0 0 0 0 0 0 0 0 0 0 0 0 0 0 0 0 0 0 0 0 0 0 0 0 0 0 0 0 0 0 0 0 0 0 0 0 0 0 0 0 0 0 0 0 0 0 0 0 0 0 0 0 0 0 0 0 0
0 0 0 0 0 0 0 0 0 0 0 0 0 0 0 0 0 0 0 0 0 0 0 0 0 0 0 0 0 0 0 0 0 0 0 0 0 0 0 0 0 0 0 0 0 0 0 0 0 0 0 0 0 0 0 0 0 0 0 0 0 0 0 0 0 0 0 0 0 0 0 0 0 0 0 0 0 0 0 0 0 0 0 0 0 0 0 0 0 0 0 0 0 0 0 0 0 0 0 0 0 0 0 0 0 0 0 0 0 0 0 0 0 0 0 0 0 0 0 0 0 0 0 0 0 0 0 0 0 0 0 0 0 0 0 0 0 0 0 0 0 0 0 0 0 0 0 0 0 0 0 0 0 0 0 0 0 0 0 0 0 0 0 0 0 0 0 0 0 0 0 0 0 0 0 0 0 0 0 0 0 0 0 0 0 0 0 0 0 0 0 0 0 0 0 0 0 0 0 0 0 0 0 0 0 0 0 0 0 0 0 0 0 0 0 0 0 0 0 0 0 0 0 0 0 0 0 0 0 0 0 0 0 0 0 0 0 0 0 0 0 0 0 0 0 0 0 0 0 0 0 0 0 0 0 0 0 0 0 0 0 0 0 0 0 0 0 0 0 0 0 0 0 0 0 0 0 0 0 0 0 0 0 0 0 0 0 0 0 0 0 0 0 0 0 0 0 0 0 0 0 0 0 0 0 0 0 0 0 0 0 0 0 0 0 0 0 0 0 0 0 0 0 0 0 0 0 0 0 0 0 0 0 0 0 0 0 0 0 0 0 0 0 0 0 0 0 0 0 0 0 0 0 0 0 0 0 0 0 0 0 0 0 0 0 0 0 0 0 0 0 0 0 0 0 0 0 0 0 0 0 0 0 0 0 0 0 0 0 0 0 0 0 0 0 0 0 0 0 0 0 0 0 0 0 0 0 0 0 0 0 0 0 0 0 0 0 0 0 0 0 0 0 0 0 0 0 0 0 0 0 0 0 0 0 0 0 0 0 0 0 0 0 0 0 0 0 0 0 0 0 0 0 0 0 0 0 0 0 0 0 0 0 0 0 0 0 0 0 0 0 0 0 0 0 0 0 0 0 0 0 0 0 0 0 0 0 0 0 0 0 0 0 0 0 0 0 0 0 0 0 0 0 0 0 0 0 0 0 0 0 0 0 0 0 0 0 0 0 0 0 0 0 0 0 0 0 0 0 0 0 0 0 0 0 0 0 0 0 0 0 0 0 0 0 0 0 0 0 0 0 0 0 0 0 0 0 0 0 0 0 0 0 0 0 0 0 0 0 0 0 0 0 0 0 0 0 0 0 0 0 0 0 0 0 0 0 0 0 0 0 0 0 0 0 0 0 0 0 0 0 0 0 0 0 0 0 0 0 0 0 0 0 0 0 0 0 0 0 0 0 0 0 0 0 0 0 0 0 0 0 0 0 0 0 0 0 0 0 0 0 0 0 0 0 0 0 0 0 0 0 0 0 0 0 0 0 0 0 0 0 0 0 0 0 0 0 0 0 0 0 0 0 0 0 0 0 0 0 0 0 0 0 0 0 0 0 0 0 0 0 0 0 0 0 0 0 0 0 0 0 0 0 0 0 0 0 0 0 0 0 0 0 0 0 0 0 0 0 0
0 0 0 0 0 0 0 0 0 0 0 0 0 0 0 0 0 0 0 0 0 0 0 0 0 0 0 0 0 0 0 0 0 0 0 0 0 0 0 0 0 0 0 0 0 0 0 0 0 0 0 0 0 0 0 0 0 0 0 0 0 0 0 0 0 0 0 0 0 0 0 0 0 0 0 0 0 0 0 0 0 0 0 0 0 0 0 0 0 0 0 0 0 0 0 0 0 0 0 0 0 0 0 0 0 0 0 0 0 0 0 0 0 0 0 0 0 0 0 0 0 0 0 0 0 0 0 0 0 0 0 0 0 0 0 0 0 0 0 0 0 0 0 0 0 0 0 0 0 0 0 0 0 0 0 0 0 0 0 0 0 0 0 0 0 0 0 0 0 0 0 0 0 0 0 0 0 0 0 0 0 0 0 0 0 0 0 0 0 0 0 0 0 0 0 0 0 0 0 0 0 0 0 0 0 0 0 0 0 0 0 0 0 0 0 0 0 0 0 0 0 0 0 0 0 0 0 0 0 0 0 0 0 0 0 0 0 0 0 0 0 0 0 0 0 0 0 0 0 0 0 0 0 0 0 0 0 0 0 0 0 0 0 0 0 0 0 0 0 0 0 0 0 0 0 0 0 0 0 0 0 0 0 0 0 0 0 0 0 0 0 0 0 0 0 0 0 0 0 0 0 0 0 0 0 0 0 0 0 0 0 0 0 0 0 0 0 0 0 0 0 0 0 0 0 0 0 0 0 0 0 0 0 0 0 0 0 0 0 0 0 0 0 0 0 0 0 0 0 0 0 0 0 0 0 0 0 0 0 0 0 0 0 0 0 0 0 0 0 0 0 0 0 0 0 0 0 0 0 0 0 0 0 0 0 0 0 0 0 0 0 0 0 0 0 0 0 0 0 0 0 0 0 0 0 0 0 0 0 0 0 0 0 0 0 0 0 0 0 0 0 0 0 0 0 0 0 0 0 0 0 0 0 0 0 0 0 0 0 0 0 0 0 0 0 0 0 0 0 0 0 0 0 0 0 0 0 0 0 0 0 0 0 0 0 0 0 0 0 0 0 0 0 0 0 0 0 0 0 0 0 0 0 0 0 0 0 0 0 0 0 0 0 0 0 0 0 0 0 0 0 0 0 0 0 0 0 0 0 0 0 0 0 0 0 0 0 0 0 0 0 0 0 0 0 0 0 0 0 0 0 0 0 0 0 0 0 0 0 0 0 0 0 0 0 0 0 0 0 0 0 0 0 0 0 0 0 0 0 0 0 0 0 0 0 0 0 0 0 0 0 0 0 0 0 0 0 0 0 0 0 0 0 0 0 0 0 0 0 0 0 0 0 0 0 0 0 0 0 0 0 0 0 0 0 0 0 0 0 0 0 0 0 0 0 0 0 0 0 0 0 0 0 0 0 0 0 0 0 0 0 0 0 0 0 0 0 0 0 0 0 0 0 0 0 0 0 0 0 0 0 0 0 0 0 0 0 0 0 0 0 0 0 0 0 0 0 0 0 0 0 0 0 0 0 0 0 0 0 0 0 0 0 0 0 0 0 0 0 0 0 0 0 0 0 0 0 0 0 0 0 0 0 0 0 0 0 0 0 0 0 0 0 0 0 0 0 0 0 0
0 0 0 0 0 0 0 0 0 0 0 0 0 0 0 0 0 0 0 0 0 0 0 0 0 0 0 0 0 0 0 0 0 0 0 0 0 0 0 0 0 0 0 0 0 0 0 0 0 0 0 0 0 0 0 0 0 0 0 0 0 0 0 0 0 0 0 0 0 0 0 0 0 0 0 0 0 0 0 0 0 0 0 0 0 0 0 0 0 0 0 0 0 0 0 0 0 0 0 0 0 0 0 0 0 0 0 0 0 0 0 0 0 0 0 0 0 0 0 0 0 0 0 0 0 0 0 0 0 0 0 0 0 0 0 0 0 0 0 0 0 0 0 0 0 0 0 0 0 0 0 0 0 0 0 0 0 0 0 0 0 0 0 0 0 0 0 0 0 0 0 0 0 0 0 0 0 0 0 0 0 0 0 0 0 0 0 0 0 0 0 0 0 0 0 0 0 0 0 0 0 0 0 0 0 0 0 0 0 0 0 0 0 0 0 0 0 0 0 0 0 0 0 0 0 0 0 0 0 0 0 0 0 0 0 0 0 0 0 0 0 0 0 0 0 0 0 0 0 0 0 0 0 0 0 0 0 0 0 0 0 0 0 0 0 0 0 0 0 0 0 0 0 0 0 0 0 0 0 0 0 0 0 0 0 0 0 0 0 0 0 0 0 0 0 0 0 0 0 0 0 0 0 0 0 0 0 0 0 0 0 0 0 0 0 0 0 0 0 0 0 0 0 0 0 0 0 0 0 0 0 0 0 0 0 0 0 0 0 0 0 0 0 0 0 0 0 0 0 0 0 0 0 0 0 0 0 0 0 0 0 0 0 0 0 0 0 0 0 0 0 0 0 0 0 0 0 0 0 0 0 0 0 0 0 0 0 0 0 0 0 0 0 0 0 0 0 0 0 0 0 0 0 0 0 0 0 0 0 0 0 0 0 0 0 0 0 0 0 0 0 0 0 0 0 0 0 0 0 0 0 0 0 0 0 0 0 0 0 0 0 0 0 0 0 0 0 0 0 0 0 0 0 0 0 0 0 0 0 0 0 0 0 0 0 0 0 0 0 0 0 0 0 0 0 0 0 0 0 0 0 0 0 0 0 0 0 0 0 0 0 0 0 0 0 0 0 0 0 0 0 0 0 0 0 0 0 0 0 0 0 0 0 0 0 0 0 0 0 0 0 0 0 0 0 0 0 0 0 0 0 0 0 0 0 0 0 0 0 0 0 0 0 0 0 0 0 0 0 0 0 0 0 0 0 0 0 0 0 0 0 0 0 0 0 0 0 0 0 0 0 0 0 0 0 0 0 0 0 0 0 0 0 0 0 0 0 0 0 0 0 0 0 0 0 0 0 0 0 0 0 0 0 0 0 0 0 0 0 0 0 0 0 0 0 0 0 0 0 0 0 0 0 0 0 0 0 0 0 0 0 0 0 0 0 0 0 0 0 0 0 0 0 0 0 0 0 0 0 0 0 0 0 0 0 0 0 0 0 0 0 0 0 0 0 0 0 0 0 0 0 0 0 0 0 0 0 0 0 0 0 0 0 0 0 0 0 0 0 0 0 0 0 0 0 0 0 0 0 0 0 0 0 0 0 0 0 0 0 0 0 0 0 0 0 0 0 0 0 0
0 0 0 0 0 0 0 0 0 0 0 0 0 0 0 0 0 0 0 0 0 0 0 0 0 0 0 0 0 0 0 0 0 0 0 0 0 0 0 0 0 0 0 0 0 0 0 0 0 0 0 0 0 0 0 0 0 0 0 0 0 0 0 0 0 0 0 0 0 0 0 0 0 0 0 0 0 0 0 0 0 0 0 0 0 0 0 0 0 0 0 0 0 0 0 0 0 0 0 0 0 0 0 0 0 0 0 0 0 0 0 0 0 0 0 0 0 0 0 0 0 0 0 0 0 0 0 0 0 0 0 0 0 0 0 0 0 0 0 0 0 0 0 0 0 0 0 0 0 0 0 0 0 0 0 0 0 0 0 0 0 0 0 0 0 0 0 0 0 0 0 0 0 0 0 0 0 0 0 0 0 0 0 0 0 0 0 0 0 0 0 0 0 0 0 0 0 0 0 0 0 0 0 0 0 0 0 0 0 0 0 0 0 0 0 0 0 0 0 0 0 0 0 0 0 0 0 0 0 0 0 0 0 0 0 0 0 0 0 0 0 0 0 0 0 0 0 0 0 0 0 0 0 0 0 0 0 0 0 0 0 0 0 0 0 0 0 0 0 0 0 0 0 0 0 0 0 0 0 0 0 0 0 0 0 0 0 0 0 0 0 0 0 0 0 0 0 0 0 0 0 0 0 0 0 0 0 0 0 0 0 0 0 0 0 0 0 0 0 0 0 0 0 0 0 0 0 0 0 0 0 0 0 0 0 0 0 0 0 0 0 0 0 0 0 0 0 0 0 0 0 0 0 0 0 0 0 0 0 0 0 0 0 0 0 0 0 0 0 0 0 0 0 0 0 0 0 0 0 0 0 0 0 0 0 0 0 0 0 0 0 0 0 0 0 0 0 0 0 0 0 0 0 0 0 0 0 0 0 0 0 0 0 0 0 0 0 0 0 0 0 0 0 0 0 0 0 0 0 0 0 0 0 0 0 0 0 0 0 0 0 0 0 0 0 0 0 0 0 0 0 0 0 0 0 0 0 0 0 0 0 0 0 0 0 0 0 0 0 0 0 0 0 0 0 0 0 0 0 0 0 0 0 0 0 0 0 0 0 0 0 0 0 0 0 0 0 0 0 0 0 0 0 0 0 0 0 0 0 0 0 0 0 0 0 0 0 0 0 0 0 0 0 0 0 0 0 0 0 0 0 0 0 0 0 0 0 0 0 0 0 0 0 0 0 0 0 0 0 0 0 0 0 0 0 0 0 0 0 0 0 0 0 0 0 0 0 0 0 0 0 0 0 0 0 0 0 0 0 0 0 0 0 0 0 0 0 0 0 0 0 0 0 0 0 0 0 0 0 0 0 0 0 0 0 0 0 0 0 0 0 0 0 0 0 0 0 0 0 0 0 0 0 0 0 0 0 0 0 0 0 0 0 0 0 0 0 0 0 0 0 0 0 0 0 0 0 0 0 0 0 0 0 0 0 0 0 0 0 0 0 0 0 0 0 0 0 0 0 0 0 0 0 0 0 0 0 0 0 0 0 0 0 0 0 0 0 0 0 0 0 0 0 0 0 0 0 0 0 0 0 0 0 0 0 0 0 0 0 0 0 0 0 0 0 0 0 0 0 0
0 0 0 0 0 0 0 0 0 0 0 0 0 0 0 0 0 0 0 0 0 0 0 0 0 0 0 0 0 0 0 0 0 0 0 0 0 0 0 0 0 0 0 0 0 0 0 0 0 0 0 0 0 0 0 0 0 0 0 0 0 0 0 0 0 0 0 0 0 0 0 0 0 0 0 0 0 0 0 0 0 0 0 0 0 0 0 0 0 0 0 0 0 0 0 0 0 0 0 0 0 0 0 0 0 0 0 0 0 0 0 0 0 0 0 0 0 0 0 0 0 0 0 0 0 0 0 0 0 0 0 0 0 0 0 0 0 0 0 0 0 0 0 0 0 0 0 0 0 0 0 0 0 0 0 0 0 0 0 0 0 0 0 0 0 0 0 0 0 0 0 0 0 0 0 0 0 0 0 0 0 0 0 0 0 0 0 0 0 0 0 0 0 0 0 0 0 0 0 0 0 0 0 0 0 0 0 0 0 0 0 0 0 0 0 0 0 0 0 0 0 0 0 0 0 0 0 0 0 0 0 0 0 0 0 0 0 0 0 0 0 0 0 0 0 0 0 0 0 0 0 0 0 0 0 0 0 0 0 0 0 0 0 0 0 0 0 0 0 0 0 0 0 0 0 0 0 0 0 0 0 0 0 0 0 0 0 0 0 0 0 0 0 0 0 0 0 0 0 0 0 0 0 0 0 0 0 0 0 0 0 0 0 0 0 0 0 0 0 0 0 0 0 0 0 0 0 0 0 0 0 0 0 0 0 0 0 0 0 0 0 0 0 0 0 0 0 0 0 0 0 0 0 0 0 0 0 0 0 0 0 0 0 0 0 0 0 0 0 0 0 0 0 0 0 0 0 0 0 0 0 0 0 0 0 0 0 0 0 0 0 0 0 0 0 0 0 0 0 0 0 0 0 0 0 0 0 0 0 0 0 0 0 0 0 0 0 0 0 0 0 0 0 0 0 0 0 0 0 0 0 0 0 0 0 0 0 0 0 0 0 0 0 0 0 0 0 0 0 0 0 0 0 0 0 0 0 0 0 0 0 0 0 0 0 0 0 0 0 0 0 0 0 0 0 0 0 0 0 0 0 0 0 0 0 0 0 0 0 0 0 0 0 0 0 0 0 0 0 0 0 0 0 0 0 0 0 0 0 0 0 0 0 0 0 0 0 0 0 0 0 0 0 0 0 0 0 0 0 0 0 0 0 0 0 0 0 0 0 0 0 0 0 0 0 0 0 0 0 0 0 0 0 0 0 0 0 0 0 0 0 0 0 0 0 0 0 0 0 0 0 0 0 0 0 0 0 0 0 0 0 0 0 0 0 0 0 0 0 0 0 0 0 0 0 0 0 0 0 0 0 0 0 0 0 0 0 0 0 0 0 0 0 0 0 0 0 0 0 0 0 0 0 0 0 0 0 0 0 0 0 0 0 0 0 0 0 0 0 0 0 0 0 0 0 0 0 0 0 0 0 0 0 0 0 0 0 0 0 0 0 0 0 0 0 0 0 0 0 0 0 0 0 0 0 0 0 0 0 0 0 0 0 0 0 0 0 0 0 0 0 0 0 0 0 0 0 0 0 0 0 0 0 0 0 0 0 0 0 0 0 0 0 0 0 0 0 0 0 0
0 0 0 0 0 0 0 0 0 0 0 0 0 0 0 0 0 0 0 0 0 0 0 0 0 0 0 0 0 0 0 0 0 0 0 0 0 0 0 0 0 0 0 0 0 0 0 0 0 0 0 0 0 0 0 0 0 0 0 0 0 0 0 0 0 0 0 0 0 0 0 0 0 0 0 0 0 0 0 0 0 0 0 0 0 0 0 0 0 0 0 0 0 0 0 0 0 0 0 0 0 0 0 0 0 0 0 0 0 0 0 0 0 0 0 0 0 0 0 0 0 0 0 0 0 0 0 0 0 0 0 0 0 0 0 0 0 0 0 0 0 0 0 0 0 0 0 0 0 0 0 0 0 0 0 0 0 0 0 0 0 0 0 0 0 0 0 0 0 0 0 0 0 0 0 0 0 0 0 0 0 0 0 0 0 0 0 0 0 0 0 0 0 0 0 0 0 0 0 0 0 0 0 0 0 0 0 0 0 0 0 0 0 0 0 0 0 0 0 0 0 0 0 0 0 0 0 0 0 0 0 0 0 0 0 0 0 0 0 0 0 0 0 0 0 0 0 0 0 0 0 0 0 0 0 0 0 0 0 0 0 0 0 0 0 0 0 0 0 0 0 0 0 0 0 0 0 0 0 0 0 0 0 0 0 0 0 0 0 0 0 0 0 0 0 0 0 0 0 0 0 0 0 0 0 0 0 0 0 0 0 0 0 0 0 0 0 0 0 0 0 0 0 0 0 0 0 0 0 0 0 0 0 0 0 0 0 0 0 0 0 0 0 0 0 0 0 0 0 0 0 0 0 0 0 0 0 0 0 0 0 0 0 0 0 0 0 0 0 0 0 0 0 0 0 0 0 0 0 0 0 0 0 0 0 0 0 0 0 0 0 0 0 0 0 0 0 0 0 0 0 0 0 0 0 0 0 0 0 0 0 0 0 0 0 0 0 0 0 0 0 0 0 0 0 0 0 0 0 0 0 0 0 0 0 0 0 0 0 0 0 0 0 0 0 0 0 0 0 0 0 0 0 0 0 0 0 0 0 0 0 0 0 0 0 0 0 0 0 0 0 0 0 0 0 0 0 0 0 0 0 0 0 0 0 0 0 0 0 0 0 0 0 0 0 0 0 0 0 0 0 0 0 0 0 0 0 0 0 0 0 0 0 0 0 0 0 0 0 0 0 0 0 0 0 0 0 0 0 0 0 0 0 0 0 0 0 0 0 0 0 0 0 0 0 0 0 0 0 0 0 0 0 0 0 0 0 0 0 0 0 0 0 0 0 0 0 0 0 0 0 0 0 0 0 0 0 0 0 0 0 0 0 0 0 0 0 0 0 0 0 0 0 0 0 0 0 0 0 0 0 0 0 0 0 0 0 0 0 0 0 0 0 0 0 0 0 0 0 0 0 0 0 0 0 0 0 0 0 0 0 0 0 0 0 0 0 0 0 0 0 0 0 0 0 0 0 0 0 0 0 0 0 0 0 0 0 0 0 0 0 0 0 0 0 0 0 0 0 0 0 0 0 0 0 0 0 0 0 0 0 0 0 0 0 0 0 0 0 0 0 0 0 0 0 0 0 0 0 0 0 0 0 0 0 0 0 0 0 0 0 0 0 0 0 0 0 0 0 0
0 0 0 0 0 0 0 0 0 0 0 0 0 0 0 0 0 0 0 0 0 0 0 0 0 0 0 0 0 0 0 0 0 0 0 0 0 0 0 0 0 0 0 0 0 0 0 0 0 0 0 0 0 0 0 0 0 0 0 0 0 0 0 0 0 0 0 0 0 0 0 0 0 0 0 0 0 0 0 0 0 0 0 0 0 0 0 0 0 0 0 0 0 0 0 0 0 0 0 0 0 0 0 0 0 0 0 0 0 0 0 0 0 0 0 0 0 0 0 0 0 0 0 0 0 0 0 0 0 0 0 0 0 0 0 0 0 0 0 0 0 0 0 0 0 0 0 0 0 0 0 0 0 0 0 0 0 0 0 0 0 0 0 0 0 0 0 0 0 0 0 0 0 0 0 0 0 0 0 0 0 0 0 0 0 0 0 0 0 0 0 0 0 0 0 0 0 0 0 0 0 0 0 0 0 0 0 0 0 0 0 0 0 0 0 0 0 0 0 0 0 0 0 0 0 0 0 0 0 0 0 0 0 0 0 0 0 0 0 0 0 0 0 0 0 0 0 0 0 0 0 0 0 0 0 0 0 0 0 0 0 0 0 0 0 0 0 0 0 0 0 0 0 0 0 0 0 0 0 0 0 0 0 0 0 0 0 0 0 0 0 0 0 0 0 0 0 0 0 0 0 0 0 0 0 0 0 0 0 0 0 0 0 0 0 0 0 0 0 0 0 0 0 0 0 0 0 0 0 0 0 0 0 0 0 0 0 0 0 0 0 0 0 0 0 0 0 0 0 0 0 0 0 0 0 0 0 0 0 0 0 0 0 0 0 0 0 0 0 0 0 0 0 0 0 0 0 0 0 0 0 0 0 0 0 0 0 0 0 0 0 0 0 0 0 0 0 0 0 0 0 0 0 0 0 0 0 0 0 0 0 0 0 0 0 0 0 0 0 0 0 0 0 0 0 0 0 0 0 0 0 0 0 0 0 0 0 0 0 0 0 0 0 0 0 0 0 0 0 0 0 0 0 0 0 0 0 0 0 0 0 0 0 0 0 0 0 0 0 0 0 0 0 0 0 0 0 0 0 0 0 0 0 0 0 0 0 0 0 0 0 0 0 0 0 0 0 0 0 0 0 0 0 0 0 0 0 0 0 0 0 0 0 0 0 0 0 0 0 0 0 0 0 0 0 0 0 0 0 0 0 0 0 0 0 0 0 0 0 0 0 0 0 0 0 0 0 0 0 0 0 0 0 0 0 0 0 0 0 0 0 0 0 0 0 0 0 0 0 0 0 0 0 0 0 0 0 0 0 0 0 0 0 0 0 0 0 0 0 0 0 0 0 0 0 0 0 0 0 0 0 0 0 0 0 0 0 0 0 0 0 0 0 0 0 0 0 0 0 0 0 0 0 0 0 0 0 0 0 0 0 0 0 0 0 0 0 0 0 0 0 0 0 0 0 0 0 0 0 0 0 0 0 0 0 0 0 0 0 0 0 0 0 0 0 0 0 0 0 0 0 0 0 0 0 0 0 0 0 0 0 0 0 0 0 0 0 0 0 0 0 0 0 0 0 0 0 0 0 0 0 0 0 0 0 0 0 0 0 0 0 0 0 0 0 0 0 0 0 0
0 0 0 0 0 0 0 0 0 0 0 0 0 0 0 0 0 0 0 0 0 0 0 0 0 0 0 0 0 0 0 0 0 0 0 0 0 0 0 0 0 0 0 0 0 0 0 0 0 0 0 0 0 0 0 0 0 0 0 0 0 0 0 0 0 0 0 0 0 0 0 0 0 0 0 0 0 0 0 0 0 0 0 0 0 0 0 0 0 0 0 0 0 0 0 0 0 0 0 0 0 0 0 0 0 0 0 0 0 0 0 0 0 0 0 0 0 0 0 0 0 0 0 0 0 0 0 0 0 0 0 0 0 0 0 0 0 0 0 0 0 0 0 0 0 0 0 0 0 0 0 0 0 0 0 0 0 0 0 0 0 0 0 0 0 0 0 0 0 0 0 0 0 0 0 0 0 0 0 0 0 0 0 0 0 0 0 0 0 0 0 0 0 0 0 0 0 0 0 0 0 0 0 0 0 0 0 0 0 0 0 0 0 0 0 0 0 0 0 0 0 0 0 0 0 0 0 0 0 0 0 0 0 0 0 0 0 0 0 0 0 0 0 0 0 0 0 0 0 0 0 0 0 0 0 0 0 0 0 0 0 0 0 0 0 0 0 0 0 0 0 0 0 0 0 0 0 0 0 0 0 0 0 0 0 0 0 0 0 0 0 0 0 0 0 0 0 0 0 0 0 0 0 0 0 0 0 0 0 0 0 0 0 0 0 0 0 0 0 0 0 0 0 0 0 0 0 0 0 0 0 0 0 0 0 0 0 0 0 0 0 0 0 0 0 0 0 0 0 0 0 0 0 0 0 0 0 0 0 0 0 0 0 0 0 0 0 0 0 0 0 0 0 0 0 0 0 0 0 0 0 0 0 0 0 0 0 0 0 0 0 0 0 0 0 0 0 0 0 0 0 0 0 0 0 0 0 0 0 0 0 0 0 0 0 0 0 0 0 0 0 0 0 0 0 0 0 0 0 0 0 0 0 0 0 0 0 0 0 0 0 0 0 0 0 0 0 0 0 0 0 0 0 0 0 0 0 0 0 0 0 0 0 0 0 0 0 0 0 0 0 0 0 0 0 0 0 0 0 0 0 0 0 0 0 0 0 0 0 0 0 0 0 0 0 0 0 0 0 0 0 0 0 0 0 0 0 0 0 0 0 0 0 0 0 0 0 0 0 0 0 0 0 0 0 0 0 0 0 0 0 0 0 0 0 0 0 0 0 0 0 0 0 0 0 0 0 0 0 0 0 0 0 0 0 0 0 0 0 0 0 0 0 0 0 0 0 0 0 0 0 0 0 0 0 0 0 0 0 0 0 0 0 0 0 0 0 0 0 0 0 0 0 0 0 0 0 0 0 0 0 0 0 0 0 0 0 0 0 0 0 0 0 0 0 0 0 0 0 0 0 0 0 0 0 0 0 0 0 0 0 0 0 0 0 0 0 0 0 0 0 0 0 0 0 0 0 0 0 0 0 0 0 0 0 0 0 0 0 0 0 0 0 0 0 0 0 0 0 0 0 0 0 0 0 0 0 0 0 0 0 0 0 0 0 0 0 0 0 0 0 0 0 0 0 0 0 0 0 0 0 0 0 0 0 0 0 0 0 0 0 0 0 0 0 0 0 0 0 0
0 0 0 0 0 0 0 0 0 0 0 0 0 0 0 0 0 0 0 0 0 0 0 0 0 0 0 0 0 0 0 0 0 0 0 0 0 0 0 0 0 0 0 0 0 0 0 0 0 0 0 0 0 0 0 0 0 0 0 0 0 0 0 0 0 0 0 0 0 0 0 0 0 0 0 0 0 0 0 0 0 0 0 0 0 0 0 0 0 0 0 0 0 0 0 0 0 0 0 0 0 0 0 0 0 0 0 0 0 0 0 0 0 0 0 0 0 0 0 0 0 0 0 0 0 0 0 0 0 0 0 0 0 0 0 0 0 0 0 0 0 0 0 0 0 0 0 0 0 0 0 0 0 0 0 0 0 0 0 0 0 0 0 0 0 0 0 0 0 0 0 0 0 0 0 0 0 0 0 0 0 0 0 0 0 0 0 0 0 0 0 0 0 0 0 0 0 0 0 0 0 0 0 0 0 0 0 0 0 0 0 0 0 0 0 0 0 0 0 0 0 0 0 0 0 0 0 0 0 0 0 0 0 0 0 0 0 0 0 0 0 0 0 0 0 0 0 0 0 0 0 0 0 0 0 0 0 0 0 0 0 0 0 0 0 0 0 0 0 0 0 0 0 0 0 0 0 0 0 0 0 0 0 0 0 0 0 0 0 0 0 0 0 0 0 0 0 0 0 0 0 0 0 0 0 0 0 0 0 0 0 0 0 0 0 0 0 0 0 0 0 0 0 0 0 0 0 0 0 0 0 0 0 0 0 0 0 0 0 0 0 0 0 0 0 0 0 0 0 0 0 0 0 0 0 0 0 0 0 0 0 0 0 0 0 0 0 0 0 0 0 0 0 0 0 0 0 0 0 0 0 0 0 0 0 0 0 0 0 0 0 0 0 0 0 0 0 0 0 0 0 0 0 0 0 0 0 0 0 0 0 0 0 0 0 0 0 0 0 0 0 0 0 0 0 0 0 0 0 0 0 0 0 0 0 0 0 0 0 0 0 0 0 0 0 0 0 0 0 0 0 0 0 0 0 0 0 0 0 0 0 0 0 0 0 0 0 0 0 0 0 0 0 0 0 0 0 0 0 0 0 0 0 0 0 0 0 0 0 0 0 0 0 0 0 0 0 0 0 0 0 0 0 0 0 0 0 0 0 0 0 0 0 0 0 0 0 0 0 0 0 0 0 0 0 0 0 0 0 0 0 0 0 0 0 0 0 0 0 0 0 0 0 0 0 0 0 0 0 0 0 0 0 0 0 0 0 0 0 0 0 0 0 0 0 0 0 0 0 0 0 0 0 0 0 0 0 0 0 0 0 0 0 0 0 0 0 0 0 0 0 0 0 0 0 0 0 0 0 0 0 0 0 0 0 0 0 0 0 0 0 0 0 0 0 0 0 0 0 0 0 0 0 0 0 0 0 0 0 0 0 0 0 0 0 0 0 0 0 0 0 0 0 0 0 0 0 0 0 0 0 0 0 0 0 0 0 0 0 0 0 0 0 0 0 0 0 0 0 0 0 0 0 0 0 0 0 0 0 0 0 0 0 0 0 0 0 0 0 0 0 0 0 0 0 0 0 0 0 0 0 0 0 0 0 0 0 0 0 0 0 0 0 0 0 0 0 0 0 0
0 0 0 0 0 0 0 0 0 0 0 0 0 0 0 0 0 0 0 0 0 0 0 0 0 0 0 0 0 0 0 0 0 0 0 0 0 0 0 0 0 0 0 0 0 0 0 0 0 0 0 0 0 0 0 0 0 0 0 0 0 0 0 0 0 0 0 0 0 0 0 0 0 0 0 0 0 0 0 0 0 0 0 0 0 0 0 0 0 0 0 0 0 0 0 0 0 0 0 0 0 0 0 0 0 0 0 0 0 0 0 0 0 0 0 0 0 0 0 0 0 0 0 0 0 0 0 0 0 0 0 0 0 0 0 0 0 0 0 0 0 0 0 0 0 0 0 0 0 0 0 0 0 0 0 0 0 0 0 0 0 0 0 0 0 0 0 0 0 0 0 0 0 0 0 0 0 0 0 0 0 0 0 0 0 0 0 0 0 0 0 0 0 0 0 0 0 0 0 0 0 0 0 0 0 0 0 0 0 0 0 0 0 0 0 0 0 0 0 0 0 0 0 0 0 0 0 0 0 0 0 0 0 0 0 0 0 0 0 0 0 0 0 0 0 0 0 0 0 0 0 0 0 0 0 0 0 0 0 0 0 0 0 0 0 0 0 0 0 0 0 0 0 0 0 0 0 0 0 0 0 0 0 0 0 0 0 0 0 0 0 0 0 0 0 0 0 0 0 0 0 0 0 0 0 0 0 0 0 0 0 0 0 0 0 0 0 0 0 0 0 0 0 0 0 0 0 0 0 0 0 0 0 0 0 0 0 0 0 0 0 0 0 0 0 0 0 0 0 0 0 0 0 0 0 0 0 0 0 0 0 0 0 0 0 0 0 0 0 0 0 0 0 0 0 0 0 0 0 0 0 0 0 0 0 0 0 0 0 0 0 0 0 0 0 0 0 0 0 0 0 0 0 0 0 0 0 0 0 0 0 0 0 0 0 0 0 0 0 0 0 0 0 0 0 0 0 0 0 0 0 0 0 0 0 0 0 0 0 0 0 0 0 0 0 0 0 0 0 0 0 0 0 0 0 0 0 0 0 0 0 0 0 0 0 0 0 0 0 0 0 0 0 0 0 0 0 0 0 0 0 0 0 0 0 0 0 0 0 0 0 0 0 0 0 0 0 0 0 0 0 0 0 0 0 0 0 0 0 0 0 0 0 0 0 0 0 0 0 0 0 0 0 0 0 0 0 0 0 0 0 0 0 0 0 0 0 0 0 0 0 0 0 0 0 0 0 0 0 0 0 0 0 0 0 0 0 0 0 0 0 0 0 0 0 0 0 0 0 0 0 0 0 0 0 0 0 0 0 0 0 0 0 0 0 0 0 0 0 0 0 0 0 0 0 0 0 0 0 0 0 0 0 0 0 0 0 0 0 0 0 0 0 0 0 0 0 0 0 0 0 0 0 0 0 0 0 0 0 0 0 0 0 0 0 0 0 0 0 0 0 0 0 0 0 0 0 0 0 0 0 0 0 0 0 0 0 0 0 0 0 0 0 0 0 0 0 0 0 0 0 0 0 0 0 0 0 0 0 0 0 0 0 0 0 0 0 0 0 0 0 0 0 0 0 0 0 0 0 0 0 0 0 0 0 0 0 0 0 0 0 0 0 0 0 0 0 0 0 0
0 0 0 0 0 0 0 0 0 0 0 0 0 0 0 0 0 0 0 0 0 0 0 0 0 0 0 0 0 0 0 0 0 0 0 0 0 0 0 0 0 0 0 0 0 0 0 0 0 0 0 0 0 0 0 0 0 0 0 0 0 0 0 0 0 0 0 0 0 0 0 0 0 0 0 0 0 0 0 0 0 0 0 0 0 0 0 0 0 0 0 0 0 0 0 0 0 0 0 0 0 0 0 0 0 0 0 0 0 0 0 0 0 0 0 0 0 0 0 0 0 0 0 0 0 0 0 0 0 0 0 0 0 0 0 0 0 0 0 0 0 0 0 0 0 0 0 0 0 0 0 0 0 0 0 0 0 0 0 0 0 0 0 0 0 0 0 0 0 0 0 0 0 0 0 0 0 0 0 0 0 0 0 0 0 0 0 0 0 0 0 0 0 0 0 0 0 0 0 0 0 0 0 0 0 0 0 0 0 0 0 0 0 0 0 0 0 0 0 0 0 0 0 0 0 0 0 0 0 0 0 0 0 0 0 0 0 0 0 0 0 0 0 0 0 0 0 0 0 0 0 0 0 0 0 0 0 0 0 0 0 0 0 0 0 0 0 0 0 0 0 0 0 0 0 0 0 0 0 0 0 0 0 0 0 0 0 0 0 0 0 0 0 0 0 0 0 0 0 0 0 0 0 0 0 0 0 0 0 0 0 0 0 0 0 0 0 0 0 0 0 0 0 0 0 0 0 0 0 0 0 0 0 0 0 0 0 0 0 0 0 0 0 0 0 0 0 0 0 0 0 0 0 0 0 0 0 0 0 0 0 0 0 0 0 0 0 0 0 0 0 0 0 0 0 0 0 0 0 0 0 0 0 0 0 0 0 0 0 0 0 0 0 0 0 0 0 0 0 0 0 0 0 0 0 0 0 0 0 0 0 0 0 0 0 0 0 0 0 0 0 0 0 0 0 0 0 0 0 0 0 0 0 0 0 0 0 0 0 0 0 0 0 0 0 0 0 0 0 0 0 0 0 0 0 0 0 0 0 0 0 0 0 0 0 0 0 0 0 0 0 0 0 0 0 0 0 0 0 0 0 0 0 0 0 0 0 0 0 0 0 0 0 0 0 0 0 0 0 0 0 0 0 0 0 0 0 0 0 0 0 0 0 0 0 0 0 0 0 0 0 0 0 0 0 0 0 0 0 0 0 0 0 0 0 0 0 0 0 0 0 0 0 0 0 0 0 0 0 0 0 0 0 0 0 0 0 0 0 0 0 0 0 0 0 0 0 0 0 0 0 0 0 0 0 0 0 0 0 0 0 0 0 0 0 0 0 0 0 0 0 0 0 0 0 0 0 0 0 0 0 0 0 0 0 0 0 0 0 0 0 0 0 0 0 0 0 0 0 0 0 0 0 0 0 0 0 0 0 0 0 0 0 0 0 0 0 0 0 0 0 0 0 0 0 0 0 0 0 0 0 0 0 0 0 0 0 0 0 0 0 0 0 0 0 0 0 0 0 0 0 0 0 0 0 0 0 0 0 0 0 0 0 0 0 0 0 0 0 0 0 0 0 0 0 0 0 0 0 0 0 0 0 0 0 0 0 0 0 0 0 0 0 0 0 0 0 0 0 0
0 0 0 0 0 0 0 0 0 0 0 0 0 0 0 0 0 0 0 0 0 0 0 0 0 0 0 0 0 0 0 0 0 0 0 0 0 0 0 0 0 0 0 0 0 0 0 0 0 0 0 0 0 0 0 0 0 0 0 0 0 0 0 0 0 0 0 0 0 0 0 0 0 0 0 0 0 0 0 0 0 0 0 0 0 0 0 0 0 0 0 0 0 0 0 0 0 0 0 0 0 0 0 0 0 0 0 0 0 0 0 0 0 0 0 0 0 0 0 0 0 0 0 0 0 0 0 0 0 0 0 0 0 0 0 0 0 0 0 0 0 0 0 0 0 0 0 0 0 0 0 0 0 0 0 0 0 0 0 0 0 0 0 0 0 0 0 0 0 0 0 0 0 0 0 0 0 0 0 0 0 0 0 0 0 0 0 0 0 0 0 0 0 0 0 0 0 0 0 0 0 0 0 0 0 0 0 0 0 0 0 0 0 0 0 0 0 0 0 0 0 0 0 0 0 0 0 0 0 0 0 0 0 0 0 0 0 0 0 0 0 0 0 0 0 0 0 0 0 0 0 0 0 0 0 0 0 0 0 0 0 0 0 0 0 0 0 0 0 0 0 0 0 0 0 0 0 0 0 0 0 0 0 0 0 0 0 0 0 0 0 0 0 0 0 0 0 0 0 0 0 0 0 0 0 0 0 0 0 0 0 0 0 0 0 0 0 0 0 0 0 0 0 0 0 0 0 0 0 0 0 0 0 0 0 0 0 0 0 0 0 0 0 0 0 0 0 0 0 0 0 0 0 0 0 0 0 0 0 0 0 0 0 0 0 0 0 0 0 0 0 0 0 0 0 0 0 0 0 0 0 0 0 0 0 0 0 0 0 0 0 0 0 0 0 0 0 0 0 0 0 0 0 0 0 0 0 0 0 0 0 0 0 0 0 0 0 0 0 0 0 0 0 0 0 0 0 0 0 0 0 0 0 0 0 0 0 0 0 0 0 0 0 0 0 0 0 0 0 0 0 0 0 0 0 0 0 0 0 0 0 0 0 0 0 0 0 0 0 0 0 0 0 0 0 0 0 0 0 0 0 0 0 0 0 0 0 0 0 0 0 0 0 0 0 0 0 0 0 0 0 0 0 0 0 0 0 0 0 0 0 0 0 0 0 0 0 0 0 0 0 0 0 0 0 0 0 0 0 0 0 0 0 0 0 0 0 0 0 0 0 0 0 0 0 0 0 0 0 0 0 0 0 0 0 0 0 0 0 0 0 0 0 0 0 0 0 0 0 0 0 0 0 0 0 0 0 0 0 0 0 0 0 0 0 0 0 0 0 0 0 0 0 0 0 0 0 0 0 0 0 0 0 0 0 0 0 0 0 0 0 0 0 0 0 0 0 0 0 0 0 0 0 0 0 0 0 0 0 0 0 0 0 0 0 0 0 0 0 0 0 0 0 0 0 0 0 0 0 0 0 0 0 0 0 0 0 0 0 0 0 0 0 0 0 0 0 0 0 0 0 0 0 0 0 0 0 0 0 0 0 0 0 0 0 0 0 0 0 0 0 0 0 0 0 0 0 0 0 0 0 0 0 0 0 0 0 0 0 0 0 0 0 0 0 0 0 0 0 0
0 0 0 0 0 0 0 0 0 0 0 0 0 0 0 0 0 0 0 0 0 0 0 0 0 0 0 0 0 0 0 0 0 0 0 0 0 0 0 0 0 0 0 0 0 0 0 0 0 0 0 0 0 0 0 0 0 0 0 0 0 0 0 0 0 0 0 0 0 0 0 0 0 0 0 0 0 0 0 0 0 0 0 0 0 0 0 0 0 0 0 0 0 0 0 0 0 0 0 0 0 0 0 0 0 0 0 0 0 0 0 0 0 0 0 0 0 0 0 0 0 0 0 0 0 0 0 0 0 0 0 0 0 0 0 0 0 0 0 0 0 0 0 0 0 0 0 0 0 0 0 0 0 0 0 0 0 0 0 0 0 0 0 0 0 0 0 0 0 0 0 0 0 0 0 0 0 0 0 0 0 0 0 0 0 0 0 0 0 0 0 0 0 0 0 0 0 0 0 0 0 0 0 0 0 0 0 0 0 0 0 0 0 0 0 0 0 0 0 0 0 0 0 0 0 0 0 0 0 0 0 0 0 0 0 0 0 0 0 0 0 0 0 0 0 0 0 0 0 0 0 0 0 0 0 0 0 0 0 0 0 0 0 0 0 0 0 0 0 0 0 0 0 0 0 0 0 0 0 0 0 0 0 0 0 0 0 0 0 0 0 0 0 0 0 0 0 0 0 0 0 0 0 0 0 0 0 0 0 0 0 0 0 0 0 0 0 0 0 0 0 0 0 0 0 0 0 0 0 0 0 0 0 0 0 0 0 0 0 0 0 0 0 0 0 0 0 0 0 0 0 0 0 0 0 0 0 0 0 0 0 0 0 0 0 0 0 0 0 0 0 0 0 0 0 0 0 0 0 0 0 0 0 0 0 0 0 0 0 0 0 0 0 0 0 0 0 0 0 0 0 0 0 0 0 0 0 0 0 0 0 0 0 0 0 0 0 0 0 0 0 0 0 0 0 0 0 0 0 0 0 0 0 0 0 0 0 0 0 0 0 0 0 0 0 0 0 0 0 0 0 0 0 0 0 0 0 0 0 0 0 0 0 0 0 0 0 0 0 0 0 0 0 0 0 0 0 0 0 0 0 0 0 0 0 0 0 0 0 0 0 0 0 0 0 0 0 0 0 0 0 0 0 0 0 0 0 0 0 0 0 0 0 0 0 0 0 0 0 0 0 0 0 0 0 0 0 0 0 0 0 0 0 0 0 0 0 0 0 0 0 0 0 0 0 0 0 0 0 0 0 0 0 0 0 0 0 0 0 0 0 0 0 0 0 0 0 0 0 0 0 0 0 0 0 0 0 0 0 0 0 0 0 0 0 0 0 0 0 0 0 0 0 0 0 0 0 0 0 0 0 0 0 0 0 0 0 0 0 0 0 0 0 0 0 0 0 0 0 0 0 0 0 0 0 0 0 0 0 0 0 0 0 0 0 0 0 0 0 0 0 0 0 0 0 0 0 0 0 0 0 0 0 0 0 0 0 0 0 0 0 0 0 0 0 0 0 0 0 0 0 0 0 0 0 0 0 0 0 0 0 0 0 0 0 0 0 0 0 0 0 0 0 0 0 0 0 0 0 0 0 0 0 0 0 0 0 0 0 0 0 0 0 0 0 0 0 0 0 0
0 0 0 0 0 0 0 0 0 0 0 0 0 0 0 0 0 0 0 0 0 0 0 0 0 0 0 0 0 0 0 0 0 0 0 0 0 0 0 0 0 0 0 0 0 0 0 0 0 0 0 0 0 0 0 0 0 0 0 0 0 0 0 0 0 0 0 0 0 0 0 0 0 0 0 0 0 0 0 0 0 0 0 0 0 0 0 0 0 0 0 0 0 0 0 0 0 0 0 0 0 0 0 0 0 0 0 0 0 0 0 0 0 0 0 0 0 0 0 0 0 0 0 0 0 0 0 0 0 0 0 0 0 0 0 0 0 0 0 0 0 0 0 0 0 0 0 0 0 0 0 0 0 0 0 0 0 0 0 0 0 0 0 0 0 0 0 0 0 0 0 0 0 0 0 0 0 0 0 0 0 0 0 0 0 0 0 0 0 0 0 0 0 0 0 0 0 0 0 0 0 0 0 0 0 0 0 0 0 0 0 0 0 0 0 0 0 0 0 0 0 0 0 0 0 0 0 0 0 0 0 0 0 0 0 0 0 0 0 0 0 0 0 0 0 0 0 0 0 0 0 0 0 0 0 0 0 0 0 0 0 0 0 0 0 0 0 0 0 0 0 0 0 0 0 0 0 0 0 0 0 0 0 0 0 0 0 0 0 0 0 0 0 0 0 0 0 0 0 0 0 0 0 0 0 0 0 0 0 0 0 0 0 0 0 0 0 0 0 0 0 0 0 0 0 0 0 0 0 0 0 0 0 0 0 0 0 0 0 0 0 0 0 0 0 0 0 0 0 0 0 0 0 0 0 0 0 0 0 0 0 0 0 0 0 0 0 0 0 0 0 0 0 0 0 0 0 0 0 0 0 0 0 0 0 0 0 0 0 0 0 0 0 0 0 0 0 0 0 0 0 0 0 0 0 0 0 0 0 0 0 0 0 0 0 0 0 0 0 0 0 0 0 0 0 0 0 0 0 0 0 0 0 0 0 0 0 0 0 0 0 0 0 0 0 0 0 0 0 0 0 0 0 0 0 0 0 0 0 0 0 0 0 0 0 0 0 0 0 0 0 0 0 0 0 0 0 0 0 0 0 0 0 0 0 0 0 0 0 0 0 0 0 0 0 0 0 0 0 0 0 0 0 0 0 0 0 0 0 0 0 0 0 0 0 0 0 0 0 0 0 0 0 0 0 0 0 0 0 0 0 0 0 0 0 0 0 0 0 0 0 0 0 0 0 0 0 0 0 0 0 0 0 0 0 0 0 0 0 0 0 0 0 0 0 0 0 0 0 0 0 0 0 0 0 0 0 0 0 0 0 0 0 0 0 0 0 0 0 0 0 0 0 0 0 0 0 0 0 0 0 0 0 0 0 0 0 0 0 0 0 0 0 0 0 0 0 0 0 0 0 0 0 0 0 0 0 0 0 0 0 0 0 0 0 0 0 0 0 0 0 0 0 0 0 0 0 0 0 0 0 0 0 0 0 0 0 0 0 0 0 0 0 0 0 0 0 0 0 0 0 0 0 0 0 0 0 0 0 0 0 0 0 0 0 0 0 0 0 0 0 0 0 0 0 0 0 0 0 0 0 0 0 0 0 0 0 0 0 0 0 0 0 0 0 0 0 0 0 0
0 0 0 0 0 0 0 0 0 0 0 0 0 0 0 0 0 0 0 0 0 0 0 0 0 0 0 0 0 0 0 0 0 0 0 0 0 0 0 0 0 0 0 0 0 0 0 0 0 0 0 0 0 0 0 0 0 0 0 0 0 0 0 0 0 0 0 0 0 0 0 0 0 0 0 0 0 0 0 0 0 0 0 0 0 0 0 0 0 0 0 0 0 0 0 0 0 0 0 0 0 0 0 0 0 0 0 0 0 0 0 0 0 0 0 0 0 0 0 0 0 0 0 0 0 0 0 0 0 0 0 0 0 0 0 0 0 0 0 0 0 0 0 0 0 0 0 0 0 0 0 0 0 0 0 0 0 0 0 0 0 0 0 0 0 0 0 0 0 0 0 0 0 0 0 0 0 0 0 0 0 0 0 0 0 0 0 0 0 0 0 0 0 0 0 0 0 0 0 0 0 0 0 0 0 0 0 0 0 0 0 0 0 0 0 0 0 0 0 0 0 0 0 0 0 0 0 0 0 0 0 0 0 0 0 0 0 0 0 0 0 0 0 0 0 0 0 0 0 0 0 0 0 0 0 0 0 0 0 0 0 0 0 0 0 0 0 0 0 0 0 0 0 0 0 0 0 0 0 0 0 0 0 0 0 0 0 0 0 0 0 0 0 0 0 0 0 0 0 0 0 0 0 0 0 0 0 0 0 0 0 0 0 0 0 0 0 0 0 0 0 0 0 0 0 0 0 0 0 0 0 0 0 0 0 0 0 0 0 0 0 0 0 0 0 0 0 0 0 0 0 0 0 0 0 0 0 0 0 0 0 0 0 0 0 0 0 0 0 0 0 0 0 0 0 0 0 0 0 0 0 0 0 0 0 0 0 0 0 0 0 0 0 0 0 0 0 0 0 0 0 0 0 0 0 0 0 0 0 0 0 0 0 0 0 0 0 0 0 0 0 0 0 0 0 0 0 0 0 0 0 0 0 0 0 0 0 0 0 0 0 0 0 0 0 0 0 0 0 0 0 0 0 0 0 0 0 0 0 0 0 0 0 0 0 0 0 0 0 0 0 0 0 0 0 0 0 0 0 0 0 0 0 0 0 0 0 0 0 0 0 0 0 0 0 0 0 0 0 0 0 0 0 0 0 0 0 0 0 0 0 0 0 0 0 0 0 0 0 0 0 0 0 0 0 0 0 0 0 0 0 0 0 0 0 0 0 0 0 0 0 0 0 0 0 0 0 0 0 0 0 0 0 0 0 0 0 0 0 0 0 0 0 0 0 0 0 0 0 0 0 0 0 0 0 0 0 0 0 0 0 0 0 0 0 0 0 0 0 0 0 0 0 0 0 0 0 0 0 0 0 0 0 0 0 0 0 0 0 0 0 0 0 0 0 0 0 0 0 0 0 0 0 0 0 0 0 0 0 0 0 0 0 0 0 0 0 0 0 0 0 0 0 0 0 0 0 0 0 0 0 0 0 0 0 0 0 0 0 0 0 0 0 0 0 0 0 0 0 0 0 0 0 0 0 0 0 0 0 0 0 0 0 0 0 0 0 0 0 0 0 0 0 0 0 0 0 0 0 0 0 0 0 0 0 0 0 0 0 0 0 0 0 0 0 0 0 0 0 0
0 0 0 0 0 0 0 0 0 0 0 0 0 0 0 0 0 0 0 0 0 0 0 0 0 0 0 0 0 0 0 0 0 0 0 0 0 0 0 0 0 0 0 0 0 0 0 0 0 0 0 0 0 0 0 0 0 0 0 0 0 0 0 0 0 0 0 0 0 0 0 0 0 0 0 0 0 0 0 0 0 0 0 0 0 0 0 0 0 0 0 0 0 0 0 0 0 0 0 0 0 0 0 0 0 0 0 0 0 0 0 0 0 0 0 0 0 0 0 0 0 0 0 0 0 0 0 0 0 0 0 0 0 0 0 0 0 0 0 0 0 0 0 0 0 0 0 0 0 0 0 0 0 0 0 0 0 0 0 0 0 0 0 0 0 0 0 0 0 0 0 0 0 0 0 0 0 0 0 0 0 0 0 0 0 0 0 0 0 0 0 0 0 0 0 0 0 0 0 0 0 0 0 0 0 0 0 0 0 0 0 0 0 0 0 0 0 0 0 0 0 0 0 0 0 0 0 0 0 0 0 0 0 0 0 0 0 0 0 0 0 0 0 0 0 0 0 0 0 0 0 0 0 0 0 0 0 0 0 0 0 0 0 0 0 0 0 0 0 0 0 0 0 0 0 0 0 0 0 0 0 0 0 0 0 0 0 0 0 0 0 0 0 0 0 0 0 0 0 0 0 0 0 0 0 0 0 0 0 0 0 0 0 0 0 0 0 0 0 0 0 0 0 0 0 0 0 0 0 0 0 0 0 0 0 0 0 0 0 0 0 0 0 0 0 0 0 0 0 0 0 0 0 0 0 0 0 0 0 0 0 0 0 0 0 0 0 0 0 0 0 0 0 0 0 0 0 0 0 0 0 0 0 0 0 0 0 0 0 0 0 0 0 0 0 0 0 0 0 0 0 0 0 0 0 0 0 0 0 0 0 0 0 0 0 0 0 0 0 0 0 0 0 0 0 0 0 0 0 0 0 0 0 0 0 0 0 0 0 0 0 0 0 0 0 0 0 0 0 0 0 0 0 0 0 0 0 0 0 0 0 0 0 0 0 0 0 0 0 0 0 0 0 0 0 0 0 0 0 0 0 0 0 0 0 0 0 0 0 0 0 0 0 0 0 0 0 0 0 0 0 0 0 0 0 0 0 0 0 0 0 0 0 0 0 0 0 0 0 0 0 0 0 0 0 0 0 0 0 0 0 0 0 0 0 0 0 0 0 0 0 0 0 0 0 0 0 0 0 0 0 0 0 0 0 0 0 0 0 0 0 0 0 0 0 0 0 0 0 0 0 0 0 0 0 0 0 0 0 0 0 0 0 0 0 0 0 0 0 0 0 0 0 0 0 0 0 0 0 0 0 0 0 0 0 0 0 0 0 0 0 0 0 0 0 0 0 0 0 0 0 0 0 0 0 0 0 0 0 0 0 0 0 0 0 0 0 0 0 0 0 0 0 0 0 0 0 0 0 0 0 0 0 0 0 0 0 0 0 0 0 0 0 0 0 0 0 0 0 0 0 0 0 0 0 0 0 0 0 0 0 0 0 0 0 0 0 0 0 0 0 0 0 0 0 0 0 0 0 0 0 0 0 0 0 0 0 0 0 0 0 0 0 0 0 0 0 0 0 0
0 0 0 0 0 0 0 0 0 0 0 0 0 0 0 0 0 0 0 0 0 0 0 0 0 0 0 0 0 0 0 0 0 0 0 0 0 0 0 0 0 0 0 0 0 0 0 0 0 0 0 0 0 0 0 0 0 0 0 0 0 0 0 0 0 0 0 0 0 0 0 0 0 0 0 0 0 0 0 0 0 0 0 0 0 0 0 0 0 0 0 0 0 0 0 0 0 0 0 0 0 0 0 0 0 0 0 0 0 0 0 0 0 0 0 0 0 0 0 0 0 0 0 0 0 0 0 0 0 0 0 0 0 0 0 0 0 0 0 0 0 0 0 0 0 0 0 0 0 0 0 0 0 0 0 0 0 0 0 0 0 0 0 0 0 0 0 0 0 0 0 0 0 0 0 0 0 0 0 0 0 0 0 0 0 0 0 0 0 0 0 0 0 0 0 0 0 0 0 0 0 0 0 0 0 0 0 0 0 0 0 0 0 0 0 0 0 0 0 0 0 0 0 0 0 0 0 0 0 0 0 0 0 0 0 0 0 0 0 0 0 0 0 0 0 0 0 0 0 0 0 0 0 0 0 0 0 0 0 0 0 0 0 0 0 0 0 0 0 0 0 0 0 0 0 0 0 0 0 0 0 0 0 0 0 0 0 0 0 0 0 0 0 0 0 0 0 0 0 0 0 0 0 0 0 0 0 0 0 0 0 0 0 0 0 0 0 0 0 0 0 0 0 0 0 0 0 0 0 0 0 0 0 0 0 0 0 0 0 0 0 0 0 0 0 0 0 0 0 0 0 0 0 0 0 0 0 0 0 0 0 0 0 0 0 0 0 0 0 0 0 0 0 0 0 0 0 0 0 0 0 0 0 0 0 0 0 0 0 0 0 0 0 0 0 0 0 0 0 0 0 0 0 0 0 0 0 0 0 0 0 0 0 0 0 0 0 0 0 0 0 0 0 0 0 0 0 0 0 0 0 0 0 0 0 0 0 0 0 0 0 0 0 0 0 0 0 0 0 0 0 0 0 0 0 0 0 0 0 0 0 0 0 0 0 0 0 0 0 0 0 0 0 0 0 0 0 0 0 0 0 0 0 0 0 0 0 0 0 0 0 0 0 0 0 0 0 0 0 0 0 0 0 0 0 0 0 0 0 0 0 0 0 0 0 0 0 0 0 0 0 0 0 0 0 0 0 0 0 0 0 0 0 0 0 0 0 0 0 0 0 0 0 0 0 0 0 0 0 0 0 0 0 0 0 0 0 0 0 0 0 0 0 0 0 0 0 0 0 0 0 0 0 0 0 0 0 0 0 0 0 0 0 0 0 0 0 0 0 0 0 0 0 0 0 0 0 0 0 0 0 0 0 0 0 0 0 0 0 0 0 0 0 0 0 0 0 0 0 0 0 0 0 0 0 0 0 0 0 0 0 0 0 0 0 0 0 0 0 0 0 0 0 0 0 0 0 0 0 0 0 0 0 0 0 0 0 0 0 0 0 0 0 0 0 0 0 0 0 0 0 0 0 0 0 0 0 0 0 0 0 0 0 0 0 0 0 0 0 0 0 0 0 0 0 0 0 0 0 0 0 0 0 0 0 0 0 0 0 0 0 0 0 0 0 0 0 0 0 0
0 0 0 0 0 0 0 0 0 0 0 0 0 0 0 0 0 0 0 0 0 0 0 0 0 0 0 0 0 0 0 0 0 0 0 0 0 0 0 0 0 0 0 0 0 0 0 0 0 0 0 0 0 0 0 0 0 0 0 0 0 0 0 0 0 0 0 0 0 0 0 0 0 0 0 0 0 0 0 0 0 0 0 0 0 0 0 0 0 0 0 0 0 0 0 0 0 0 0 0 0 0 0 0 0 0 0 0 0 0 0 0 0 0 0 0 0 0 0 0 0 0 0 0 0 0 0 0 0 0 0 0 0 0 0 0 0 0 0 0 0 0 0 0 0 0 0 0 0 0 0 0 0 0 0 0 0 0 0 0 0 0 0 0 0 0 0 0 0 0 0 0 0 0 0 0 0 0 0 0 0 0 0 0 0 0 0 0 0 0 0 0 0 0 0 0 0 0 0 0 0 0 0 0 0 0 0 0 0 0 0 0 0 0 0 0 0 0 0 0 0 0 0 0 0 0 0 0 0 0 0 0 0 0 0 0 0 0 0 0 0 0 0 0 0 0 0 0 0 0 0 0 0 0 0 0 0 0 0 0 0 0 0 0 0 0 0 0 0 0 0 0 0 0 0 0 0 0 0 0 0 0 0 0 0 0 0 0 0 0 0 0 0 0 0 0 0 0 0 0 0 0 0 0 0 0 0 0 0 0 0 0 0 0 0 0 0 0 0 0 0 0 0 0 0 0 0 0 0 0 0 0 0 0 0 0 0 0 0 0 0 0 0 0 0 0 0 0 0 0 0 0 0 0 0 0 0 0 0 0 0 0 0 0 0 0 0 0 0 0 0 0 0 0 0 0 0 0 0 0 0 0 0 0 0 0 0 0 0 0 0 0 0 0 0 0 0 0 0 0 0 0 0 0 0 0 0 0 0 0 0 0 0 0 0 0 0 0 0 0 0 0 0 0 0 0 0 0 0 0 0 0 0 0 0 0 0 0 0 0 0 0 0 0 0 0 0 0 0 0 0 0 0 0 0 0 0 0 0 0 0 0 0 0 0 0 0 0 0 0 0 0 0 0 0 0 0 0 0 0 0 0 0 0 0 0 0 0 0 0 0 0 0 0 0 0 0 0 0 0 0 0 0 0 0 0 0 0 0 0 0 0 0 0 0 0 0 0 0 0 0 0 0 0 0 0 0 0 0 0 0 0 0 0 0 0 0 0 0 0 0 0 0 0 0 0 0 0 0 0 0 0 0 0 0 0 0 0 0 0 0 0 0 0 0 0 0 0 0 0 0 0 0 0 0 0 0 0 0 0 0 0 0 0 0 0 0 0 0 0 0 0 0 0 0 0 0 0 0 0 0 0 0 0 0 0 0 0 0 0 0 0 0 0 0 0 0 0 0 0 0 0 0 0 0 0 0 0 0 0 0 0 0 0 0 0 0 0 0 0 0 0 0 0 0 0 0 0 0 0 0 0 0 0 0 0 0 0 0 0 0 0 0 0 0 0 0 0 0 0 0 0 0 0 0 0 0 0 0 0 0 0 0 0 0 0 0 0 0 0 0 0 0 0 0 0 0 0 0 0 0 0 0 0 0 0 0 0 0 0 0 0 0 0 0 0 0 0 0 0
0 0 0 0 0 0 0 0 0 0 0 0 0 0 0 0 0 0 0 0 0 0 0 0 0 0 0 0 0 0 0 0 0 0 0 0 0 0 0 0 0 0 0 0 0 0 0 0 0 0 0 0 0 0 0 0 0 0 0 0 0 0 0 0 0 0 0 0 0 0 0 0 0 0 0 0 0 0 0 0 0 0 0 0 0 0 0 0 0 0 0 0 0 0 0 0 0 0 0 0 0 0 0 0 0 0 0 0 0 0 0 0 0 0 0 0 0 0 0 0 0 0 0 0 0 0 0 0 0 0 0 0 0 0 0 0 0 0 0 0 0 0 0 0 0 0 0 0 0 0 0 0 0 0 0 0 0 0 0 0 0 0 0 0 0 0 0 0 0 0 0 0 0 0 0 0 0 0 0 0 0 0 0 0 0 0 0 0 0 0 0 0 0 0 0 0 0 0 0 0 0 0 0 0 0 0 0 0 0 0 0 0 0 0 0 0 0 0 0 0 0 0 0 0 0 0 0 0 0 0 0 0 0 0 0 0 0 0 0 0 0 0 0 0 0 0 0 0 0 0 0 0 0 0 0 0 0 0 0 0 0 0 0 0 0 0 0 0 0 0 0 0 0 0 0 0 0 0 0 0 0 0 0 0 0 0 0 0 0 0 0 0 0 0 0 0 0 0 0 0 0 0 0 0 0 0 0 0 0 0 0 0 0 0 0 0 0 0 0 0 0 0 0 0 0 0 0 0 0 0 0 0 0 0 0 0 0 0 0 0 0 0 0 0 0 0 0 0 0 0 0 0 0 0 0 0 0 0 0 0 0 0 0 0 0 0 0 0 0 0 0 0 0 0 0 0 0 0 0 0 0 0 0 0 0 0 0 0 0 0 0 0 0 0 0 0 0 0 0 0 0 0 0 0 0 0 0 0 0 0 0 0 0 0 0 0 0 0 0 0 0 0 0 0 0 0 0 0 0 0 0 0 0 0 0 0 0 0 0 0 0 0 0 0 0 0 0 0 0 0 0 0 0 0 0 0 0 0 0 0 0 0 0 0 0 0 0 0 0 0 0 0 0 0 0 0 0 0 0 0 0 0 0 0 0 0 0 0 0 0 0 0 0 0 0 0 0 0 0 0 0 0 0 0 0 0 0 0 0 0 0 0 0 0 0 0 0 0 0 0 0 0 0 0 0 0 0 0 0 0 0 0 0 0 0 0 0 0 0 0 0 0 0 0 0 0 0 0 0 0 0 0 0 0 0 0 0 0 0 0 0 0 0 0 0 0 0 0 0 0 0 0 0 0 0 0 0 0 0 0 0 0 0 0 0 0 0 0 0 0 0 0 0 0 0 0 0 0 0 0 0 0 0 0 0 0 0 0 0 0 0 0 0 0 0 0 0 0 0 0 0 0 0 0 0 0 0 0 0 0 0 0 0 0 0 0 0 0 0 0 0 0 0 0 0 0 0 0 0 0 0 0 0 0 0 0 0 0 0 0 0 0 0 0 0 0 0 0 0 0 0 0 0 0 0 0 0 0 0 0 0 0 0 0 0 0 0 0 0 0 0 0 0 0 0 0 0 0 0 0 0 0 0 0 0 0 0 0 0 0 0 0 0 0 0 0 0 0 0 0
0 0 0 0 0 0 0 0 0 0 0 0 0 0 0 0 0 0 0 0 0 0 0 0 0 0 0 0 0 0 0 0 0 0 0 0 0 0 0 0 0 0 0 0 0 0 0 0 0 0 0 0 0 0 0 0 0 0 0 0 0 0 0 0 0 0 0 0 0 0 0 0 0 0 0 0 0 0 0 0 0 0 0 0 0 0 0 0 0 0 0 0 0 0 0 0 0 0 0 0 0 0 0 0 0 0 0 0 0 0 0 0 0 0 0 0 0 0 0 0 0 0 0 0 0 0 0 0 0 0 0 0 0 0 0 0 0 0 0 0 0 0 0 0 0 0 0 0 0 0 0 0 0 0 0 0 0 0 0 0 0 0 0 0 0 0 0 0 0 0 0 0 0 0 0 0 0 0 0 0 0 0 0 0 0 0 0 0 0 0 0 0 0 0 0 0 0 0 0 0 0 0 0 0 0 0 0 0 0 0 0 0 0 0 0 0 0 0 0 0 0 0 0 0 0 0 0 0 0 0 0 0 0 0 0 0 0 0 0 0 0 0 0 0 0 0 0 0 0 0 0 0 0 0 0 0 0 0 0 0 0 0 0 0 0 0 0 0 0 0 0 0 0 0 0 0 0 0 0 0 0 0 0 0 0 0 0 0 0 0 0 0 0 0 0 0 0 0 0 0 0 0 0 0 0 0 0 0 0 0 0 0 0 0 0 0 0 0 0 0 0 0 0 0 0 0 0 0 0 0 0 0 0 0 0 0 0 0 0 0 0 0 0 0 0 0 0 0 0 0 0 0 0 0 0 0 0 0 0 0 0 0 0 0 0 0 0 0 0 0 0 0 0 0 0 0 0 0 0 0 0 0 0 0 0 0 0 0 0 0 0 0 0 0 0 0 0 0 0 0 0 0 0 0 0 0 0 0 0 0 0 0 0 0 0 0 0 0 0 0 0 0 0 0 0 0 0 0 0 0 0 0 0 0 0 0 0 0 0 0 0 0 0 0 0 0 0 0 0 0 0 0 0 0 0 0 0 0 0 0 0 0 0 0 0 0 0 0 0 0 0 0 0 0 0 0 0 0 0 0 0 0 0 0 0 0 0 0 0 0 0 0 0 0 0 0 0 0 0 0 0 0 0 0 0 0 0 0 0 0 0 0 0 0 0 0 0 0 0 0 0 0 0 0 0 0 0 0 0 0 0 0 0 0 0 0 0 0 0 0 0 0 0 0 0 0 0 0 0 0 0 0 0 0 0 0 0 0 0 0 0 0 0 0 0 0 0 0 0 0 0 0 0 0 0 0 0 0 0 0 0 0 0 0 0 0 0 0 0 0 0 0 0 0 0 0 0 0 0 0 0 0 0 0 0 0 0 0 0 0 0 0 0 0 0 0 0 0 0 0 0 0 0 0 0 0 0 0 0 0 0 0 0 0 0 0 0 0 0 0 0 0 0 0 0 0 0 0 0 0 0 0 0 0 0 0 0 0 0 0 0 0 0 0 0 0 0 0 0 0 0 0 0 0 0 0 0 0 0 0 0 0 0 0 0 0 0 0 0 0 0 0 0 0 0 0 0 0 0 0 0 0 0 0 0 0 0 0 0 0 0 0 0 0 0 0 0 0 0 0
0 0 0 0 0 0 0 0 0 0 0 0 0 0 0 0 0 0 0 0 0 0 0 0 0 0 0 0 0 0 0 0 0 0 0 0 0 0 0 0 0 0 0 0 0 0 0 0 0 0 0 0 0 0 0 0 0 0 0 0 0 0 0 0 0 0 0 0 0 0 0 0 0 0 0 0 0 0 0 0 0 0 0 0 0 0 0 0 0 0 0 0 0 0 0 0 0 0 0 0 0 0 0 0 0 0 0 0 0 0 0 0 0 0 0 0 0 0 0 0 0 0 0 0 0 0 0 0 0 0 0 0 0 0 0 0 0 0 0 0 0 0 0 0 0 0 0 0 0 0 0 0 0 0 0 0 0 0 0 0 0 0 0 0 0 0 0 0 0 0 0 0 0 0 0 0 0 0 0 0 0 0 0 0 0 0 0 0 0 0 0 0 0 0 0 0 0 0 0 0 0 0 0 0 0 0 0 0 0 0 0 0 0 0 0 0 0 0 0 0 0 0 0 0 0 0 0 0 0 0 0 0 0 0 0 0 0 0 0 0 0 0 0 0 0 0 0 0 0 0 0 0 0 0 0 0 0 0 0 0 0 0 0 0 0 0 0 0 0 0 0 0 0 0 0 0 0 0 0 0 0 0 0 0 0 0 0 0 0 0 0 0 0 0 0 0 0 0 0 0 0 0 0 0 0 0 0 0 0 0 0 0 0 0 0 0 0 0 0 0 0 0 0 0 0 0 0 0 0 0 0 0 0 0 0 0 0 0 0 0 0 0 0 0 0 0 0 0 0 0 0 0 0 0 0 0 0 0 0 0 0 0 0 0 0 0 0 0 0 0 0 0 0 0 0 0 0 0 0 0 0 0 0 0 0 0 0 0 0 0 0 0 0 0 0 0 0 0 0 0 0 0 0 0 0 0 0 0 0 0 0 0 0 0 0 0 0 0 0 0 0 0 0 0 0 0 0 0 0 0 0 0 0 0 0 0 0 0 0 0 0 0 0 0 0 0 0 0 0 0 0 0 0 0 0 0 0 0 0 0 0 0 0 0 0 0 0 0 0 0 0 0 0 0 0 0 0 0 0 0 0 0 0 0 0 0 0 0 0 0 0 0 0 0 0 0 0 0 0 0 0 0 0 0 0 0 0 0 0 0 0 0 0 0 0 0 0 0 0 0 0 0 0 0 0 0 0 0 0 0 0 0 0 0 0 0 0 0 0 0 0 0 0 0 0 0 0 0 0 0 0 0 0 0 0 0 0 0 0 0 0 0 0 0 0 0 0 0 0 0 0 0 0 0 0 0 0 0 0 0 0 0 0 0 0 0 0 0 0 0 0 0 0 0 0 0 0 0 0 0 0 0 0 0 0 0 0 0 0 0 0 0 0 0 0 0 0 0 0 0 0 0 0 0 0 0 0 0 0 0 0 0 0 0 0 0 0 0 0 0 0 0 0 0 0 0 0 0 0 0 0 0 0 0 0 0 0 0 0 0 0 0 0 0 0 0 0 0 0 0 0 0 0 0 0 0 0 0 0 0 0 0 0 0 0 0 0 0 0 0 0 0 0 0 0 0 0 0 0 0 0 0 0 0 0 0 0 0 0 0 0 0 0 0 0 0 0 0 0 0
0 0 0 0 0 0 0 0 0 0 0 0 0 0 0 0 0 0 0 0 0 0 0 0 0 0 0 0 0 0 0 0 0 0 0 0 0 0 0 0 0 0 0 0 0 0 0 0 0 0 0 0 0 0 0 0 0 0 0 0 0 0 0 0 0 0 0 0 0 0 0 0 0 0 0 0 0 0 0 0 0 0 0 0 0 0 0 0 0 0 0 0 0 0 0 0 0 0 0 0 0 0 0 0 0 0 0 0 0 0 0 0 0 0 0 0 0 0 0 0 0 0 0 0 0 0 0 0 0 0 0 0 0 0 0 0 0 0 0 0 0 0 0 0 0 0 0 0 0 0 0 0 0 0 0 0 0 0 0 0 0 0 0 0 0 0 0 0 0 0 0 0 0 0 0 0 0 0 0 0 0 0 0 0 0 0 0 0 0 0 0 0 0 0 0 0 0 0 0 0 0 0 0 0 0 0 0 0 0 0 0 0 0 0 0 0 0 0 0 0 0 0 0 0 0 0 0 0 0 0 0 0 0 0 0 0 0 0 0 0 0 0 0 0 0 0 0 0 0 0 0 0 0 0 0 0 0 0 0 0 0 0 0 0 0 0 0 0 0 0 0 0 0 0 0 0 0 0 0 0 0 0 0 0 0 0 0 0 0 0 0 0 0 0 0 0 0 0 0 0 0 0 0 0 0 0 0 0 0 0 0 0 0 0 0 0 0 0 0 0 0 0 0 0 0 0 0 0 0 0 0 0 0 0 0 0 0 0 0 0 0 0 0 0 0 0 0 0 0 0 0 0 0 0 0 0 0 0 0 0 0 0 0 0 0 0 0 0 0 0 0 0 0 0 0 0 0 0 0 0 0 0 0 0 0 0 0 0 0 0 0 0 0 0 0 0 0 0 0 0 0 0 0 0 0 0 0 0 0 0 0 0 0 0 0 0 0 0 0 0 0 0 0 0 0 0 0 0 0 0 0 0 0 0 0 0 0 0 0 0 0 0 0 0 0 0 0 0 0 0 0 0 0 0 0 0 0 0 0 0 0 0 0 0 0 0 0 0 0 0 0 0 0 0 0 0 0 0 0 0 0 0 0 0 0 0 0 0 0 0 0 0 0 0 0 0 0 0 0 0 0 0 0 0 0 0 0 0 0 0 0 0 0 0 0 0 0 0 0 0 0 0 0 0 0 0 0 0 0 0 0 0 0 0 0 0 0 0 0 0 0 0 0 0 0 0 0 0 0 0 0 0 0 0 0 0 0 0 0 0 0 0 0 0 0 0 0 0 0 0 0 0 0 0 0 0 0 0 0 0 0 0 0 0 0 0 0 0 0 0 0 0 0 0 0 0 0 0 0 0 0 0 0 0 0 0 0 0 0 0 0 0 0 0 0 0 0 0 0 0 0 0 0 0 0 0 0 0 0 0 0 0 0 0 0 0 0 0 0 0 0 0 0 0 0 0 0 0 0 0 0 0 0 0 0 0 0 0 0 0 0 0 0 0 0 0 0 0 0 0 0 0 0 0 0 0 0 0 0 0 0 0 0 0 0 0 0 0 0 0 0 0 0 0 0 0 0 0 0 0 0 0 0 0 0 0 0 0 0 0 0 0 0 0 0 0 0 0 0 0
0 0 0 0 0 0 0 0 0 0 0 0 0 0 0 0 0 0 0 0 0 0 0 0 0 0 0 0 0 0 0 0 0 0 0 0 0 0 0 0 0 0 0 0 0 0 0 0 0 0 0 0 0 0 0 0 0 0 0 0 0 0 0 0 0 0 0 0 0 0 0 0 0 0 0 0 0 0 0 0 0 0 0 0 0 0 0 0 0 0 0 0 0 0 0 0 0 0 0 0 0 0 0 0 0 0 0 0 0 0 0 0 0 0 0 0 0 0 0 0 0 0 0 0 0 0 0 0 0 0 0 0 0 0 0 0 0 0 0 0 0 0 0 0 0 0 0 0 0 0 0 0 0 0 0 0 0 0 0 0 0 0 0 0 0 0 0 0 0 0 0 0 0 0 0 0 0 0 0 0 0 0 0 0 0 0 0 0 0 0 0 0 0 0 0 0 0 0 0 0 0 0 0 0 0 0 0 0 0 0 0 0 0 0 0 0 0 0 0 0 0 0 0 0 0 0 0 0 0 0 0 0 0 0 0 0 0 0 0 0 0 0 0 0 0 0 0 0 0 0 0 0 0 0 0 0 0 0 0 0 0 0 0 0 0 0 0 0 0 0 0 0 0 0 0 0 0 0 0 0 0 0 0 0 0 0 0 0 0 0 0 0 0 0 0 0 0 0 0 0 0 0 0 0 0 0 0 0 0 0 0 0 0 0 0 0 0 0 0 0 0 0 0 0 0 0 0 0 0 0 0 0 0 0 0 0 0 0 0 0 0 0 0 0 0 0 0 0 0 0 0 0 0 0 0 0 0 0 0 0 0 0 0 0 0 0 0 0 0 0 0 0 0 0 0 0 0 0 0 0 0 0 0 0 0 0 0 0 0 0 0 0 0 0 0 0 0 0 0 0 0 0 0 0 0 0 0 0 0 0 0 0 0 0 0 0 0 0 0 0 0 0 0 0 0 0 0 0 0 0 0 0 0 0 0 0 0 0 0 0 0 0 0 0 0 0 0 0 0 0 0 0 0 0 0 0 0 0 0 0 0 0 0 0 0 0 0 0 0 0 0 0 0 0 0 0 0 0 0 0 0 0 0 0 0 0 0 0 0 0 0 0 0 0 0 0 0 0 0 0 0 0 0 0 0 0 0 0 0 0 0 0 0 0 0 0 0 0 0 0 0 0 0 0 0 0 0 0 0 0 0 0 0 0 0 0 0 0 0 0 0 0 0 0 0 0 0 0 0 0 0 0 0 0 0 0 0 0 0 0 0 0 0 0 0 0 0 0 0 0 0 0 0 0 0 0 0 0 0 0 0 0 0 0 0 0 0 0 0 0 0 0 0 0 0 0 0 0 0 0 0 0 0 0 0 0 0 0 0 0 0 0 0 0 0 0 0 0 0 0 0 0 0 0 0 0 0 0 0 0 0 0 0 0 0 0 0 0 0 0 0 0 0 0 0 0 0 0 0 0 0 0 0 0 0 0 0 0 0 0 0 0 0 0 0 0 0 0 0 0 0 0 0 0 0 0 0 0 0 0 0 0 0 0 0 0 0 0 0 0 0 0 0 0 0 0 0 0 0 0 0 0 0 0 0 0 0 0 0 0 0 0 0 0 0 0 0 0 0 0
0 0 0 0 0 0 0 0 0 0 0 0 0 0 0 0 0 0 0 0 0 0 0 0 0 0 0 0 0 0 0 0 0 0 0 0 0 0 0 0 0 0 0 0 0 0 0 0 0 0 0 0 0 0 0 0 0 0 0 0 0 0 0 0 0 0 0 0 0 0 0 0 0 0 0 0 0 0 0 0 0 0 0 0 0 0 0 0 0 0 0 0 0 0 0 0 0 0 0 0 0 0 0 0 0 0 0 0 0 0 0 0 0 0 0 0 0 0 0 0 0 0 0 0 0 0 0 0 0 0 0 0 0 0 0 0 0 0 0 0 0 0 0 0 0 0 0 0 0 0 0 0 0 0 0 0 0 0 0 0 0 0 0 0 0 0 0 0 0 0 0 0 0 0 0 0 0 0 0 0 0 0 0 0 0 0 0 0 0 0 0 0 0 0 0 0 0 0 0 0 0 0 0 0 0 0 0 0 0 0 0 0 0 0 0 0 0 0 0 0 0 0 0 0 0 0 0 0 0 0 0 0 0 0 0 0 0 0 0 0 0 0 0 0 0 0 0 0 0 0 0 0 0 0 0 0 0 0 0 0 0 0 0 0 0 0 0 0 0 0 0 0 0 0 0 0 0 0 0 0 0 0 0 0 0 0 0 0 0 0 0 0 0 0 0 0 0 0 0 0 0 0 0 0 0 0 0 0 0 0 0 0 0 0 0 0 0 0 0 0 0 0 0 0 0 0 0 0 0 0 0 0 0 0 0 0 0 0 0 0 0 0 0 0 0 0 0 0 0 0 0 0 0 0 0 0 0 0 0 0 0 0 0 0 0 0 0 0 0 0 0 0 0 0 0 0 0 0 0 0 0 0 0 0 0 0 0 0 0 0 0 0 0 0 0 0 0 0 0 0 0 0 0 0 0 0 0 0 0 0 0 0 0 0 0 0 0 0 0 0 0 0 0 0 0 0 0 0 0 0 0 0 0 0 0 0 0 0 0 0 0 0 0 0 0 0 0 0 0 0 0 0 0 0 0 0 0 0 0 0 0 0 0 0 0 0 0 0 0 0 0 0 0 0 0 0 0 0 0 0 0 0 0 0 0 0 0 0 0 0 0 0 0 0 0 0 0 0 0 0 0 0 0 0 0 0 0 0 0 0 0 0 0 0 0 0 0 0 0 0 0 0 0 0 0 0 0 0 0 0 0 0 0 0 0 0 0 0 0 0 0 0 0 0 0 0 0 0 0 0 0 0 0 0 0 0 0 0 0 0 0 0 0 0 0 0 0 0 0 0 0 0 0 0 0 0 0 0 0 0 0 0 0 0 0 0 0 0 0 0 0 0 0 0 0 0 0 0 0 0 0 0 0 0 0 0 0 0 0 0 0 0 0 0 0 0 0 0 0 0 0 0 0 0 0 0 0 0 0 0 0 0 0 0 0 0 0 0 0 0 0 0 0 0 0 0 0 0 0 0 0 0 0 0 0 0 0 0 0 0 0 0 0 0 0 0 0 0 0 0 0 0 0 0 0 0 0 0 0 0 0 0 0 0 0 0 0 0 0 0 0 0 0 0 0 0 0 0 0 0 0 0 0 0 0 0 0 0 0 0 0 0 0 0 0 0 0 0 0 0
0 0 0 0 0 0 0 0 0 0 0 0 0 0 0 0 0 0 0 0 0 0 0 0 0 0 0 0 0 0 0 0 0 0 0 0 0 0 0 0 0 0 0 0 0 0 0 0 0 0 0 0 0 0 0 0 0 0 0 0 0 0 0 0 0 0 0 0 0 0 0 0 0 0 0 0 0 0 0 0 0 0 0 0 0 0 0 0 0 0 0 0 0 0 0 0 0 0 0 0 0 0 0 0 0 0 0 0 0 0 0 0 0 0 0 0 0 0 0 0 0 0 0 0 0 0 0 0 0 0 0 0 0 0 0 0 0 0 0 0 0 0 0 0 0 0 0 0 0 0 0 0 0 0 0 0 0 0 0 0 0 0 0 0 0 0 0 0 0 0 0 0 0 0 0 0 0 0 0 0 0 0 0 0 0 0 0 0 0 0 0 0 0 0 0 0 0 0 0 0 0 0 0 0 0 0 0 0 0 0 0 0 0 0 0 0 0 0 0 0 0 0 0 0 0 0 0 0 0 0 0 0 0 0 0 0 0 0 0 0 0 0 0 0 0 0 0 0 0 0 0 0 0 0 0 0 0 0 0 0 0 0 0 0 0 0 0 0 0 0 0 0 0 0 0 0 0 0 0 0 0 0 0 0 0 0 0 0 0 0 0 0 0 0 0 0 0 0 0 0 0 0 0 0 0 0 0 0 0 0 0 0 0 0 0 0 0 0 0 0 0 0 0 0 0 0 0 0 0 0 0 0 0 0 0 0 0 0 0 0 0 0 0 0 0 0 0 0 0 0 0 0 0 0 0 0 0 0 0 0 0 0 0 0 0 0 0 0 0 0 0 0 0 0 0 0 0 0 0 0 0 0 0 0 0 0 0 0 0 0 0 0 0 0 0 0 0 0 0 0 0 0 0 0 0 0 0 0 0 0 0 0 0 0 0 0 0 0 0 0 0 0 0 0 0 0 0 0 0 0 0 0 0 0 0 0 0 0 0 0 0 0 0 0 0 0 0 0 0 0 0 0 0 0 0 0 0 0 0 0 0 0 0 0 0 0 0 0 0 0 0 0 0 0 0 0 0 0 0 0 0 0 0 0 0 0 0 0 0 0 0 0 0 0 0 0 0 0 0 0 0 0 0 0 0 0 0 0 0 0 0 0 0 0 0 0 0 0 0 0 0 0 0 0 0 0 0 0 0 0 0 0 0 0 0 0 0 0 0 0 0 0 0 0 0 0 0 0 0 0 0 0 0 0 0 0 0 0 0 0 0 0 0 0 0 0 0 0 0 0 0 0 0 0 0 0 0 0 0 0 0 0 0 0 0 0 0 0 0 0 0 0 0 0 0 0 0 0 0 0 0 0 0 0 0 0 0 0 0 0 0 0 0 0 0 0 0 0 0 0 0 0 0 0 0 0 0 0 0 0 0 0 0 0 0 0 0 0 0 0 0 0 0 0 0 0 0 0 0 0 0 0 0 0 0 0 0 0 0 0 0 0 0 0 0 0 0 0 0 0 0 0 0 0 0 0 0 0 0 0 0 0 0 0 0 0 0 0 0 0 0 0 0 0 0 0 0 0 0 0 0 0 0 0 0 0 0 0 0 0 0 0 0 0 0 0 0 0 0 0
0 0 0 0 0 0 0 0 0 0 0 0 0 0 0 0 0 0 0 0 0 0 0 0 0 0 0 0 0 0 0 0 0 0 0 0 0 0 0 0 0 0 0 0 0 0 0 0 0 0 0 0 0 0 0 0 0 0 0 0 0 0 0 0 0 0 0 0 0 0 0 0 0 0 0 0 0 0 0 0 0 0 0 0 0 0 0 0 0 0 0 0 0 0 0 0 0 0 0 0 0 0 0 0 0 0 0 0 0 0 0 0 0 0 0 0 0 0 0 0 0 0 0 0 0 0 0 0 0 0 0 0 0 0 0 0 0 0 0 0 0 0 0 0 0 0 0 0 0 0 0 0 0 0 0 0 0 0 0 0 0 0 0 0 0 0 0 0 0 0 0 0 0 0 0 0 0 0 0 0 0 0 0 0 0 0 0 0 0 0 0 0 0 0 0 0 0 0 0 0 0 0 0 0 0 0 0 0 0 0 0 0 0 0 0 0 0 0 0 0 0 0 0 0 0 0 0 0 0 0 0 0 0 0 0 0 0 0 0 0 0 0 0 0 0 0 0 0 0 0 0 0 0 0 0 0 0 0 0 0 0 0 0 0 0 0 0 0 0 0 0 0 0 0 0 0 0 0 0 0 0 0 0 0 0 0 0 0 0 0 0 0 0 0 0 0 0 0 0 0 0 0 0 0 0 0 0 0 0 0 0 0 0 0 0 0 0 0 0 0 0 0 0 0 0 0 0 0 0 0 0 0 0 0 0 0 0 0 0 0 0 0 0 0 0 0 0 0 0 0 0 0 0 0 0 0 0 0 0 0 0 0 0 0 0 0 0 0 0 0 0 0 0 0 0 0 0 0 0 0 0 0 0 0 0 0 0 0 0 0 0 0 0 0 0 0 0 0 0 0 0 0 0 0 0 0 0 0 0 0 0 0 0 0 0 0 0 0 0 0 0 0 0 0 0 0 0 0 0 0 0 0 0 0 0 0 0 0 0 0 0 0 0 0 0 0 0 0 0 0 0 0 0 0 0 0 0 0 0 0 0 0 0 0 0 0 0 0 0 0 0 0 0 0 0 0 0 0 0 0 0 0 0 0 0 0 0 0 0 0 0 0 0 0 0 0 0 0 0 0 0 0 0 0 0 0 0 0 0 0 0 0 0 0 0 0 0 0 0 0 0 0 0 0 0 0 0 0 0 0 0 0 0 0 0 0 0 0 0 0 0 0 0 0 0 0 0 0 0 0 0 0 0 0 0 0 0 0 0 0 0 0 0 0 0 0 0 0 0 0 0 0 0 0 0 0 0 0 0 0 0 0 0 0 0 0 0 0 0 0 0 0 0 0 0 0 0 0 0 0 0 0 0 0 0 0 0 0 0 0 0 0 0 0 0 0 0 0 0 0 0 0 0 0 0 0 0 0 0 0 0 0 0 0 0 0 0 0 0 0 0 0 0 0 0 0 0 0 0 0 0 0 0 0 0 0 0 0 0 0 0 0 0 0 0 0 0 0 0 0 0 0 0 0 0 0 0 0 0 0 0 0 0 0 0 0 0 0 0 0 0 0 0 0 0 0 0 0 0 0 0 0 0 0 0 0 0 0 0 0 0 0 0 0 0 0 0 0 0 0
0 0 0 0 0 0 0 0 0 0 0 0 0 0 0 0 0 0 0 0 0 0 0 0 0 0 0 0 0 0 0 0 0 0 0 0 0 0 0 0 0 0 0 0 0 0 0 0 0 0 0 0 0 0 0 0 0 0 0 0 0 0 0 0 0 0 0 0 0 0 0 0 0 0 0 0 0 0 0 0 0 0 0 0 0 0 0 0 0 0 0 0 0 0 0 0 0 0 0 0 0 0 0 0 0 0 0 0 0 0 0 0 0 0 0 0 0 0 0 0 0 0 0 0 0 0 0 0 0 0 0 0 0 0 0 0 0 0 0 0 0 0 0 0 0 0 0 0 0 0 0 0 0 0 0 0 0 0 0 0 0 0 0 0 0 0 0 0 0 0 0 0 0 0 0 0 0 0 0 0 0 0 0 0 0 0 0 0 0 0 0 0 0 0 0 0 0 0 0 0 0 0 0 0 0 0 0 0 0 0 0 0 0 0 0 0 0 0 0 0 0 0 0 0 0 0 0 0 0 0 0 0 0 0 0 0 0 0 0 0 0 0 0 0 0 0 0 0 0 0 0 0 0 0 0 0 0 0 0 0 0 0 0 0 0 0 0 0 0 0 0 0 0 0 0 0 0 0 0 0 0 0 0 0 0 0 0 0 0 0 0 0 0 0 0 0 0 0 0 0 0 0 0 0 0 0 0 0 0 0 0 0 0 0 0 0 0 0 0 0 0 0 0 0 0 0 0 0 0 0 0 0 0 0 0 0 0 0 0 0 0 0 0 0 0 0 0 0 0 0 0 0 0 0 0 0 0 0 0 0 0 0 0 0 0 0 0 0 0 0 0 0 0 0 0 0 0 0 0 0 0 0 0 0 0 0 0 0 0 0 0 0 0 0 0 0 0 0 0 0 0 0 0 0 0 0 0 0 0 0 0 0 0 0 0 0 0 0 0 0 0 0 0 0 0 0 0 0 0 0 0 0 0 0 0 0 0 0 0 0 0 0 0 0 0 0 0 0 0 0 0 0 0 0 0 0 0 0 0 0 0 0 0 0 0 0 0 0 0 0 0 0 0 0 0 0 0 0 0 0 0 0 0 0 0 0 0 0 0 0 0 0 0 0 0 0 0 0 0 0 0 0 0 0 0 0 0 0 0 0 0 0 0 0 0 0 0 0 0 0 0 0 0 0 0 0 0 0 0 0 0 0 0 0 0 0 0 0 0 0 0 0 0 0 0 0 0 0 0 0 0 0 0 0 0 0 0 0 0 0 0 0 0 0 0 0 0 0 0 0 0 0 0 0 0 0 0 0 0 0 0 0 0 0 0 0 0 0 0 0 0 0 0 0 0 0 0 0 0 0 0 0 0 0 0 0 0 0 0 0 0 0 0 0 0 0 0 0 0 0 0 0 0 0 0 0 0 0 0 0 0 0 0 0 0 0 0 0 0 0 0 0 0 0 0 0 0 0 0 0 0 0 0 0 0 0 0 0 0 0 0 0 0 0 0 0 0 0 0 0 0 0 0 0 0 0 0 0 0 0 0 0 0 0 0 0 0 0 0 0 0 0 0 0 0 0 0 0 0 0 0 0 0 0 0 0 0 0 0 0 0 0 0 0 0 0 0 0 0 0
0 0 0 0 0 0 0 0 0 0 0 0 0 0 0 0 0 0 0 0 0 0 0 0 0 0 0 0 0 0 0 0 0 0 0 0 0 0 0 0 0 0 0 0 0 0 0 0 0 0 0 0 0 0 0 0 0 0 0 0 0 0 0 0 0 0 0 0 0 0 0 0 0 0 0 0 0 0 0 0 0 0 0 0 0 0 0 0 0 0 0 0 0 0 0 0 0 0 0 0 0 0 0 0 0 0 0 0 0 0 0 0 0 0 0 0 0 0 0 0 0 0 0 0 0 0 0 0 0 0 0 0 0 0 0 0 0 0 0 0 0 0 0 0 0 0 0 0 0 0 0 0 0 0 0 0 0 0 0 0 0 0 0 0 0 0 0 0 0 0 0 0 0 0 0 0 0 0 0 0 0 0 0 0 0 0 0 0 0 0 0 0 0 0 0 0 0 0 0 0 0 0 0 0 0 0 0 0 0 0 0 0 0 0 0 0 0 0 0 0 0 0 0 0 0 0 0 0 0 0 0 0 0 0 0 0 0 0 0 0 0 0 0 0 0 0 0 0 0 0 0 0 0 0 0 0 0 0 0 0 0 0 0 0 0 0 0 0 0 0 0 0 0 0 0 0 0 0 0 0 0 0 0 0 0 0 0 0 0 0 0 0 0 0 0 0 0 0 0 0 0 0 0 0 0 0 0 0 0 0 0 0 0 0 0 0 0 0 0 0 0 0 0 0 0 0 0 0 0 0 0 0 0 0 0 0 0 0 0 0 0 0 0 0 0 0 0 0 0 0 0 0 0 0 0 0 0 0 0 0 0 0 0 0 0 0 0 0 0 0 0 0 0 0 0 0 0 0 0 0 0 0 0 0 0 0 0 0 0 0 0 0 0 0 0 0 0 0 0 0 0 0 0 0 0 0 0 0 0 0 0 0 0 0 0 0 0 0 0 0 0 0 0 0 0 0 0 0 0 0 0 0 0 0 0 0 0 0 0 0 0 0 0 0 0 0 0 0 0 0 0 0 0 0 0 0 0 0 0 0 0 0 0 0 0 0 0 0 0 0 0 0 0 0 0 0 0 0 0 0 0 0 0 0 0 0 0 0 0 0 0 0 0 0 0 0 0 0 0 0 0 0 0 0 0 0 0 0 0 0 0 0 0 0 0 0 0 0 0 0 0 0 0 0 0 0 0 0 0 0 0 0 0 0 0 0 0 0 0 0 0 0 0 0 0 0 0 0 0 0 0 0 0 0 0 0 0 0 0 0 0 0 0 0 0 0 0 0 0 0 0 0 0 0 0 0 0 0 0 0 0 0 0 0 0 0 0 0 0 0 0 0 0 0 0 0 0 0 0 0 0 0 0 0 0 0 0 0 0 0 0 0 0 0 0 0 0 0 0 0 0 0 0 0 0 0 0 0 0 0 0 0 0 0 0 0 0 0 0 0 0 0 0 0 0 0 0 0 0 0 0 0 0 0 0 0 0 0 0 0 0 0 0 0 0 0 0 0 0 0 0 0 0 0 0 0 0 0 0 0 0 0 0 0 0 0 0 0 0 0 0 0 0 0 0 0 0 0 0 0 0 0 0 0 0 0 0 0 0 0 0 0 0 0 0 0 0 0 0 0
0 0 0 0 0 0 0 0 0 0 0 0 0 0 0 0 0 0 0 0 0 0 0 0 0 0 0 0 0 0 0 0 0 0 0 0 0 0 0 0 0 0 0 0 0 0 0 0 0 0 0 0 0 0 0 0 0 0 0 0 0 0 0 0 0 0 0 0 0 0 0 0 0 0 0 0 0 0 0 0 0 0 0 0 0 0 0 0 0 0 0 0 0 0 0 0 0 0 0 0 0 0 0 0 0 0 0 0 0 0 0 0 0 0 0 0 0 0 0 0 0 0 0 0 0 0 0 0 0 0 0 0 0 0 0 0 0 0 0 0 0 0 0 0 0 0 0 0 0 0 0 0 0 0 0 0 0 0 0 0 0 0 0 0 0 0 0 0 0 0 0 0 0 0 0 0 0 0 0 0 0 0 0 0 0 0 0 0 0 0 0 0 0 0 0 0 0 0 0 0 0 0 0 0 0 0 0 0 0 0 0 0 0 0 0 0 0 0 0 0 0 0 0 0 0 0 0 0 0 0 0 0 0 0 0 0 0 0 0 0 0 0 0 0 0 0 0 0 0 0 0 0 0 0 0 0 0 0 0 0 0 0 0 0 0 0 0 0 0 0 0 0 0 0 0 0 0 0 0 0 0 0 0 0 0 0 0 0 0 0 0 0 0 0 0 0 0 0 0 0 0 0 0 0 0 0 0 0 0 0 0 0 0 0 0 0 0 0 0 0 0 0 0 0 0 0 0 0 0 0 0 0 0 0 0 0 0 0 0 0 0 0 0 0 0 0 0 0 0 0 0 0 0 0 0 0 0 0 0 0 0 0 0 0 0 0 0 0 0 0 0 0 0 0 0 0 0 0 0 0 0 0 0 0 0 0 0 0 0 0 0 0 0 0 0 0 0 0 0 0 0 0 0 0 0 0 0 0 0 0 0 0 0 0 0 0 0 0 0 0 0 0 0 0 0 0 0 0 0 0 0 0 0 0 0 0 0 0 0 0 0 0 0 0 0 0 0 0 0 0 0 0 0 0 0 0 0 0 0 0 0 0 0 0 0 0 0 0 0 0 0 0 0 0 0 0 0 0 0 0 0 0 0 0 0 0 0 0 0 0 0 0 0 0 0 0 0 0 0 0 0 0 0 0 0 0 0 0 0 0 0 0 0 0 0 0 0 0 0 0 0 0 0 0 0 0 0 0 0 0 0 0 0 0 0 0 0 0 0 0 0 0 0 0 0 0 0 0 0 0 0 0 0 0 0 0 0 0 0 0 0 0 0 0 0 0 0 0 0 0 0 0 0 0 0 0 0 0 0 0 0 0 0 0 0 0 0 0 0 0 0 0 0 0 0 0 0 0 0 0 0 0 0 0 0 0 0 0 0 0 0 0 0 0 0 0 0 0 0 0 0 0 0 0 0 0 0 0 0 0 0 0 0 0 0 0 0 0 0 0 0 0 0 0 0 0 0 0 0 0 0 0 0 0 0 0 0 0 0 0 0 0 0 0 0 0 0 0 0 0 0 0 0 0 0 0 0 0 0 0 0 0 0 0 0 0 0 0 0 0 0 0 0 0 0 0 0 0 0 0 0 0 0 0 0 0 0 0 0 0 0 0 0 0 0 0 0 0 0 0
0 0 0 0 0 0 0 0 0 0 0 0 0 0 0 0 0 0 0 0 0 0 0 0 0 0 0 0 0 0 0 0 0 0 0 0 0 0 0 0 0 0 0 0 0 0 0 0 0 0 0 0 0 0 0 0 0 0 0 0 0 0 0 0 0 0 0 0 0 0 0 0 0 0 0 0 0 0 0 0 0 0 0 0 0 0 0 0 0 0 0 0 0 0 0 0 0 0 0 0 0 0 0 0 0 0 0 0 0 0 0 0 0 0 0 0 0 0 0 0 0 0 0 0 0 0 0 0 0 0 0 0 0 0 0 0 0 0 0 0 0 0 0 0 0 0 0 0 0 0 0 0 0 0 0 0 0 0 0 0 0 0 0 0 0 0 0 0 0 0 0 0 0 0 0 0 0 0 0 0 0 0 0 0 0 0 0 0 0 0 0 0 0 0 0 0 0 0 0 0 0 0 0 0 0 0 0 0 0 0 0 0 0 0 0 0 0 0 0 0 0 0 0 0 0 0 0 0 0 0 0 0 0 0 0 0 0 0 0 0 0 0 0 0 0 0 0 0 0 0 0 0 0 0 0 0 0 0 0 0 0 0 0 0 0 0 0 0 0 0 0 0 0 0 0 0 0 0 0 0 0 0 0 0 0 0 0 0 0 0 0 0 0 0 0 0 0 0 0 0 0 0 0 0 0 0 0 0 0 0 0 0 0 0 0 0 0 0 0 0 0 0 0 0 0 0 0 0 0 0 0 0 0 0 0 0 0 0 0 0 0 0 0 0 0 0 0 0 0 0 0 0 0 0 0 0 0 0 0 0 0 0 0 0 0 0 0 0 0 0 0 0 0 0 0 0 0 0 0 0 0 0 0 0 0 0 0 0 0 0 0 0 0 0 0 0 0 0 0 0 0 0 0 0 0 0 0 0 0 0 0 0 0 0 0 0 0 0 0 0 0 0 0 0 0 0 0 0 0 0 0 0 0 0 0 0 0 0 0 0 0 0 0 0 0 0 0 0 0 0 0 0 0 0 0 0 0 0 0 0 0 0 0 0 0 0 0 0 0 0 0 0 0 0 0 0 0 0 0 0 0 0 0 0 0 0 0 0 0 0 0 0 0 0 0 0 0 0 0 0 0 0 0 0 0 0 0 0 0 0 0 0 0 0 0 0 0 0 0 0 0 0 0 0 0 0 0 0 0 0 0 0 0 0 0 0 0 0 0 0 0 0 0 0 0 0 0 0 0 0 0 0 0 0 0 0 0 0 0 0 0 0 0 0 0 0 0 0 0 0 0 0 0 0 0 0 0 0 0 0 0 0 0 0 0 0 0 0 0 0 0 0 0 0 0 0 0 0 0 0 0 0 0 0 0 0 0 0 0 0 0 0 0 0 0 0 0 0 0 0 0 0 0 0 0 0 0 0 0 0 0 0 0 0 0 0 0 0 0 0 0 0 0 0 0 0 0 0 0 0 0 0 0 0 0 0 0 0 0 0 0 0 0 0 0 0 0 0 0 0 0 0 0 0 0 0 0 0 0 0 0 0 0 0 0 0 0 0 0 0 0 0 0 0 0 0 0 0 0 0 0 0 0 0 0 0 0 0 0 0 0 0 0 0 0 0 0 0 0 0
0 0 0 0 0 0 0 0 0 0 0 0 0 0 0 0 0 0 0 0 0 0 0 0 0 0 0 0 0 0 0 0 0 0 0 0 0 0 0 0 0 0 0 0 0 0 0 0 0 0 0 0 0 0 0 0 0 0 0 0 0 0 0 0 0 0 0 0 0 0 0 0 0 0 0 0 0 0 0 0 0 0 0 0 0 0 0 0 0 0 0 0 0 0 0 0 0 0 0 0 0 0 0 0 0 0 0 0 0 0 0 0 0 0 0 0 0 0 0 0 0 0 0 0 0 0 0 0 0 0 0 0 0 0 0 0 0 0 0 0 0 0 0 0 0 0 0 0 0 0 0 0 0 0 0 0 0 0 0 0 0 0 0 0 0 0 0 0 0 0 0 0 0 0 0 0 0 0 0 0 0 0 0 0 0 0 0 0 0 0 0 0 0 0 0 0 0 0 0 0 0 0 0 0 0 0 0 0 0 0 0 0 0 0 0 0 0 0 0 0 0 0 0 0 0 0 0 0 0 0 0 0 0 0 0 0 0 0 0 0 0 0 0 0 0 0 0 0 0 0 0 0 0 0 0 0 0 0 0 0 0 0 0 0 0 0 0 0 0 0 0 0 0 0 0 0 0 0 0 0 0 0 0 0 0 0 0 0 0 0 0 0 0 0 0 0 0 0 0 0 0 0 0 0 0 0 0 0 0 0 0 0 0 0 0 0 0 0 0 0 0 0 0 0 0 0 0 0 0 0 0 0 0 0 0 0 0 0 0 0 0 0 0 0 0 0 0 0 0 0 0 0 0 0 0 0 0 0 0 0 0 0 0 0 0 0 0 0 0 0 0 0 0 0 0 0 0 0 0 0 0 0 0 0 0 0 0 0 0 0 0 0 0 0 0 0 0 0 0 0 0 0 0 0 0 0 0 0 0 0 0 0 0 0 0 0 0 0 0 0 0 0 0 0 0 0 0 0 0 0 0 0 0 0 0 0 0 0 0 0 0 0 0 0 0 0 0 0 0 0 0 0 0 0 0 0 0 0 0 0 0 0 0 0 0 0 0 0 0 0 0 0 0 0 0 0 0 0 0 0 0 0 0 0 0 0 0 0 0 0 0 0 0 0 0 0 0 0 0 0 0 0 0 0 0 0 0 0 0 0 0 0 0 0 0 0 0 0 0 0 0 0 0 0 0 0 0 0 0 0 0 0 0 0 0 0 0 0 0 0 0 0 0 0 0 0 0 0 0 0 0 0 0 0 0 0 0 0 0 0 0 0 0 0 0 0 0 0 0 0 0 0 0 0 0 0 0 0 0 0 0 0 0 0 0 0 0 0 0 0 0 0 0 0 0 0 0 0 0 0 0 0 0 0 0 0 0 0 0 0 0 0 0 0 0 0 0 0 0 0 0 0 0 0 0 0 0 0 0 0 0 0 0 0 0 0 0 0 0 0 0 0 0 0 0 0 0 0 0 0 0 0 0 0 0 0 0 0 0 0 0 0 0 0 0 0 0 0 0 0 0 0 0 0 0 0 0 0 0 0 0 0 0 0 0 0 0 0 0 0 0 0 0 0 0 0 0 0 0 0 0 0 0 0 0 0 0 0 0 0 0 0 0 0 0 0 0 0 0 0
0 0 0 0 0 0 0 0 0 0 0 0 0 0 0 0 0 0 0 0 0 0 0 0 0 0 0 0 0 0 0 0 0 0 0 0 0 0 0 0 0 0 0 0 0 0 0 0 0 0 0 0 0 0 0 0 0 0 0 0 0 0 0 0 0 0 0 0 0 0 0 0 0 0 0 0 0 0 0 0 0 0 0 0 0 0 0 0 0 0 0 0 0 0 0 0 0 0 0 0 0 0 0 0 0 0 0 0 0 0 0 0 0 0 0 0 0 0 0 0 0 0 0 0 0 0 0 0 0 0 0 0 0 0 0 0 0 0 0 0 0 0 0 0 0 0 0 0 0 0 0 0 0 0 0 0 0 0 0 0 0 0 0 0 0 0 0 0 0 0 0 0 0 0 0 0 0 0 0 0 0 0 0 0 0 0 0 0 0 0 0 0 0 0 0 0 0 0 0 0 0 0 0 0 0 0 0 0 0 0 0 0 0 0 0 0 0 0 0 0 0 0 0 0 0 0 0 0 0 0 0 0 0 0 0 0 0 0 0 0 0 0 0 0 0 0 0 0 0 0 0 0 0 0 0 0 0 0 0 0 0 0 0 0 0 0 0 0 0 0 0 0 0 0 0 0 0 0 0 0 0 0 0 0 0 0 0 0 0 0 0 0 0 0 0 0 0 0 0 0 0 0 0 0 0 0 0 0 0 0 0 0 0 0 0 0 0 0 0 0 0 0 0 0 0 0 0 0 0 0 0 0 0 0 0 0 0 0 0 0 0 0 0 0 0 0 0 0 0 0 0 0 0 0 0 0 0 0 0 0 0 0 0 0 0 0 0 0 0 0 0 0 0 0 0 0 0 0 0 0 0 0 0 0 0 0 0 0 0 0 0 0 0 0 0 0 0 0 0 0 0 0 0 0 0 0 0 0 0 0 0 0 0 0 0 0 0 0 0 0 0 0 0 0 0 0 0 0 0 0 0 0 0 0 0 0 0 0 0 0 0 0 0 0 0 0 0 0 0 0 0 0 0 0 0 0 0 0 0 0 0 0 0 0 0 0 0 0 0 0 0 0 0 0 0 0 0 0 0 0 0 0 0 0 0 0 0 0 0 0 0 0 0 0 0 0 0 0 0 0 0 0 0 0 0 0 0 0 0 0 0 0 0 0 0 0 0 0 0 0 0 0 0 0 0 0 0 0 0 0 0 0 0 0 0 0 0 0 0 0 0 0 0 0 0 0 0 0 0 0 0 0 0 0 0 0 0 0 0 0 0 0 0 0 0 0 0 0 0 0 0 0 0 0 0 0 0 0 0 0 0 0 0 0 0 0 0 0 0 0 0 0 0 0 0 0 0 0 0 0 0 0 0 0 0 0 0 0 0 0 0 0 0 0 0 0 0 0 0 0 0 0 0 0 0 0 0 0 0 0 0 0 0 0 0 0 0 0 0 0 0 0 0 0 0 0 0 0 0 0 0 0 0 0 0 0 0 0 0 0 0 0 0 0 0 0 0 0 0 0 0 0 0 0 0 0 0 0 0 0 0 0 0 0 0 0 0 0 0 0 0 0 0 0 0 0 0 0 0 0 0 0 0 0 0 0 0 0 0 0 0 0 0 0 0 0 0 0 0 0
0 0 0 0 0 0 0 0 0 0 0 0 0 0 0 0 0 0 0 0 0 0 0 0 0 0 0 0 0 0 0 0 0 0 0 0 0 0 0 0 0 0 0 0 0 0 0 0 0 0 0 0 0 0 0 0 0 0 0 0 0 0 0 0 0 0 0 0 0 0 0 0 0 0 0 0 0 0 0 0 0 0 0 0 0 0 0 0 0 0 0 0 0 0 0 0 0 0 0 0 0 0 0 0 0 0 0 0 0 0 0 0 0 0 0 0 0 0 0 0 0 0 0 0 0 0 0 0 0 0 0 0 0 0 0 0 0 0 0 0 0 0 0 0 0 0 0 0 0 0 0 0 0 0 0 0 0 0 0 0 0 0 0 0 0 0 0 0 0 0 0 0 0 0 0 0 0 0 0 0 0 0 0 0 0 0 0 0 0 0 0 0 0 0 0 0 0 0 0 0 0 0 0 0 0 0 0 0 0 0 0 0 0 0 0 0 0 0 0 0 0 0 0 0 0 0 0 0 0 0 0 0 0 0 0 0 0 0 0 0 0 0 0 0 0 0 0 0 0 0 0 0 0 0 0 0 0 0 0 0 0 0 0 0 0 0 0 0 0 0 0 0 0 0 0 0 0 0 0 0 0 0 0 0 0 0 0 0 0 0 0 0 0 0 0 0 0 0 0 0 0 0 0 0 0 0 0 0 0 0 0 0 0 0 0 0 0 0 0 0 0 0 0 0 0 0 0 0 0 0 0 0 0 0 0 0 0 0 0 0 0 0 0 0 0 0 0 0 0 0 0 0 0 0 0 0 0 0 0 0 0 0 0 0 0 0 0 0 0 0 0 0 0 0 0 0 0 0 0 0 0 0 0 0 0 0 0 0 0 0 0 0 0 0 0 0 0 0 0 0 0 0 0 0 0 0 0 0 0 0 0 0 0 0 0 0 0 0 0 0 0 0 0 0 0 0 0 0 0 0 0 0 0 0 0 0 0 0 0 0 0 0 0 0 0 0 0 0 0 0 0 0 0 0 0 0 0 0 0 0 0 0 0 0 0 0 0 0 0 0 0 0 0 0 0 0 0 0 0 0 0 0 0 0 0 0 0 0 0 0 0 0 0 0 0 0 0 0 0 0 0 0 0 0 0 0 0 0 0 0 0 0 0 0 0 0 0 0 0 0 0 0 0 0 0 0 0 0 0 0 0 0 0 0 0 0 0 0 0 0 0 0 0 0 0 0 0 0 0 0 0 0 0 0 0 0 0 0 0 0 0 0 0 0 0 0 0 0 0 0 0 0 0 0 0 0 0 0 0 0 0 0 0 0 0 0 0 0 0 0 0 0 0 0 0 0 0 0 0 0 0 0 0 0 0 0 0 0 0 0 0 0 0 0 0 0 0 0 0 0 0 0 0 0 0 0 0 0 0 0 0 0 0 0 0 0 0 0 0 0 0 0 0 0 0 0 0 0 0 0 0 0 0 0 0 0 0 0 0 0 0 0 0 0 0 0 0 0 0 0 0 0 0 0 0 0 0 0 0 0 0 0 0 0 0 0 0 0 0 0 0 0 0 0 0 0 0 0 0 0 0 0 0 0 0 0 0 0 0 0 0 0 0 0 0 0 0 0 0 0
0 0 0 0 0 0 0 0 0 0 0 0 0 0 0 0 0 0 0 0 0 0 0 0 0 0 0 0 0 0 0 0 0 0 0 0 0 0 0 0 0 0 0 0 0 0 0 0 0 0 0 0 0 0 0 0 0 0 0 0 0 0 0 0 0 0 0 0 0 0 0 0 0 0 0 0 0 0 0 0 0 0 0 0 0 0 0 0 0 0 0 0 0 0 0 0 0 0 0 0 0 0 0 0 0 0 0 0 0 0 0 0 0 0 0 0 0 0 0 0 0 0 0 0 0 0 0 0 0 0 0 0 0 0 0 0 0 0 0 0 0 0 0 0 0 0 0 0 0 0 0 0 0 0 0 0 0 0 0 0 0 0 0 0 0 0 0 0 0 0 0 0 0 0 0 0 0 0 0 0 0 0 0 0 0 0 0 0 0 0 0 0 0 0 0 0 0 0 0 0 0 0 0 0 0 0 0 0 0 0 0 0 0 0 0 0 0 0 0 0 0 0 0 0 0 0 0 0 0 0 0 0 0 0 0 0 0 0 0 0 0 0 0 0 0 0 0 0 0 0 0 0 0 0 0 0 0 0 0 0 0 0 0 0 0 0 0 0 0 0 0 0 0 0 0 0 0 0 0 0 0 0 0 0 0 0 0 0 0 0 0 0 0 0 0 0 0 0 0 0 0 0 0 0 0 0 0 0 0 0 0 0 0 0 0 0 0 0 0 0 0 0 0 0 0 0 0 0 0 0 0 0 0 0 0 0 0 0 0 0 0 0 0 0 0 0 0 0 0 0 0 0 0 0 0 0 0 0 0 0 0 0 0 0 0 0 0 0 0 0 0 0 0 0 0 0 0 0 0 0 0 0 0 0 0 0 0 0 0 0 0 0 0 0 0 0 0 0 0 0 0 0 0 0 0 0 0 0 0 0 0 0 0 0 0 0 0 0 0 0 0 0 0 0 0 0 0 0 0 0 0 0 0 0 0 0 0 0 0 0 0 0 0 0 0 0 0 0 0 0 0 0 0 0 0 0 0 0 0 0 0 0 0 0 0 0 0 0 0 0 0 0 0 0 0 0 0 0 0 0 0 0 0 0 0 0 0 0 0 0 0 0 0 0 0 0 0 0 0 0 0 0 0 0 0 0 0 0 0 0 0 0 0 0 0 0 0 0 0 0 0 0 0 0 0 0 0 0 0 0 0 0 0 0 0 0 0 0 0 0 0 0 0 0 0 0 0 0 0 0 0 0 0 0 0 0 0 0 0 0 0 0 0 0 0 0 0 0 0 0 0 0 0 0 0 0 0 0 0 0 0 0 0 0 0 0 0 0 0 0 0 0 0 0 0 0 0 0 0 0 0 0 0 0 0 0 0 0 0 0 0 0 0 0 0 0 0 0 0 0 0 0 0 0 0 0 0 0 0 0 0 0 0 0 0 0 0 0 0 0 0 0 0 0 0 0 0 0 0 0 0 0 0 0 0 0 0 0 0 0 0 0 0 0 0 0 0 0 0 0 0 0 0 0 0 0 0 0 0 0 0 0 0 0 0 0 0 0 0 0 0 0 0 0 0 0 0 0 0 0 0 0 0 0 0 0 0 0 0 0 0 0 0 0 0 0 0 0 0 0
0 0 0 0 0 0 0 0 0 0 0 0 0 0 0 0 0 0 0 0 0 0 0 0 0 0 0 0 0 0 0 0 0 0 0 0 0 0 0 0 0 0 0 0 0 0 0 0 0 0 0 0 0 0 0 0 0 0 0 0 0 0 0 0 0 0 0 0 0 0 0 0 0 0 0 0 0 0 0 0 0 0 0 0 0 0 0 0 0 0 0 0 0 0 0 0 0 0 0 0 0 0 0 0 0 0 0 0 0 0 0 0 0 0 0 0 0 0 0 0 0 0 0 0 0 0 0 0 0 0 0 0 0 0 0 0 0 0 0 0 0 0 0 0 0 0 0 0 0 0 0 0 0 0 0 0 0 0 0 0 0 0 0 0 0 0 0 0 0 0 0 0 0 0 0 0 0 0 0 0 0 0 0 0 0 0 0 0 0 0 0 0 0 0 0 0 0 0 0 0 0 0 0 0 0 0 0 0 0 0 0 0 0 0 0 0 0 0 0 0 0 0 0 0 0 0 0 0 0 0 0 0 0 0 0 0 0 0 0 0 0 0 0 0 0 0 0 0 0 0 0 0 0 0 0 0 0 0 0 0 0 0 0 0 0 0 0 0 0 0 0 0 0 0 0 0 0 0 0 0 0 0 0 0 0 0 0 0 0 0 0 0 0 0 0 0 0 0 0 0 0 0 0 0 0 0 0 0 0 0 0 0 0 0 0 0 0 0 0 0 0 0 0 0 0 0 0 0 0 0 0 0 0 0 0 0 0 0 0 0 0 0 0 0 0 0 0 0 0 0 0 0 0 0 0 0 0 0 0 0 0 0 0 0 0 0 0 0 0 0 0 0 0 0 0 0 0 0 0 0 0 0 0 0 0 0 0 0 0 0 0 0 0 0 0 0 0 0 0 0 0 0 0 0 0 0 0 0 0 0 0 0 0 0 0 0 0 0 0 0 0 0 0 0 0 0 0 0 0 0 0 0 0 0 0 0 0 0 0 0 0 0 0 0 0 0 0 0 0 0 0 0 0 0 0 0 0 0 0 0 0 0 0 0 0 0 0 0 0 0 0 0 0 0 0 0 0 0 0 0 0 0 0 0 0 0 0 0 0 0 0 0 0 0 0 0 0 0 0 0 0 0 0 0 0 0 0 0 0 0 0 0 0 0 0 0 0 0 0 0 0 0 0 0 0 0 0 0 0 0 0 0 0 0 0 0 0 0 0 0 0 0 0 0 0 0 0 0 0 0 0 0 0 0 0 0 0 0 0 0 0 0 0 0 0 0 0 0 0 0 0 0 0 0 0 0 0 0 0 0 0 0 0 0 0 0 0 0 0 0 0 0 0 0 0 0 0 0 0 0 0 0 0 0 0 0 0 0 0 0 0 0 0 0 0 0 0 0 0 0 0 0 0 0 0 0 0 0 0 0 0 0 0 0 0 0 0 0 0 0 0 0 0 0 0 0 0 0 0 0 0 0 0 0 0 0 0 0 0 0 0 0 0 0 0 0 0 0 0 0 0 0 0 0 0 0 0 0 0 0 0 0 0 0 0 0 0 0 0 0 0 0 0 0 0 0 0 0 0 0 0 0 0 0 0 0 0 0 0 0 0 0 0 0 0 0 0 0 0 0
0 0 0 0 0 0 0 0 0 0 0 0 0 0 0 0 0 0 0 0 0 0 0 0 0 0 0 0 0 0 0 0 0 0 0 0 0 0 0 0 0 0 0 0 0 0 0 0 0 0 0 0 0 0 0 0 0 0 0 0 0 0 0 0 0 0 0 0 0 0 0 0 0 0 0 0 0 0 0 0 0 0 0 0 0 0 0 0 0 0 0 0 0 0 0 0 0 0 0 0 0 0 0 0 0 0 0 0 0 0 0 0 0 0 0 0 0 0 0 0 0 0 0 0 0 0 0 0 0 0 0 0 0 0 0 0 0 0 0 0 0 0 0 0 0 0 0 0 0 0 0 0 0 0 0 0 0 0 0 0 0 0 0 0 0 0 0 0 0 0 0 0 0 0 0 0 0 0 0 0 0 0 0 0 0 0 0 0 0 0 0 0 0 0 0 0 0 0 0 0 0 0 0 0 0 0 0 0 0 0 0 0 0 0 0 0 0 0 0 0 0 0 0 0 0 0 0 0 0 0 0 0 0 0 0 0 0 0 0 0 0 0 0 0 0 0 0 0 0 0 0 0 0 0 0 0 0 0 0 0 0 0 0 0 0 0 0 0 0 0 0 0 0 0 0 0 0 0 0 0 0 0 0 0 0 0 0 0 0 0 0 0 0 0 0 0 0 0 0 0 0 0 0 0 0 0 0 0 0 0 0 0 0 0 0 0 0 0 0 0 0 0 0 0 0 0 0 0 0 0 0 0 0 0 0 0 0 0 0 0 0 0 0 0 0 0 0 0 0 0 0 0 0 0 0 0 0 0 0 0 0 0 0 0 0 0 0 0 0 0 0 0 0 0 0 0 0 0 0 0 0 0 0 0 0 0 0 0 0 0 0 0 0 0 0 0 0 0 0 0 0 0 0 0 0 0 0 0 0 0 0 0 0 0 0 0 0 0 0 0 0 0 0 0 0 0 0 0 0 0 0 0 0 0 0 0 0 0 0 0 0 0 0 0 0 0 0 0 0 0 0 0 0 0 0 0 0 0 0 0 0 0 0 0 0 0 0 0 0 0 0 0 0 0 0 0 0 0 0 0 0 0 0 0 0 0 0 0 0 0 0 0 0 0 0 0 0 0 0 0 0 0 0 0 0 0 0 0 0 0 0 0 0 0 0 0 0 0 0 0 0 0 0 0 0 0 0 0 0 0 0 0 0 0 0 0 0 0 0 0 0 0 0 0 0 0 0 0 0 0 0 0 0 0 0 0 0 0 0 0 0 0 0 0 0 0 0 0 0 0 0 0 0 0 0 0 0 0 0 0 0 0 0 0 0 0 0 0 0 0 0 0 0 0 0 0 0 0 0 0 0 0 0 0 0 0 0 0 0 0 0 0 0 0 0 0 0 0 0 0 0 0 0 0 0 0 0 0 0 0 0 0 0 0 0 0 0 0 0 0 0 0 0 0 0 0 0 0 0 0 0 0 0 0 0 0 0 0 0 0 0 0 0 0 0 0 0 0 0 0 0 0 0 0 0 0 0 0 0 0 0 0 0 0 0 0 0 0 0 0 0 0 0 0 0 0 0 0 0 0 0 0 0 0 0 0 0 0 0 0 0 0 0 0 0 0 0 0 0 0
0 0 0 0 0 0 0 0 0 0 0 0 0 0 0 0 0 0 0 0 0 0 0 0 0 0 0 0 0 0 0 0 0 0 0 0 0 0 0 0 0 0 0 0 0 0 0 0 0 0 0 0 0 0 0 0 0 0 0 0 0 0 0 0 0 0 0 0 0 0 0 0 0 0 0 0 0 0 0 0 0 0 0 0 0 0 0 0 0 0 0 0 0 0 0 0 0 0 0 0 0 0 0 0 0 0 0 0 0 0 0 0 0 0 0 0 0 0 0 0 0 0 0 0 0 0 0 0 0 0 0 0 0 0 0 0 0 0 0 0 0 0 0 0 0 0 0 0 0 0 0 0 0 0 0 0 0 0 0 0 0 0 0 0 0 0 0 0 0 0 0 0 0 0 0 0 0 0 0 0 0 0 0 0 0 0 0 0 0 0 0 0 0 0 0 0 0 0 0 0 0 0 0 0 0 0 0 0 0 0 0 0 0 0 0 0 0 0 0 0 0 0 0 0 0 0 0 0 0 0 0 0 0 0 0 0 0 0 0 0 0 0 0 0 0 0 0 0 0 0 0 0 0 0 0 0 0 0 0 0 0 0 0 0 0 0 0 0 0 0 0 0 0 0 0 0 0 0 0 0 0 0 0 0 0 0 0 0 0 0 0 0 0 0 0 0 0 0 0 0 0 0 0 0 0 0 0 0 0 0 0 0 0 0 0 0 0 0 0 0 0 0 0 0 0 0 0 0 0 0 0 0 0 0 0 0 0 0 0 0 0 0 0 0 0 0 0 0 0 0 0 0 0 0 0 0 0 0 0 0 0 0 0 0 0 0 0 0 0 0 0 0 0 0 0 0 0 0 0 0 0 0 0 0 0 0 0 0 0 0 0 0 0 0 0 0 0 0 0 0 0 0 0 0 0 0 0 0 0 0 0 0 0 0 0 0 0 0 0 0 0 0 0 0 0 0 0 0 0 0 0 0 0 0 0 0 0 0 0 0 0 0 0 0 0 0 0 0 0 0 0 0 0 0 0 0 0 0 0 0 0 0 0 0 0 0 0 0 0 0 0 0 0 0 0 0 0 0 0 0 0 0 0 0 0 0 0 0 0 0 0 0 0 0 0 0 0 0 0 0 0 0 0 0 0 0 0 0 0 0 0 0 0 0 0 0 0 0 0 0 0 0 0 0 0 0 0 0 0 0 0 0 0 0 0 0 0 0 0 0 0 0 0 0 0 0 0 0 0 0 0 0 0 0 0 0 0 0 0 0 0 0 0 0 0 0 0 0 0 0 0 0 0 0 0 0 0 0 0 0 0 0 0 0 0 0 0 0 0 0 0 0 0 0 0 0 0 0 0 0 0 0 0 0 0 0 0 0 0 0 0 0 0 0 0 0 0 0 0 0 0 0 0 0 0 0 0 0 0 0 0 0 0 0 0 0 0 0 0 0 0 0 0 0 0 0 0 0 0 0 0 0 0 0 0 0 0 0 0 0 0 0 0 0 0 0 0 0 0 0 0 0 0 0 0 0 0 0 0 0 0 0 0 0 0 0 0 0 0 0 0 0 0 0 0 0 0 0 0 0 0 0 0 0 0 0 0 0 0 0 0 0 0 0 0 0 0 0 0 0
0 0 0 0 0 0 0 0 0 0 0 0 0 0 0 0 0 0 0 0 0 0 0 0 0 0 0 0 0 0 0 0 0 0 0 0 0 0 0 0 0 0 0 0 0 0 0 0 0 0 0 0 0 0 0 0 0 0 0 0 0 0 0 0 0 0 0 0 0 0 0 0 0 0 0 0 0 0 0 0 0 0 0 0 0 0 0 0 0 0 0 0 0 0 0 0 0 0 0 0 0 0 0 0 0 0 0 0 0 0 0 0 0 0 0 0 0 0 0 0 0 0 0 0 0 0 0 0 0 0 0 0 0 0 0 0 0 0 0 0 0 0 0 0 0 0 0 0 0 0 0 0 0 0 0 0 0 0 0 0 0 0 0 0 0 0 0 0 0 0 0 0 0 0 0 0 0 0 0 0 0 0 0 0 0 0 0 0 0 0 0 0 0 0 0 0 0 0 0 0 0 0 0 0 0 0 0 0 0 0 0 0 0 0 0 0 0 0 0 0 0 0 0 0 0 0 0 0 0 0 0 0 0 0 0 0 0 0 0 0 0 0 0 0 0 0 0 0 0 0 0 0 0 0 0 0 0 0 0 0 0 0 0 0 0 0 0 0 0 0 0 0 0 0 0 0 0 0 0 0 0 0 0 0 0 0 0 0 0 0 0 0 0 0 0 0 0 0 0 0 0 0 0 0 0 0 0 0 0 0 0 0 0 0 0 0 0 0 0 0 0 0 0 0 0 0 0 0 0 0 0 0 0 0 0 0 0 0 0 0 0 0 0 0 0 0 0 0 0 0 0 0 0 0 0 0 0 0 0 0 0 0 0 0 0 0 0 0 0 0 0 0 0 0 0 0 0 0 0 0 0 0 0 0 0 0 0 0 0 0 0 0 0 0 0 0 0 0 0 0 0 0 0 0 0 0 0 0 0 0 0 0 0 0 0 0 0 0 0 0 0 0 0 0 0 0 0 0 0 0 0 0 0 0 0 0 0 0 0 0 0 0 0 0 0 0 0 0 0 0 0 0 0 0 0 0 0 0 0 0 0 0 0 0 0 0 0 0 0 0 0 0 0 0 0 0 0 0 0 0 0 0 0 0 0 0 0 0 0 0 0 0 0 0 0 0 0 0 0 0 0 0 0 0 0 0 0 0 0 0 0 0 0 0 0 0 0 0 0 0 0 0 0 0 0 0 0 0 0 0 0 0 0 0 0 0 0 0 0 0 0 0 0 0 0 0 0 0 0 0 0 0 0 0 0 0 0 0 0 0 0 0 0 0 0 0 0 0 0 0 0 0 0 0 0 0 0 0 0 0 0 0 0 0 0 0 0 0 0 0 0 0 0 0 0 0 0 0 0 0 0 0 0 0 0 0 0 0 0 0 0 0 0 0 0 0 0 0 0 0 0 0 0 0 0 0 0 0 0 0 0 0 0 0 0 0 0 0 0 0 0 0 0 0 0 0 0 0 0 0 0 0 0 0 0 0 0 0 0 0 0 0 0 0 0 0 0 0 0 0 0 0 0 0 0 0 0 0 0 0 0 0 0 0 0 0 0 0 0 0 0 0 0 0 0 0 0 0 0 0 0 0 0 0 0 0 0 0 0 0 0 0 0 0 0 0 0 0 0 0
0 0 0 0 0 0 0 0 0 0 0 0 0 0 0 0 0 0 0 0 0 0 0 0 0 0 0 0 0 0 0 0 0 0 0 0 0 0 0 0 0 0 0 0 0 0 0 0 0 0 0 0 0 0 0 0 0 0 0 0 0 0 0 0 0 0 0 0 0 0 0 0 0 0 0 0 0 0 0 0 0 0 0 0 0 0 0 0 0 0 0 0 0 0 0 0 0 0 0 0 0 0 0 0 0 0 0 0 0 0 0 0 0 0 0 0 0 0 0 0 0 0 0 0 0 0 0 0 0 0 0 0 0 0 0 0 0 0 0 0 0 0 0 0 0 0 0 0 0 0 0 0 0 0 0 0 0 0 0 0 0 0 0 0 0 0 0 0 0 0 0 0 0 0 0 0 0 0 0 0 0 0 0 0 0 0 0 0 0 0 0 0 0 0 0 0 0 0 0 0 0 0 0 0 0 0 0 0 0 0 0 0 0 0 0 0 0 0 0 0 0 0 0 0 0 0 0 0 0 0 0 0 0 0 0 0 0 0 0 0 0 0 0 0 0 0 0 0 0 0 0 0 0 0 0 0 0 0 0 0 0 0 0 0 0 0 0 0 0 0 0 0 0 0 0 0 0 0 0 0 0 0 0 0 0 0 0 0 0 0 0 0 0 0 0 0 0 0 0 0 0 0 0 0 0 0 0 0 0 0 0 0 0 0 0 0 0 0 0 0 0 0 0 0 0 0 0 0 0 0 0 0 0 0 0 0 0 0 0 0 0 0 0 0 0 0 0 0 0 0 0 0 0 0 0 0 0 0 0 0 0 0 0 0 0 0 0 0 0 0 0 0 0 0 0 0 0 0 0 0 0 0 0 0 0 0 0 0 0 0 0 0 0 0 0 0 0 0 0 0 0 0 0 0 0 0 0 0 0 0 0 0 0 0 0 0 0 0 0 0 0 0 0 0 0 0 0 0 0 0 0 0 0 0 0 0 0 0 0 0 0 0 0 0 0 0 0 0 0 0 0 0 0 0 0 0 0 0 0 0 0 0 0 0 0 0 0 0 0 0 0 0 0 0 0 0 0 0 0 0 0 0 0 0 0 0 0 0 0 0 0 0 0 0 0 0 0 0 0 0 0 0 0 0 0 0 0 0 0 0 0 0 0 0 0 0 0 0 0 0 0 0 0 0 0 0 0 0 0 0 0 0 0 0 0 0 0 0 0 0 0 0 0 0 0 0 0 0 0 0 0 0 0 0 0 0 0 0 0 0 0 0 0 0 0 0 0 0 0 0 0 0 0 0 0 0 0 0 0 0 0 0 0 0 0 0 0 0 0 0 0 0 0 0 0 0 0 0 0 0 0 0 0 0 0 0 0 0 0 0 0 0 0 0 0 0 0 0 0 0 0 0 0 0 0 0 0 0 0 0 0 0 0 0 0 0 0 0 0 0 0 0 0 0 0 0 0 0 0 0 0 0 0 0 0 0 0 0 0 0 0 0 0 0 0 0 0 0 0 0 0 0 0 0 0 0 0 0 0 0 0 0 0 0 0 0 0 0 0 0 0 0 0 0 0 0 0 0 0 0 0 0 0 0 0 0 0 0 0 0 0 0 0 0 0 0 0 0 0 0
0 0 0 0 0 0 0 0 0 0 0 0 0 0 0 0 0 0 0 0 0 0 0 0 0 0 0 0 0 0 0 0 0 0 0 0 0 0 0 0 0 0 0 0 0 0 0 0 0 0 0 0 0 0 0 0 0 0 0 0 0 0 0 0 0 0 0 0 0 0 0 0 0 0 0 0 0 0 0 0 0 0 0 0 0 0 0 0 0 0 0 0 0 0 0 0 0 0 0 0 0 0 0 0 0 0 0 0 0 0 0 0 0 0 0 0 0 0 0 0 0 0 0 0 0 0 0 0 0 0 0 0 0 0 0 0 0 0 0 0 0 0 0 0 0 0 0 0 0 0 0 0 0 0 0 0 0 0 0 0 0 0 0 0 0 0 0 0 0 0 0 0 0 0 0 0 0 0 0 0 0 0 0 0 0 0 0 0 0 0 0 0 0 0 0 0 0 0 0 0 0 0 0 0 0 0 0 0 0 0 0 0 0 0 0 0 0 0 0 0 0 0 0 0 0 0 0 0 0 0 0 0 0 0 0 0 0 0 0 0 0 0 0 0 0 0 0 0 0 0 0 0 0 0 0 0 0 0 0 0 0 0 0 0 0 0 0 0 0 0 0 0 0 0 0 0 0 0 0 0 0 0 0 0 0 0 0 0 0 0 0 0 0 0 0 0 0 0 0 0 0 0 0 0 0 0 0 0 0 0 0 0 0 0 0 0 0 0 0 0 0 0 0 0 0 0 0 0 0 0 0 0 0 0 0 0 0 0 0 0 0 0 0 0 0 0 0 0 0 0 0 0 0 0 0 0 0 0 0 0 0 0 0 0 0 0 0 0 0 0 0 0 0 0 0 0 0 0 0 0 0 0 0 0 0 0 0 0 0 0 0 0 0 0 0 0 0 0 0 0 0 0 0 0 0 0 0 0 0 0 0 0 0 0 0 0 0 0 0 0 0 0 0 0 0 0 0 0 0 0 0 0 0 0 0 0 0 0 0 0 0 0 0 0 0 0 0 0 0 0 0 0 0 0 0 0 0 0 0 0 0 0 0 0 0 0 0 0 0 0 0 0 0 0 0 0 0 0 0 0 0 0 0 0 0 0 0 0 0 0 0 0 0 0 0 0 0 0 0 0 0 0 0 0 0 0 0 0 0 0 0 0 0 0 0 0 0 0 0 0 0 0 0 0 0 0 0 0 0 0 0 0 0 0 0 0 0 0 0 0 0 0 0 0 0 0 0 0 0 0 0 0 0 0 0 0 0 0 0 0 0 0 0 0 0 0 0 0 0 0 0 0 0 0 0 0 0 0 0 0 0 0 0 0 0 0 0 0 0 0 0 0 0 0 0 0 0 0 0 0 0 0 0 0 0 0 0 0 0 0 0 0 0 0 0 0 0 0 0 0 0 0 0 0 0 0 0 0 0 0 0 0 0 0 0 0 0 0 0 0 0 0 0 0 0 0 0 0 0 0 0 0 0 0 0 0 0 0 0 0 0 0 0 0 0 0 0 0 0 0 0 0 0 0 0 0 0 0 0 0 0 0 0 0 0 0 0 0 0 0 0 0 0 0 0 0 0 0 0 0 0 0 0 0 0 0 0 0 0 0 0 0 0 0 0 0 0 0 0 0
0 0 0 0 0 0 0 0 0 0 0 0 0 0 0 0 0 0 0 0 0 0 0 0 0 0 0 0 0 0 0 0 0 0 0 0 0 0 0 0 0 0 0 0 0 0 0 0 0 0 0 0 0 0 0 0 0 0 0 0 0 0 0 0 0 0 0 0 0 0 0 0 0 0 0 0 0 0 0 0 0 0 0 0 0 0 0 0 0 0 0 0 0 0 0 0 0 0 0 0 0 0 0 0 0 0 0 0 0 0 0 0 0 0 0 0 0 0 0 0 0 0 0 0 0 0 0 0 0 0 0 0 0 0 0 0 0 0 0 0 0 0 0 0 0 0 0 0 0 0 0 0 0 0 0 0 0 0 0 0 0 0 0 0 0 0 0 0 0 0 0 0 0 0 0 0 0 0 0 0 0 0 0 0 0 0 0 0 0 0 0 0 0 0 0 0 0 0 0 0 0 0 0 0 0 0 0 0 0 0 0 0 0 0 0 0 0 0 0 0 0 0 0 0 0 0 0 0 0 0 0 0 0 0 0 0 0 0 0 0 0 0 0 0 0 0 0 0 0 0 0 0 0 0 0 0 0 0 0 0 0 0 0 0 0 0 0 0 0 0 0 0 0 0 0 0 0 0 0 0 0 0 0 0 0 0 0 0 0 0 0 0 0 0 0 0 0 0 0 0 0 0 0 0 0 0 0 0 0 0 0 0 0 0 0 0 0 0 0 0 0 0 0 0 0 0 0 0 0 0 0 0 0 0 0 0 0 0 0 0 0 0 0 0 0 0 0 0 0 0 0 0 0 0 0 0 0 0 0 0 0 0 0 0 0 0 0 0 0 0 0 0 0 0 0 0 0 0 0 0 0 0 0 0 0 0 0 0 0 0 0 0 0 0 0 0 0 0 0 0 0 0 0 0 0 0 0 0 0 0 0 0 0 0 0 0 0 0 0 0 0 0 0 0 0 0 0 0 0 0 0 0 0 0 0 0 0 0 0 0 0 0 0 0 0 0 0 0 0 0 0 0 0 0 0 0 0 0 0 0 0 0 0 0 0 0 0 0 0 0 0 0 0 0 0 0 0 0 0 0 0 0 0 0 0 0 0 0 0 0 0 0 0 0 0 0 0 0 0 0 0 0 0 0 0 0 0 0 0 0 0 0 0 0 0 0 0 0 0 0 0 0 0 0 0 0 0 0 0 0 0 0 0 0 0 0 0 0 0 0 0 0 0 0 0 0 0 0 0 0 0 0 0 0 0 0 0 0 0 0 0 0 0 0 0 0 0 0 0 0 0 0 0 0 0 0 0 0 0 0 0 0 0 0 0 0 0 0 0 0 0 0 0 0 0 0 0 0 0 0 0 0 0 0 0 0 0 0 0 0 0 0 0 0 0 0 0 0 0 0 0 0 0 0 0 0 0 0 0 0 0 0 0 0 0 0 0 0 0 0 0 0 0 0 0 0 0 0 0 0 0 0 0 0 0 0 0 0 0 0 0 0 0 0 0 0 0 0 0 0 0 0 0 0 0 0 0 0 0 0 0 0 0 0 0 0 0 0 0 0 0 0 0 0 0 0 0 0 0 0 0 0 0 0 0 0 0 0 0 0 0 0 0 0 0 0 0 0 0 0
0 0 0 0 0 0 0 0 0 0 0 0 0 0 0 0 0 0 0 0 0 0 0 0 0 0 0 0 0 0 0 0 0 0 0 0 0 0 0 0 0 0 0 0 0 0 0 0 0 0 0 0 0 0 0 0 0 0 0 0 0 0 0 0 0 0 0 0 0 0 0 0 0 0 0 0 0 0 0 0 0 0 0 0 0 0 0 0 0 0 0 0 0 0 0 0 0 0 0 0 0 0 0 0 0 0 0 0 0 0 0 0 0 0 0 0 0 0 0 0 0 0 0 0 0 0 0 0 0 0 0 0 0 0 0 0 0 0 0 0 0 0 0 0 0 0 0 0 0 0 0 0 0 0 0 0 0 0 0 0 0 0 0 0 0 0 0 0 0 0 0 0 0 0 0 0 0 0 0 0 0 0 0 0 0 0 0 0 0 0 0 0 0 0 0 0 0 0 0 0 0 0 0 0 0 0 0 0 0 0 0 0 0 0 0 0 0 0 0 0 0 0 0 0 0 0 0 0 0 0 0 0 0 0 0 0 0 0 0 0 0 0 0 0 0 0 0 0 0 0 0 0 0 0 0 0 0 0 0 0 0 0 0 0 0 0 0 0 0 0 0 0 0 0 0 0 0 0 0 0 0 0 0 0 0 0 0 0 0 0 0 0 0 0 0 0 0 0 0 0 0 0 0 0 0 0 0 0 0 0 0 0 0 0 0 0 0 0 0 0 0 0 0 0 0 0 0 0 0 0 0 0 0 0 0 0 0 0 0 0 0 0 0 0 0 0 0 0 0 0 0 0 0 0 0 0 0 0 0 0 0 0 0 0 0 0 0 0 0 0 0 0 0 0 0 0 0 0 0 0 0 0 0 0 0 0 0 0 0 0 0 0 0 0 0 0 0 0 0 0 0 0 0 0 0 0 0 0 0 0 0 0 0 0 0 0 0 0 0 0 0 0 0 0 0 0 0 0 0 0 0 0 0 0 0 0 0 0 0 0 0 0 0 0 0 0 0 0 0 0 0 0 0 0 0 0 0 0 0 0 0 0 0 0 0 0 0 0 0 0 0 0 0 0 0 0 0 0 0 0 0 0 0 0 0 0 0 0 0 0 0 0 0 0 0 0 0 0 0 0 0 0 0 0 0 0 0 0 0 0 0 0 0 0 0 0 0 0 0 0 0 0 0 0 0 0 0 0 0 0 0 0 0 0 0 0 0 0 0 0 0 0 0 0 0 0 0 0 0 0 0 0 0 0 0 0 0 0 0 0 0 0 0 0 0 0 0 0 0 0 0 0 0 0 0 0 0 0 0 0 0 0 0 0 0 0 0 0 0 0 0 0 0 0 0 0 0 0 0 0 0 0 0 0 0 0 0 0 0 0 0 0 0 0 0 0 0 0 0 0 0 0 0 0 0 0 0 0 0 0 0 0 0 0 0 0 0 0 0 0 0 0 0 0 0 0 0 0 0 0 0 0 0 0 0 0 0 0 0 0 0 0 0 0 0 0 0 0 0 0 0 0 0 0 0 0 0 0 0 0 0 0 0 0 0 0 0 0 0 0 0 0 0 0 0 0 0 0 0 0 0 0 0 0 0 0 0 0 0 0 0 0 0 0 0 0 0 0 0 0
0 0 0 0 0 0 0 0 0 0 0 0 0 0 0 0 0 0 0 0 0 0 0 0 0 0 0 0 0 0 0 0 0 0 0 0 0 0 0 0 0 0 0 0 0 0 0 0 0 0 0 0 0 0 0 0 0 0 0 0 0 0 0 0 0 0 0 0 0 0 0 0 0 0 0 0 0 0 0 0 0 0 0 0 0 0 0 0 0 0 0 0 0 0 0 0 0 0 0 0 0 0 0 0 0 0 0 0 0 0 0 0 0 0 0 0 0 0 0 0 0 0 0 0 0 0 0 0 0 0 0 0 0 0 0 0 0 0 0 0 0 0 0 0 0 0 0 0 0 0 0 0 0 0 0 0 0 0 0 0 0 0 0 0 0 0 0 0 0 0 0 0 0 0 0 0 0 0 0 0 0 0 0 0 0 0 0 0 0 0 0 0 0 0 0 0 0 0 0 0 0 0 0 0 0 0 0 0 0 0 0 0 0 0 0 0 0 0 0 0 0 0 0 0 0 0 0 0 0 0 0 0 0 0 0 0 0 0 0 0 0 0 0 0 0 0 0 0 0 0 0 0 0 0 0 0 0 0 0 0 0 0 0 0 0 0 0 0 0 0 0 0 0 0 0 0 0 0 0 0 0 0 0 0 0 0 0 0 0 0 0 0 0 0 0 0 0 0 0 0 0 0 0 0 0 0 0 0 0 0 0 0 0 0 0 0 0 0 0 0 0 0 0 0 0 0 0 0 0 0 0 0 0 0 0 0 0 0 0 0 0 0 0 0 0 0 0 0 0 0 0 0 0 0 0 0 0 0 0 0 0 0 0 0 0 0 0 0 0 0 0 0 0 0 0 0 0 0 0 0 0 0 0 0 0 0 0 0 0 0 0 0 0 0 0 0 0 0 0 0 0 0 0 0 0 0 0 0 0 0 0 0 0 0 0 0 0 0 0 0 0 0 0 0 0 0 0 0 0 0 0 0 0 0 0 0 0 0 0 0 0 0 0 0 0 0 0 0 0 0 0 0 0 0 0 0 0 0 0 0 0 0 0 0 0 0 0 0 0 0 0 0 0 0 0 0 0 0 0 0 0 0 0 0 0 0 0 0 0 0 0 0 0 0 0 0 0 0 0 0 0 0 0 0 0 0 0 0 0 0 0 0 0 0 0 0 0 0 0 0 0 0 0 0 0 0 0 0 0 0 0 0 0 0 0 0 0 0 0 0 0 0 0 0 0 0 0 0 0 0 0 0 0 0 0 0 0 0 0 0 0 0 0 0 0 0 0 0 0 0 0 0 0 0 0 0 0 0 0 0 0 0 0 0 0 0 0 0 0 0 0 0 0 0 0 0 0 0 0 0 0 0 0 0 0 0 0 0 0 0 0 0 0 0 0 0 0 0 0 0 0 0 0 0 0 0 0 0 0 0 0 0 0 0 0 0 0 0 0 0 0 0 0 0 0 0 0 0 0 0 0 0 0 0 0 0 0 0 0 0 0 0 0 0 0 0 0 0 0 0 0 0 0 0 0 0 0 0 0 0 0 0 0 0 0 0 0 0 0 0 0 0 0 0 0 0 0 0 0 0 0 0 0 0 0 0 0 0 0 0 0 0 0 0 0 0 0 0 0 0
0 0 0 0 0 0 0 0 0 0 0 0 0 0 0 0 0 0 0 0 0 0 0 0 0 0 0 0 0 0 0 0 0 0 0 0 0 0 0 0 0 0 0 0 0 0 0 0 0 0 0 0 0 0 0 0 0 0 0 0 0 0 0 0 0 0 0 0 0 0 0 0 0 0 0 0 0 0 0 0 0 0 0 0 0 0 0 0 0 0 0 0 0 0 0 0 0 0 0 0 0 0 0 0 0 0 0 0 0 0 0 0 0 0 0 0 0 0 0 0 0 0 0 0 0 0 0 0 0 0 0 0 0 0 0 0 0 0 0 0 0 0 0 0 0 0 0 0 0 0 0 0 0 0 0 0 0 0 0 0 0 0 0 0 0 0 0 0 0 0 0 0 0 0 0 0 0 0 0 0 0 0 0 0 0 0 0 0 0 0 0 0 0 0 0 0 0 0 0 0 0 0 0 0 0 0 0 0 0 0 0 0 0 0 0 0 0 0 0 0 0 0 0 0 0 0 0 0 0 0 0 0 0 0 0 0 0 0 0 0 0 0 0 0 0 0 0 0 0 0 0 0 0 0 0 0 0 0 0 0 0 0 0 0 0 0 0 0 0 0 0 0 0 0 0 0 0 0 0 0 0 0 0 0 0 0 0 0 0 0 0 0 0 0 0 0 0 0 0 0 0 0 0 0 0 0 0 0 0 0 0 0 0 0 0 0 0 0 0 0 0 0 0 0 0 0 0 0 0 0 0 0 0 0 0 0 0 0 0 0 0 0 0 0 0 0 0 0 0 0 0 0 0 0 0 0 0 0 0 0 0 0 0 0 0 0 0 0 0 0 0 0 0 0 0 0 0 0 0 0 0 0 0 0 0 0 0 0 0 0 0 0 0 0 0 0 0 0 0 0 0 0 0 0 0 0 0 0 0 0 0 0 0 0 0 0 0 0 0 0 0 0 0 0 0 0 0 0 0 0 0 0 0 0 0 0 0 0 0 0 0 0 0 0 0 0 0 0 0 0 0 0 0 0 0 0 0 0 0 0 0 0 0 0 0 0 0 0 0 0 0 0 0 0 0 0 0 0 0 0 0 0 0 0 0 0 0 0 0 0 0 0 0 0 0 0 0 0 0 0 0 0 0 0 0 0 0 0 0 0 0 0 0 0 0 0 0 0 0 0 0 0 0 0 0 0 0 0 0 0 0 0 0 0 0 0 0 0 0 0 0 0 0 0 0 0 0 0 0 0 0 0 0 0 0 0 0 0 0 0 0 0 0 0 0 0 0 0 0 0 0 0 0 0 0 0 0 0 0 0 0 0 0 0 0 0 0 0 0 0 0 0 0 0 0 0 0 0 0 0 0 0 0 0 0 0 0 0 0 0 0 0 0 0 0 0 0 0 0 0 0 0 0 0 0 0 0 0 0 0 0 0 0 0 0 0 0 0 0 0 0 0 0 0 0 0 0 0 0 0 0 0 0 0 0 0 0 0 0 0 0 0 0 0 0 0 0 0 0 0 0 0 0 0 0 0 0 0 0 0 0 0 0 0 0 0 0 0 0 0 0 0 0 0 0 0 0 0 0 0 0 0 0 0 0 0 0 0 0 0 0 0 0 0 0 0 0 0 0 0
0 0 0 0 0 0 0 0 0 0 0 0 0 0 0 0 0 0 0 0 0 0 0 0 0 0 0 0 0 0 0 0 0 0 0 0 0 0 0 0 0 0 0 0 0 0 0 0 0 0 0 0 0 0 0 0 0 0 0 0 0 0 0 0 0 0 0 0 0 0 0 0 0 0 0 0 0 0 0 0 0 0 0 0 0 0 0 0 0 0 0 0 0 0 0 0 0 0 0 0 0 0 0 0 0 0 0 0 0 0 0 0 0 0 0 0 0 0 0 0 0 0 0 0 0 0 0 0 0 0 0 0 0 0 0 0 0 0 0 0 0 0 0 0 0 0 0 0 0 0 0 0 0 0 0 0 0 0 0 0 0 0 0 0 0 0 0 0 0 0 0 0 0 0 0 0 0 0 0 0 0 0 0 0 0 0 0 0 0 0 0 0 0 0 0 0 0 0 0 0 0 0 0 0 0 0 0 0 0 0 0 0 0 0 0 0 0 0 0 0 0 0 0 0 0 0 0 0 0 0 0 0 0 0 0 0 0 0 0 0 0 0 0 0 0 0 0 0 0 0 0 0 0 0 0 0 0 0 0 0 0 0 0 0 0 0 0 0 0 0 0 0 0 0 0 0 0 0 0 0 0 0 0 0 0 0 0 0 0 0 0 0 0 0 0 0 0 0 0 0 0 0 0 0 0 0 0 0 0 0 0 0 0 0 0 0 0 0 0 0 0 0 0 0 0 0 0 0 0 0 0 0 0 0 0 0 0 0 0 0 0 0 0 0 0 0 0 0 0 0 0 0 0 0 0 0 0 0 0 0 0 0 0 0 0 0 0 0 0 0 0 0 0 0 0 0 0 0 0 0 0 0 0 0 0 0 0 0 0 0 0 0 0 0 0 0 0 0 0 0 0 0 0 0 0 0 0 0 0 0 0 0 0 0 0 0 0 0 0 0 0 0 0 0 0 0 0 0 0 0 0 0 0 0 0 0 0 0 0 0 0 0 0 0 0 0 0 0 0 0 0 0 0 0 0 0 0 0 0 0 0 0 0 0 0 0 0 0 0 0 0 0 0 0 0 0 0 0 0 0 0 0 0 0 0 0 0 0 0 0 0 0 0 0 0 0 0 0 0 0 0 0 0 0 0 0 0 0 0 0 0 0 0 0 0 0 0 0 0 0 0 0 0 0 0 0 0 0 0 0 0 0 0 0 0 0 0 0 0 0 0 0 0 0 0 0 0 0 0 0 0 0 0 0 0 0 0 0 0 0 0 0 0 0 0 0 0 0 0 0 0 0 0 0 0 0 0 0 0 0 0 0 0 0 0 0 0 0 0 0 0 0 0 0 0 0 0 0 0 0 0 0 0 0 0 0 0 0 0 0 0 0 0 0 0 0 0 0 0 0 0 0 0 0 0 0 0 0 0 0 0 0 0 0 0 0 0 0 0 0 0 0 0 0 0 0 0 0 0 0 0 0 0 0 0 0 0 0 0 0 0 0 0 0 0 0 0 0 0 0 0 0 0 0 0 0 0 0 0 0 0 0 0 0 0 0 0 0 0 0 0 0 0 0 0 0 0 0 0 0 0 0 0 0 0 0 0 0 0 0 0 0 0 0 0 0 0 0 0 0
0 0 0 0 0 0 0 0 0 0 0 0 0 0 0 0 0 0 0 0 0 0 0 0 0 0 0 0 0 0 0 0 0 0 0 0 0 0 0 0 0 0 0 0 0 0 0 0 0 0 0 0 0 0 0 0 0 0 0 0 0 0 0 0 0 0 0 0 0 0 0 0 0 0 0 0 0 0 0 0 0 0 0 0 0 0 0 0 0 0 0 0 0 0 0 0 0 0 0 0 0 0 0 0 0 0 0 0 0 0 0 0 0 0 0 0 0 0 0 0 0 0 0 0 0 0 0 0 0 0 0 0 0 0 0 0 0 0 0 0 0 0 0 0 0 0 0 0 0 0 0 0 0 0 0 0 0 0 0 0 0 0 0 0 0 0 0 0 0 0 0 0 0 0 0 0 0 0 0 0 0 0 0 0 0 0 0 0 0 0 0 0 0 0 0 0 0 0 0 0 0 0 0 0 0 0 0 0 0 0 0 0 0 0 0 0 0 0 0 0 0 0 0 0 0 0 0 0 0 0 0 0 0 0 0 0 0 0 0 0 0 0 0 0 0 0 0 0 0 0 0 0 0 0 0 0 0 0 0 0 0 0 0 0 0 0 0 0 0 0 0 0 0 0 0 0 0 0 0 0 0 0 0 0 0 0 0 0 0 0 0 0 0 0 0 0 0 0 0 0 0 0 0 0 0 0 0 0 0 0 0 0 0 0 0 0 0 0 0 0 0 0 0 0 0 0 0 0 0 0 0 0 0 0 0 0 0 0 0 0 0 0 0 0 0 0 0 0 0 0 0 0 0 0 0 0 0 0 0 0 0 0 0 0 0 0 0 0 0 0 0 0 0 0 0 0 0 0 0 0 0 0 0 0 0 0 0 0 0 0 0 0 0 0 0 0 0 0 0 0 0 0 0 0 0 0 0 0 0 0 0 0 0 0 0 0 0 0 0 0 0 0 0 0 0 0 0 0 0 0 0 0 0 0 0 0 0 0 0 0 0 0 0 0 0 0 0 0 0 0 0 0 0 0 0 0 0 0 0 0 0 0 0 0 0 0 0 0 0 0 0 0 0 0 0 0 0 0 0 0 0 0 0 0 0 0 0 0 0 0 0 0 0 0 0 0 0 0 0 0 0 0 0 0 0 0 0 0 0 0 0 0 0 0 0 0 0 0 0 0 0 0 0 0 0 0 0 0 0 0 0 0 0 0 0 0 0 0 0 0 0 0 0 0 0 0 0 0 0 0 0 0 0 0 0 0 0 0 0 0 0 0 0 0 0 0 0 0 0 0 0 0 0 0 0 0 0 0 0 0 0 0 0 0 0 0 0 0 0 0 0 0 0 0 0 0 0 0 0 0 0 0 0 0 0 0 0 0 0 0 0 0 0 0 0 0 0 0 0 0 0 0 0 0 0 0 0 0 0 0 0 0 0 0 0 0 0 0 0 0 0 0 0 0 0 0 0 0 0 0 0 0 0 0 0 0 0 0 0 0 0 0 0 0 0 0 0 0 0 0 0 0 0 0 0 0 0 0 0 0 0 0 0 0 0 0 0 0 0 0 0 0 0 0 0 0 0 0 0 0 0 0 0 0 0 0 0 0 0 0 0 0 0 0 0 0 0 0 0 0
0 0 0 0 0 0 0 0 0 0 0 0 0 0 0 0 0 0 0 0 0 0 0 0 0 0 0 0 0 0 0 0 0 0 0 0 0 0 0 0 0 0 0 0 0 0 0 0 0 0 0 0 0 0 0 0 0 0 0 0 0 0 0 0 0 0 0 0 0 0 0 0 0 0 0 0 0 0 0 0 0 0 0 0 0 0 0 0 0 0 0 0 0 0 0 0 0 0 0 0 0 0 0 0 0 0 0 0 0 0 0 0 0 0 0 0 0 0 0 0 0 0 0 0 0 0 0 0 0 0 0 0 0 0 0 0 0 0 0 0 0 0 0 0 0 0 0 0 0 0 0 0 0 0 0 0 0 0 0 0 0 0 0 0 0 0 0 0 0 0 0 0 0 0 0 0 0 0 0 0 0 0 0 0 0 0 0 0 0 0 0 0 0 0 0 0 0 0 0 0 0 0 0 0 0 0 0 0 0 0 0 0 0 0 0 0 0 0 0 0 0 0 0 0 0 0 0 0 0 0 0 0 0 0 0 0 0 0 0 0 0 0 0 0 0 0 0 0 0 0 0 0 0 0 0 0 0 0 0 0 0 0 0 0 0 0 0 0 0 0 0 0 0 0 0 0 0 0 0 0 0 0 0 0 0 0 0 0 0 0 0 0 0 0 0 0 0 0 0 0 0 0 0 0 0 0 0 0 0 0 0 0 0 0 0 0 0 0 0 0 0 0 0 0 0 0 0 0 0 0 0 0 0 0 0 0 0 0 0 0 0 0 0 0 0 0 0 0 0 0 0 0 0 0 0 0 0 0 0 0 0 0 0 0 0 0 0 0 0 0 0 0 0 0 0 0 0 0 0 0 0 0 0 0 0 0 0 0 0 0 0 0 0 0 0 0 0 0 0 0 0 0 0 0 0 0 0 0 0 0 0 0 0 0 0 0 0 0 0 0 0 0 0 0 0 0 0 0 0 0 0 0 0 0 0 0 0 0 0 0 0 0 0 0 0 0 0 0 0 0 0 0 0 0 0 0 0 0 0 0 0 0 0 0 0 0 0 0 0 0 0 0 0 0 0 0 0 0 0 0 0 0 0 0 0 0 0 0 0 0 0 0 0 0 0 0 0 0 0 0 0 0 0 0 0 0 0 0 0 0 0 0 0 0 0 0 0 0 0 0 0 0 0 0 0 0 0 0 0 0 0 0 0 0 0 0 0 0 0 0 0 0 0 0 0 0 0 0 0 0 0 0 0 0 0 0 0 0 0 0 0 0 0 0 0 0 0 0 0 0 0 0 0 0 0 0 0 0 0 0 0 0 0 0 0 0 0 0 0 0 0 0 0 0 0 0 0 0 0 0 0 0 0 0 0 0 0 0 0 0 0 0 0 0 0 0 0 0 0 0 0 0 0 0 0 0 0 0 0 0 0 0 0 0 0 0 0 0 0 0 0 0 0 0 0 0 0 0 0 0 0 0 0 0 0 0 0 0 0 0 0 0 0 0 0 0 0 0 0 0 0 0 0 0 0 0 0 0 0 0 0 0 0 0 0 0 0 0 0 0 0 0 0 0 0 0 0 0 0 0 0 0 0 0 0 0 0 0 0 0 0 0 0 0 0 0 0 0 0 0
0 0 0 0 0 0 0 0 0 0 0 0 0 0 0 0 0 0 0 0 0 0 0 0 0 0 0 0 0 0 0 0 0 0 0 0 0 0 0 0 0 0 0 0 0 0 0 0 0 0 0 0 0 0 0 0 0 0 0 0 0 0 0 0 0 0 0 0 0 0 0 0 0 0 0 0 0 0 0 0 0 0 0 0 0 0 0 0 0 0 0 0 0 0 0 0 0 0 0 0 0 0 0 0 0 0 0 0 0 0 0 0 0 0 0 0 0 0 0 0 0 0 0 0 0 0 0 0 0 0 0 0 0 0 0 0 0 0 0 0 0 0 0 0 0 0 0 0 0 0 0 0 0 0 0 0 0 0 0 0 0 0 0 0 0 0 0 0 0 0 0 0 0 0 0 0 0 0 0 0 0 0 0 0 0 0 0 0 0 0 0 0 0 0 0 0 0 0 0 0 0 0 0 0 0 0 0 0 0 0 0 0 0 0 0 0 0 0 0 0 0 0 0 0 0 0 0 0 0 0 0 0 0 0 0 0 0 0 0 0 0 0 0 0 0 0 0 0 0 0 0 0 0 0 0 0 0 0 0 0 0 0 0 0 0 0 0 0 0 0 0 0 0 0 0 0 0 0 0 0 0 0 0 0 0 0 0 0 0 0 0 0 0 0 0 0 0 0 0 0 0 0 0 0 0 0 0 0 0 0 0 0 0 0 0 0 0 0 0 0 0 0 0 0 0 0 0 0 0 0 0 0 0 0 0 0 0 0 0 0 0 0 0 0 0 0 0 0 0 0 0 0 0 0 0 0 0 0 0 0 0 0 0 0 0 0 0 0 0 0 0 0 0 0 0 0 0 0 0 0 0 0 0 0 0 0 0 0 0 0 0 0 0 0 0 0 0 0 0 0 0 0 0 0 0 0 0 0 0 0 0 0 0 0 0 0 0 0 0 0 0 0 0 0 0 0 0 0 0 0 0 0 0 0 0 0 0 0 0 0 0 0 0 0 0 0 0 0 0 0 0 0 0 0 0 0 0 0 0 0 0 0 0 0 0 0 0 0 0 0 0 0 0 0 0 0 0 0 0 0 0 0 0 0 0 0 0 0 0 0 0 0 0 0 0 0 0 0 0 0 0 0 0 0 0 0 0 0 0 0 0 0 0 0 0 0 0 0 0 0 0 0 0 0 0 0 0 0 0 0 0 0 0 0 0 0 0 0 0 0 0 0 0 0 0 0 0 0 0 0 0 0 0 0 0 0 0 0 0 0 0 0 0 0 0 0 0 0 0 0 0 0 0 0 0 0 0 0 0 0 0 0 0 0 0 0 0 0 0 0 0 0 0 0 0 0 0 0 0 0 0 0 0 0 0 0 0 0 0 0 0 0 0 0 0 0 0 0 0 0 0 0 0 0 0 0 0 0 0 0 0 0 0 0 0 0 0 0 0 0 0 0 0 0 0 0 0 0 0 0 0 0 0 0 0 0 0 0 0 0 0 0 0 0 0 0 0 0 0 0 0 0 0 0 0 0 0 0 0 0 0 0 0 0 0 0 0 0 0 0 0 0 0 0 0 0 0 0 0 0 0 0 0 0 0 0 0 0 0 0 0 0 0 0 0 0 0 0 0 0
0 0 0 0 0 0 0 0 0 0 0 0 0 0 0 0 0 0 0 0 0 0 0 0 0 0 0 0 0 0 0 0 0 0 0 0 0 0 0 0 0 0 0 0 0 0 0 0 0 0 0 0 0 0 0 0 0 0 0 0 0 0 0 0 0 0 0 0 0 0 0 0 0 0 0 0 0 0 0 0 0 0 0 0 0 0 0 0 0 0 0 0 0 0 0 0 0 0 0 0 0 0 0 0 0 0 0 0 0 0 0 0 0 0 0 0 0 0 0 0 0 0 0 0 0 0 0 0 0 0 0 0 0 0 0 0 0 0 0 0 0 0 0 0 0 0 0 0 0 0 0 0 0 0 0 0 0 0 0 0 0 0 0 0 0 0 0 0 0 0 0 0 0 0 0 0 0 0 0 0 0 0 0 0 0 0 0 0 0 0 0 0 0 0 0 0 0 0 0 0 0 0 0 0 0 0 0 0 0 0 0 0 0 0 0 0 0 0 0 0 0 0 0 0 0 0 0 0 0 0 0 0 0 0 0 0 0 0 0 0 0 0 0 0 0 0 0 0 0 0 0 0 0 0 0 0 0 0 0 0 0 0 0 0 0 0 0 0 0 0 0 0 0 0 0 0 0 0 0 0 0 0 0 0 0 0 0 0 0 0 0 0 0 0 0 0 0 0 0 0 0 0 0 0 0 0 0 0 0 0 0 0 0 0 0 0 0 0 0 0 0 0 0 0 0 0 0 0 0 0 0 0 0 0 0 0 0 0 0 0 0 0 0 0 0 0 0 0 0 0 0 0 0 0 0 0 0 0 0 0 0 0 0 0 0 0 0 0 0 0 0 0 0 0 0 0 0 0 0 0 0 0 0 0 0 0 0 0 0 0 0 0 0 0 0 0 0 0 0 0 0 0 0 0 0 0 0 0 0 0 0 0 0 0 0 0 0 0 0 0 0 0 0 0 0 0 0 0 0 0 0 0 0 0 0 0 0 0 0 0 0 0 0 0 0 0 0 0 0 0 0 0 0 0 0 0 0 0 0 0 0 0 0 0 0 0 0 0 0 0 0 0 0 0 0 0 0 0 0 0 0 0 0 0 0 0 0 0 0 0 0 0 0 0 0 0 0 0 0 0 0 0 0 0 0 0 0 0 0 0 0 0 0 0 0 0 0 0 0 0 0 0 0 0 0 0 0 0 0 0 0 0 0 0 0 0 0 0 0 0 0 0 0 0 0 0 0 0 0 0 0 0 0 0 0 0 0 0 0 0 0 0 0 0 0 0 0 0 0 0 0 0 0 0 0 0 0 0 0 0 0 0 0 0 0 0 0 0 0 0 0 0 0 0 0 0 0 0 0 0 0 0 0 0 0 0 0 0 0 0 0 0 0 0 0 0 0 0 0 0 0 0 0 0 0 0 0 0 0 0 0 0 0 0 0 0 0 0 0 0 0 0 0 0 0 0 0 0 0 0 0 0 0 0 0 0 0 0 0 0 0 0 0 0 0 0 0 0 0 0 0 0 0 0 0 0 0 0 0 0 0 0 0 0 0 0 0 0 0 0 0 0 0 0 0 0 0 0 0 0 0 0 0 0 0 0 0 0 0 0 0 0 0 0 0 0 0 0 0 0
0 0 0 0 0 0 0 0 0 0 0 0 0 0 0 0 0 0 0 0 0 0 0 0 0 0 0 0 0 0 0 0 0 0 0 0 0 0 0 0 0 0 0 0 0 0 0 0 0 0 0 0 0 0 0 0 0 0 0 0 0 0 0 0 0 0 0 0 0 0 0 0 0 0 0 0 0 0 0 0 0 0 0 0 0 0 0 0 0 0 0 0 0 0 0 0 0 0 0 0 0 0 0 0 0 0 0 0 0 0 0 0 0 0 0 0 0 0 0 0 0 0 0 0 0 0 0 0 0 0 0 0 0 0 0 0 0 0 0 0 0 0 0 0 0 0 0 0 0 0 0 0 0 0 0 0 0 0 0 0 0 0 0 0 0 0 0 0 0 0 0 0 0 0 0 0 0 0 0 0 0 0 0 0 0 0 0 0 0 0 0 0 0 0 0 0 0 0 0 0 0 0 0 0 0 0 0 0 0 0 0 0 0 0 0 0 0 0 0 0 0 0 0 0 0 0 0 0 0 0 0 0 0 0 0 0 0 0 0 0 0 0 0 0 0 0 0 0 0 0 0 0 0 0 0 0 0 0 0 0 0 0 0 0 0 0 0 0 0 0 0 0 0 0 0 0 0 0 0 0 0 0 0 0 0 0 0 0 0 0 0 0 0 0 0 0 0 0 0 0 0 0 0 0 0 0 0 0 0 0 0 0 0 0 0 0 0 0 0 0 0 0 0 0 0 0 0 0 0 0 0 0 0 0 0 0 0 0 0 0 0 0 0 0 0 0 0 0 0 0 0 0 0 0 0 0 0 0 0 0 0 0 0 0 0 0 0 0 0 0 0 0 0 0 0 0 0 0 0 0 0 0 0 0 0 0 0 0 0 0 0 0 0 0 0 0 0 0 0 0 0 0 0 0 0 0 0 0 0 0 0 0 0 0 0 0 0 0 0 0 0 0 0 0 0 0 0 0 0 0 0 0 0 0 0 0 0 0 0 0 0 0 0 0 0 0 0 0 0 0 0 0 0 0 0 0 0 0 0 0 0 0 0 0 0 0 0 0 0 0 0 0 0 0 0 0 0 0 0 0 0 0 0 0 0 0 0 0 0 0 0 0 0 0 0 0 0 0 0 0 0 0 0 0 0 0 0 0 0 0 0 0 0 0 0 0 0 0 0 0 0 0 0 0 0 0 0 0 0 0 0 0 0 0 0 0 0 0 0 0 0 0 0 0 0 0 0 0 0 0 0 0 0 0 0 0 0 0 0 0 0 0 0 0 0 0 0 0 0 0 0 0 0 0 0 0 0 0 0 0 0 0 0 0 0 0 0 0 0 0 0 0 0 0 0 0 0 0 0 0 0 0 0 0 0 0 0 0 0 0 0 0 0 0 0 0 0 0 0 0 0 0 0 0 0 0 0 0 0 0 0 0 0 0 0 0 0 0 0 0 0 0 0 0 0 0 0 0 0 0 0 0 0 0 0 0 0 0 0 0 0 0 0 0 0 0 0 0 0 0 0 0 0 0 0 0 0 0 0 0 0 0 0 0 0 0 0 0 0 0 0 0 0 0 0 0 0 0 0 0 0 0 0 0 0 0 0 0 0 0 0 0 0 0 0 0 0 0 0 0
0 0 0 0 0 0 0 0 0 0 0 0 0 0 0 0 0 0 0 0 0 0 0 0 0 0 0 0 0 0 0 0 0 0 0 0 0 0 0 0 0 0 0 0 0 0 0 0 0 0 0 0 0 0 0 0 0 0 0 0 0 0 0 0 0 0 0 0 0 0 0 0 0 0 0 0 0 0 0 0 0 0 0 0 0 0 0 0 0 0 0 0 0 0 0 0 0 0 0 0 0 0 0 0 0 0 0 0 0 0 0 0 0 0 0 0 0 0 0 0 0 0 0 0 0 0 0 0 0 0 0 0 0 0 0 0 0 0 0 0 0 0 0 0 0 0 0 0 0 0 0 0 0 0 0 0 0 0 0 0 0 0 0 0 0 0 0 0 0 0 0 0 0 0 0 0 0 0 0 0 0 0 0 0 0 0 0 0 0 0 0 0 0 0 0 0 0 0 0 0 0 0 0 0 0 0 0 0 0 0 0 0 0 0 0 0 0 0 0 0 0 0 0 0 0 0 0 0 0 0 0 0 0 0 0 0 0 0 0 0 0 0 0 0 0 0 0 0 0 0 0 0 0 0 0 0 0 0 0 0 0 0 0 0 0 0 0 0 0 0 0 0 0 0 0 0 0 0 0 0 0 0 0 0 0 0 0 0 0 0 0 0 0 0 0 0 0 0 0 0 0 0 0 0 0 0 0 0 0 0 0 0 0 0 0 0 0 0 0 0 0 0 0 0 0 0 0 0 0 0 0 0 0 0 0 0 0 0 0 0 0 0 0 0 0 0 0 0 0 0 0 0 0 0 0 0 0 0 0 0 0 0 0 0 0 0 0 0 0 0 0 0 0 0 0 0 0 0 0 0 0 0 0 0 0 0 0 0 0 0 0 0 0 0 0 0 0 0 0 0 0 0 0 0 0 0 0 0 0 0 0 0 0 0 0 0 0 0 0 0 0 0 0 0 0 0 0 0 0 0 0 0 0 0 0 0 0 0 0 0 0 0 0 0 0 0 0 0 0 0 0 0 0 0 0 0 0 0 0 0 0 0 0 0 0 0 0 0 0 0 0 0 0 0 0 0 0 0 0 0 0 0 0 0 0 0 0 0 0 0 0 0 0 0 0 0 0 0 0 0 0 0 0 0 0 0 0 0 0 0 0 0 0 0 0 0 0 0 0 0 0 0 0 0 0 0 0 0 0 0 0 0 0 0 0 0 0 0 0 0 0 0 0 0 0 0 0 0 0 0 0 0 0 0 0 0 0 0 0 0 0 0 0 0 0 0 0 0 0 0 0 0 0 0 0 0 0 0 0 0 0 0 0 0 0 0 0 0 0 0 0 0 0 0 0 0 0 0 0 0 0 0 0 0 0 0 0 0 0 0 0 0 0 0 0 0 0 0 0 0 0 0 0 0 0 0 0 0 0 0 0 0 0 0 0 0 0 0 0 0 0 0 0 0 0 0 0 0 0 0 0 0 0 0 0 0 0 0 0 0 0 0 0 0 0 0 0 0 0 0 0 0 0 0 0 0 0 0 0 0 0 0 0 0 0 0 0 0 0 0 0 0 0 0 0 0 0 0 0 0 0 0 0 0 0 0 0 0 0 0 0 0 0 0 0 0 0 0 0 0
0 0 0 0 0 0 0 0 0 0 0 0 0 0 0 0 0 0 0 0 0 0 0 0 0 0 0 0 0 0 0 0 0 0 0 0 0 0 0 0 0 0 0 0 0 0 0 0 0 0 0 0 0 0 0 0 0 0 0 0 0 0 0 0 0 0 0 0 0 0 0 0 0 0 0 0 0 0 0 0 0 0 0 0 0 0 0 0 0 0 0 0 0 0 0 0 0 0 0 0 0 0 0 0 0 0 0 0 0 0 0 0 0 0 0 0 0 0 0 0 0 0 0 0 0 0 0 0 0 0 0 0 0 0 0 0 0 0 0 0 0 0 0 0 0 0 0 0 0 0 0 0 0 0 0 0 0 0 0 0 0 0 0 0 0 0 0 0 0 0 0 0 0 0 0 0 0 0 0 0 0 0 0 0 0 0 0 0 0 0 0 0 0 0 0 0 0 0 0 0 0 0 0 0 0 0 0 0 0 0 0 0 0 0 0 0 0 0 0 0 0 0 0 0 0 0 0 0 0 0 0 0 0 0 0 0 0 0 0 0 0 0 0 0 0 0 0 0 0 0 0 0 0 0 0 0 0 0 0 0 0 0 0 0 0 0 0 0 0 0 0 0 0 0 0 0 0 0 0 0 0 0 0 0 0 0 0 0 0 0 0 0 0 0 0 0 0 0 0 0 0 0 0 0 0 0 0 0 0 0 0 0 0 0 0 0 0 0 0 0 0 0 0 0 0 0 0 0 0 0 0 0 0 0 0 0 0 0 0 0 0 0 0 0 0 0 0 0 0 0 0 0 0 0 0 0 0 0 0 0 0 0 0 0 0 0 0 0 0 0 0 0 0 0 0 0 0 0 0 0 0 0 0 0 0 0 0 0 0 0 0 0 0 0 0 0 0 0 0 0 0 0 0 0 0 0 0 0 0 0 0 0 0 0 0 0 0 0 0 0 0 0 0 0 0 0 0 0 0 0 0 0 0 0 0 0 0 0 0 0 0 0 0 0 0 0 0 0 0 0 0 0 0 0 0 0 0 0 0 0 0 0 0 0 0 0 0 0 0 0 0 0 0 0 0 0 0 0 0 0 0 0 0 0 0 0 0 0 0 0 0 0 0 0 0 0 0 0 0 0 0 0 0 0 0 0 0 0 0 0 0 0 0 0 0 0 0 0 0 0 0 0 0 0 0 0 0 0 0 0 0 0 0 0 0 0 0 0 0 0 0 0 0 0 0 0 0 0 0 0 0 0 0 0 0 0 0 0 0 0 0 0 0 0 0 0 0 0 0 0 0 0 0 0 0 0 0 0 0 0 0 0 0 0 0 0 0 0 0 0 0 0 0 0 0 0 0 0 0 0 0 0 0 0 0 0 0 0 0 0 0 0 0 0 0 0 0 0 0 0 0 0 0 0 0 0 0 0 0 0 0 0 0 0 0 0 0 0 0 0 0 0 0 0 0 0 0 0 0 0 0 0 0 0 0 0 0 0 0 0 0 0 0 0 0 0 0 0 0 0 0 0 0 0 0 0 0 0 0 0 0 0 0 0 0 0 0 0 0 0 0 0 0 0 0 0 0 0 0 0 0 0 0 0 0 0 0 0 0 0 0 0 0 0 0 0 0 0 0 0
0 0 0 0 0 0 0 0 0 0 0 0 0 0 0 0 0 0 0 0 0 0 0 0 0 0 0 0 0 0 0 0 0 0 0 0 0 0 0 0 0 0 0 0 0 0 0 0 0 0 0 0 0 0 0 0 0 0 0 0 0 0 0 0 0 0 0 0 0 0 0 0 0 0 0 0 0 0 0 0 0 0 0 0 0 0 0 0 0 0 0 0 0 0 0 0 0 0 0 0 0 0 0 0 0 0 0 0 0 0 0 0 0 0 0 0 0 0 0 0 0 0 0 0 0 0 0 0 0 0 0 0 0 0 0 0 0 0 0 0 0 0 0 0 0 0 0 0 0 0 0 0 0 0 0 0 0 0 0 0 0 0 0 0 0 0 0 0 0 0 0 0 0 0 0 0 0 0 0 0 0 0 0 0 0 0 0 0 0 0 0 0 0 0 0 0 0 0 0 0 0 0 0 0 0 0 0 0 0 0 0 0 0 0 0 0 0 0 0 0 0 0 0 0 0 0 0 0 0 0 0 0 0 0 0 0 0 0 0 0 0 0 0 0 0 0 0 0 0 0 0 0 0 0 0 0 0 0 0 0 0 0 0 0 0 0 0 0 0 0 0 0 0 0 0 0 0 0 0 0 0 0 0 0 0 0 0 0 0 0 0 0 0 0 0 0 0 0 0 0 0 0 0 0 0 0 0 0 0 0 0 0 0 0 0 0 0 0 0 0 0 0 0 0 0 0 0 0 0 0 0 0 0 0 0 0 0 0 0 0 0 0 0 0 0 0 0 0 0 0 0 0 0 0 0 0 0 0 0 0 0 0 0 0 0 0 0 0 0 0 0 0 0 0 0 0 0 0 0 0 0 0 0 0 0 0 0 0 0 0 0 0 0 0 0 0 0 0 0 0 0 0 0 0 0 0 0 0 0 0 0 0 0 0 0 0 0 0 0 0 0 0 0 0 0 0 0 0 0 0 0 0 0 0 0 0 0 0 0 0 0 0 0 0 0 0 0 0 0 0 0 0 0 0 0 0 0 0 0 0 0 0 0 0 0 0 0 0 0 0 0 0 0 0 0 0 0 0 0 0 0 0 0 0 0 0 0 0 0 0 0 0 0 0 0 0 0 0 0 0 0 0 0 0 0 0 0 0 0 0 0 0 0 0 0 0 0 0 0 0 0 0 0 0 0 0 0 0 0 0 0 0 0 0 0 0 0 0 0 0 0 0 0 0 0 0 0 0 0 0 0 0 0 0 0 0 0 0 0 0 0 0 0 0 0 0 0 0 0 0 0 0 0 0 0 0 0 0 0 0 0 0 0 0 0 0 0 0 0 0 0 0 0 0 0 0 0 0 0 0 0 0 0 0 0 0 0 0 0 0 0 0 0 0 0 0 0 0 0 0 0 0 0 0 0 0 0 0 0 0 0 0 0 0 0 0 0 0 0 0 0 0 0 0 0 0 0 0 0 0 0 0 0 0 0 0 0 0 0 0 0 0 0 0 0 0 0 0 0 0 0 0 0 0 0 0 0 0 0 0 0 0 0 0 0 0 0 0 0 0 0 0 0 0 0 0 0 0 0 0 0 0 0 0 0 0 0 0 0 0 0 0 0 0 0 0 0 0 0 0
0 0 0 0 0 0 0 0 0 0 0 0 0 0 0 0 0 0 0 0 0 0 0 0 0 0 0 0 0 0 0 0 0 0 0 0 0 0 0 0 0 0 0 0 0 0 0 0 0 0 0 0 0 0 0 0 0 0 0 0 0 0 0 0 0 0 0 0 0 0 0 0 0 0 0 0 0 0 0 0 0 0 0 0 0 0 0 0 0 0 0 0 0 0 0 0 0 0 0 0 0 0 0 0 0 0 0 0 0 0 0 0 0 0 0 0 0 0 0 0 0 0 0 0 0 0 0 0 0 0 0 0 0 0 0 0 0 0 0 0 0 0 0 0 0 0 0 0 0 0 0 0 0 0 0 0 0 0 0 0 0 0 0 0 0 0 0 0 0 0 0 0 0 0 0 0 0 0 0 0 0 0 0 0 0 0 0 0 0 0 0 0 0 0 0 0 0 0 0 0 0 0 0 0 0 0 0 0 0 0 0 0 0 0 0 0 0 0 0 0 0 0 0 0 0 0 0 0 0 0 0 0 0 0 0 0 0 0 0 0 0 0 0 0 0 0 0 0 0 0 0 0 0 0 0 0 0 0 0 0 0 0 0 0 0 0 0 0 0 0 0 0 0 0 0 0 0 0 0 0 0 0 0 0 0 0 0 0 0 0 0 0 0 0 0 0 0 0 0 0 0 0 0 0 0 0 0 0 0 0 0 0 0 0 0 0 0 0 0 0 0 0 0 0 0 0 0 0 0 0 0 0 0 0 0 0 0 0 0 0 0 0 0 0 0 0 0 0 0 0 0 0 0 0 0 0 0 0 0 0 0 0 0 0 0 0 0 0 0 0 0 0 0 0 0 0 0 0 0 0 0 0 0 0 0 0 0 0 0 0 0 0 0 0 0 0 0 0 0 0 0 0 0 0 0 0 0 0 0 0 0 0 0 0 0 0 0 0 0 0 0 0 0 0 0 0 0 0 0 0 0 0 0 0 0 0 0 0 0 0 0 0 0 0 0 0 0 0 0 0 0 0 0 0 0 0 0 0 0 0 0 0 0 0 0 0 0 0 0 0 0 0 0 0 0 0 0 0 0 0 0 0 0 0 0 0 0 0 0 0 0 0 0 0 0 0 0 0 0 0 0 0 0 0 0 0 0 0 0 0 0 0 0 0 0 0 0 0 0 0 0 0 0 0 0 0 0 0 0 0 0 0 0 0 0 0 0 0 0 0 0 0 0 0 0 0 0 0 0 0 0 0 0 0 0 0 0 0 0 0 0 0 0 0 0 0 0 0 0 0 0 0 0 0 0 0 0 0 0 0 0 0 0 0 0 0 0 0 0 0 0 0 0 0 0 0 0 0 0 0 0 0 0 0 0 0 0 0 0 0 0 0 0 0 0 0 0 0 0 0 0 0 0 0 0 0 0 0 0 0 0 0 0 0 0 0 0 0 0 0 0 0 0 0 0 0 0 0 0 0 0 0 0 0 0 0 0 0 0 0 0 0 0 0 0 0 0 0 0 0 0 0 0 0 0 0 0 0 0 0 0 0 0 0 0 0 0 0 0 0 0 0 0 0 0 0 0 0 0 0 0 0 0 0 0 0 0 0 0 0 0 0 0 0 0 0 0 0 0 0
0 0 0 0 0 0 0 0 0 0 0 0 0 0 0 0 0 0 0 0 0 0 0 0 0 0 0 0 0 0 0 0 0 0 0 0 0 0 0 0 0 0 0 0 0 0 0 0 0 0 0 0 0 0 0 0 0 0 0 0 0 0 0 0 0 0 0 0 0 0 0 0 0 0 0 0 0 0 0 0 0 0 0 0 0 0 0 0 0 0 0 0 0 0 0 0 0 0 0 0 0 0 0 0 0 0 0 0 0 0 0 0 0 0 0 0 0 0 0 0 0 0 0 0 0 0 0 0 0 0 0 0 0 0 0 0 0 0 0 0 0 0 0 0 0 0 0 0 0 0 0 0 0 0 0 0 0 0 0 0 0 0 0 0 0 0 0 0 0 0 0 0 0 0 0 0 0 0 0 0 0 0 0 0 0 0 0 0 0 0 0 0 0 0 0 0 0 0 0 0 0 0 0 0 0 0 0 0 0 0 0 0 0 0 0 0 0 0 0 0 0 0 0 0 0 0 0 0 0 0 0 0 0 0 0 0 0 0 0 0 0 0 0 0 0 0 0 0 0 0 0 0 0 0 0 0 0 0 0 0 0 0 0 0 0 0 0 0 0 0 0 0 0 0 0 0 0 0 0 0 0 0 0 0 0 0 0 0 0 0 0 0 0 0 0 0 0 0 0 0 0 0 0 0 0 0 0 0 0 0 0 0 0 0 0 0 0 0 0 0 0 0 0 0 0 0 0 0 0 0 0 0 0 0 0 0 0 0 0 0 0 0 0 0 0 0 0 0 0 0 0 0 0 0 0 0 0 0 0 0 0 0 0 0 0 0 0 0 0 0 0 0 0 0 0 0 0 0 0 0 0 0 0 0 0 0 0 0 0 0 0 0 0 0 0 0 0 0 0 0 0 0 0 0 0 0 0 0 0 0 0 0 0 0 0 0 0 0 0 0 0 0 0 0 0 0 0 0 0 0 0 0 0 0 0 0 0 0 0 0 0 0 0 0 0 0 0 0 0 0 0 0 0 0 0 0 0 0 0 0 0 0 0 0 0 0 0 0 0 0 0 0 0 0 0 0 0 0 0 0 0 0 0 0 0 0 0 0 0 0 0 0 0 0 0 0 0 0 0 0 0 0 0 0 0 0 0 0 0 0 0 0 0 0 0 0 0 0 0 0 0 0 0 0 0 0 0 0 0 0 0 0 0 0 0 0 0 0 0 0 0 0 0 0 0 0 0 0 0 0 0 0 0 0 0 0 0 0 0 0 0 0 0 0 0 0 0 0 0 0 0 0 0 0 0 0 0 0 0 0 0 0 0 0 0 0 0 0 0 0 0 0 0 0 0 0 0 0 0 0 0 0 0 0 0 0 0 0 0 0 0 0 0 0 0 0 0 0 0 0 0 0 0 0 0 0 0 0 0 0 0 0 0 0 0 0 0 0 0 0 0 0 0 0 0 0 0 0 0 0 0 0 0 0 0 0 0 0 0 0 0 0 0 0 0 0 0 0 0 0 0 0 0 0 0 0 0 0 0 0 0 0 0 0 0 0 0 0 0 0 0 0 0 0 0 0 0 0 0 0 0 0 0 0 0 0 0 0 0 0 0 0 0 0 0 0 0 0 0 0
0 0 0 0 0 0 0 0 0 0 0 0 0 0 0 0 0 0 0 0 0 0 0 0 0 0 0 0 0 0 0 0 0 0 0 0 0 0 0 0 0 0 0 0 0 0 0 0 0 0 0 0 0 0 0 0 0 0 0 0 0 0 0 0 0 0 0 0 0 0 0 0 0 0 0 0 0 0 0 0 0 0 0 0 0 0 0 0 0 0 0 0 0 0 0 0 0 0 0 0 0 0 0 0 0 0 0 0 0 0 0 0 0 0 0 0 0 0 0 0 0 0 0 0 0 0 0 0 0 0 0 0 0 0 0 0 0 0 0 0 0 0 0 0 0 0 0 0 0 0 0 0 0 0 0 0 0 0 0 0 0 0 0 0 0 0 0 0 0 0 0 0 0 0 0 0 0 0 0 0 0 0 0 0 0 0 0 0 0 0 0 0 0 0 0 0 0 0 0 0 0 0 0 0 0 0 0 0 0 0 0 0 0 0 0 0 0 0 0 0 0 0 0 0 0 0 0 0 0 0 0 0 0 0 0 0 0 0 0 0 0 0 0 0 0 0 0 0 0 0 0 0 0 0 0 0 0 0 0 0 0 0 0 0 0 0 0 0 0 0 0 0 0 0 0 0 0 0 0 0 0 0 0 0 0 0 0 0 0 0 0 0 0 0 0 0 0 0 0 0 0 0 0 0 0 0 0 0 0 0 0 0 0 0 0 0 0 0 0 0 0 0 0 0 0 0 0 0 0 0 0 0 0 0 0 0 0 0 0 0 0 0 0 0 0 0 0 0 0 0 0 0 0 0 0 0 0 0 0 0 0 0 0 0 0 0 0 0 0 0 0 0 0 0 0 0 0 0 0 0 0 0 0 0 0 0 0 0 0 0 0 0 0 0 0 0 0 0 0 0 0 0 0 0 0 0 0 0 0 0 0 0 0 0 0 0 0 0 0 0 0 0 0 0 0 0 0 0 0 0 0 0 0 0 0 0 0 0 0 0 0 0 0 0 0 0 0 0 0 0 0 0 0 0 0 0 0 0 0 0 0 0 0 0 0 0 0 0 0 0 0 0 0 0 0 0 0 0 0 0 0 0 0 0 0 0 0 0 0 0 0 0 0 0 0 0 0 0 0 0 0 0 0 0 0 0 0 0 0 0 0 0 0 0 0 0 0 0 0 0 0 0 0 0 0 0 0 0 0 0 0 0 0 0 0 0 0 0 0 0 0 0 0 0 0 0 0 0 0 0 0 0 0 0 0 0 0 0 0 0 0 0 0 0 0 0 0 0 0 0 0 0 0 0 0 0 0 0 0 0 0 0 0 0 0 0 0 0 0 0 0 0 0 0 0 0 0 0 0 0 0 0 0 0 0 0 0 0 0 0 0 0 0 0 0 0 0 0 0 0 0 0 0 0 0 0 0 0 0 0 0 0 0 0 0 0 0 0 0 0 0 0 0 0 0 0 0 0 0 0 0 0 0 0 0 0 0 0 0 0 0 0 0 0 0 0 0 0 0 0 0 0 0 0 0 0 0 0 0 0 0 0 0 0 0 0 0 0 0 0 0 0 0 0 0 0 0 0 0 0 0 0 0 0 0 0 0 0 0 0 0 0 0 0 0 0 0 0 0 0
0 0 0 0 0 0 0 0 0 0 0 0 0 0 0 0 0 0 0 0 0 0 0 0 0 0 0 0 0 0 0 0 0 0 0 0 0 0 0 0 0 0 0 0 0 0 0 0 0 0 0 0 0 0 0 0 0 0 0 0 0 0 0 0 0 0 0 0 0 0 0 0 0 0 0 0 0 0 0 0 0 0 0 0 0 0 0 0 0 0 0 0 0 0 0 0 0 0 0 0 0 0 0 0 0 0 0 0 0 0 0 0 0 0 0 0 0 0 0 0 0 0 0 0 0 0 0 0 0 0 0 0 0 0 0 0 0 0 0 0 0 0 0 0 0 0 0 0 0 0 0 0 0 0 0 0 0 0 0 0 0 0 0 0 0 0 0 0 0 0 0 0 0 0 0 0 0 0 0 0 0 0 0 0 0 0 0 0 0 0 0 0 0 0 0 0 0 0 0 0 0 0 0 0 0 0 0 0 0 0 0 0 0 0 0 0 0 0 0 0 0 0 0 0 0 0 0 0 0 0 0 0 0 0 0 0 0 0 0 0 0 0 0 0 0 0 0 0 0 0 0 0 0 0 0 0 0 0 0 0 0 0 0 0 0 0 0 0 0 0 0 0 0 0 0 0 0 0 0 0 0 0 0 0 0 0 0 0 0 0 0 0 0 0 0 0 0 0 0 0 0 0 0 0 0 0 0 0 0 0 0 0 0 0 0 0 0 0 0 0 0 0 0 0 0 0 0 0 0 0 0 0 0 0 0 0 0 0 0 0 0 0 0 0 0 0 0 0 0 0 0 0 0 0 0 0 0 0 0 0 0 0 0 0 0 0 0 0 0 0 0 0 0 0 0 0 0 0 0 0 0 0 0 0 0 0 0 0 0 0 0 0 0 0 0 0 0 0 0 0 0 0 0 0 0 0 0 0 0 0 0 0 0 0 0 0 0 0 0 0 0 0 0 0 0 0 0 0 0 0 0 0 0 0 0 0 0 0 0 0 0 0 0 0 0 0 0 0 0 0 0 0 0 0 0 0 0 0 0 0 0 0 0 0 0 0 0 0 0 0 0 0 0 0 0 0 0 0 0 0 0 0 0 0 0 0 0 0 0 0 0 0 0 0 0 0 0 0 0 0 0 0 0 0 0 0 0 0 0 0 0 0 0 0 0 0 0 0 0 0 0 0 0 0 0 0 0 0 0 0 0 0 0 0 0 0 0 0 0 0 0 0 0 0 0 0 0 0 0 0 0 0 0 0 0 0 0 0 0 0 0 0 0 0 0 0 0 0 0 0 0 0 0 0 0 0 0 0 0 0 0 0 0 0 0 0 0 0 0 0 0 0 0 0 0 0 0 0 0 0 0 0 0 0 0 0 0 0 0 0 0 0 0 0 0 0 0 0 0 0 0 0 0 0 0 0 0 0 0 0 0 0 0 0 0 0 0 0 0 0 0 0 0 0 0 0 0 0 0 0 0 0 0 0 0 0 0 0 0 0 0 0 0 0 0 0 0 0 0 0 0 0 0 0 0 0 0 0 0 0 0 0 0 0 0 0 0 0 0 0 0 0 0 0 0 0 0 0 0 0 0 0 0 0 0 0 0 0 0 0 0 0 0 0 0 0 0 0 0 0
0 0 0 0 0 0 0 0 0 0 0 0 0 0 0 0 0 0 0 0 0 0 0 0 0 0 0 0 0 0 0 0 0 0 0 0 0 0 0 0 0 0 0 0 0 0 0 0 0 0 0 0 0 0 0 0 0 0 0 0 0 0 0 0 0 0 0 0 0 0 0 0 0 0 0 0 0 0 0 0 0 0 0 0 0 0 0 0 0 0 0 0 0 0 0 0 0 0 0 0 0 0 0 0 0 0 0 0 0 0 0 0 0 0 0 0 0 0 0 0 0 0 0 0 0 0 0 0 0 0 0 0 0 0 0 0 0 0 0 0 0 0 0 0 0 0 0 0 0 0 0 0 0 0 0 0 0 0 0 0 0 0 0 0 0 0 0 0 0 0 0 0 0 0 0 0 0 0 0 0 0 0 0 0 0 0 0 0 0 0 0 0 0 0 0 0 0 0 0 0 0 0 0 0 0 0 0 0 0 0 0 0 0 0 0 0 0 0 0 0 0 0 0 0 0 0 0 0 0 0 0 0 0 0 0 0 0 0 0 0 0 0 0 0 0 0 0 0 0 0 0 0 0 0 0 0 0 0 0 0 0 0 0 0 0 0 0 0 0 0 0 0 0 0 0 0 0 0 0 0 0 0 0 0 0 0 0 0 0 0 0 0 0 0 0 0 0 0 0 0 0 0 0 0 0 0 0 0 0 0 0 0 0 0 0 0 0 0 0 0 0 0 0 0 0 0 0 0 0 0 0 0 0 0 0 0 0 0 0 0 0 0 0 0 0 0 0 0 0 0 0 0 0 0 0 0 0 0 0 0 0 0 0 0 0 0 0 0 0 0 0 0 0 0 0 0 0 0 0 0 0 0 0 0 0 0 0 0 0 0 0 0 0 0 0 0 0 0 0 0 0 0 0 0 0 0 0 0 0 0 0 0 0 0 0 0 0 0 0 0 0 0 0 0 0 0 0 0 0 0 0 0 0 0 0 0 0 0 0 0 0 0 0 0 0 0 0 0 0 0 0 0 0 0 0 0 0 0 0 0 0 0 0 0 0 0 0 0 0 0 0 0 0 0 0 0 0 0 0 0 0 0 0 0 0 0 0 0 0 0 0 0 0 0 0 0 0 0 0 0 0 0 0 0 0 0 0 0 0 0 0 0 0 0 0 0 0 0 0 0 0 0 0 0 0 0 0 0 0 0 0 0 0 0 0 0 0 0 0 0 0 0 0 0 0 0 0 0 0 0 0 0 0 0 0 0 0 0 0 0 0 0 0 0 0 0 0 0 0 0 0 0 0 0 0 0 0 0 0 0 0 0 0 0 0 0 0 0 0 0 0 0 0 0 0 0 0 0 0 0 0 0 0 0 0 0 0 0 0 0 0 0 0 0 0 0 0 0 0 0 0 0 0 0 0 0 0 0 0 0 0 0 0 0 0 0 0 0 0 0 0 0 0 0 0 0 0 0 0 0 0 0 0 0 0 0 0 0 0 0 0 0 0 0 0 0 0 0 0 0 0 0 0 0 0 0 0 0 0 0 0 0 0 0 0 0 0 0 0 0 0 0 0 0 0 0 0 0 0 0 0 0 0 0 0 0 0 0 0 0 0 0 0 0 0 0 0 0 0 0
0 0 0 0 0 0 0 0 0 0 0 0 0 0 0 0 0 0 0 0 0 0 0 0 0 0 0 0 0 0 0 0 0 0 0 0 0 0 0 0 0 0 0 0 0 0 0 0 0 0 0 0 0 0 0 0 0 0 0 0 0 0 0 0 0 0 0 0 0 0 0 0 0 0 0 0 0 0 0 0 0 0 0 0 0 0 0 0 0 0 0 0 0 0 0 0 0 0 0 0 0 0 0 0 0 0 0 0 0 0 0 0 0 0 0 0 0 0 0 0 0 0 0 0 0 0 0 0 0 0 0 0 0 0 0 0 0 0 0 0 0 0 0 0 0 0 0 0 0 0 0 0 0 0 0 0 0 0 0 0 0 0 0 0 0 0 0 0 0 0 0 0 0 0 0 0 0 0 0 0 0 0 0 0 0 0 0 0 0 0 0 0 0 0 0 0 0 0 0 0 0 0 0 0 0 0 0 0 0 0 0 0 0 0 0 0 0 0 0 0 0 0 0 0 0 0 0 0 0 0 0 0 0 0 0 0 0 0 0 0 0 0 0 0 0 0 0 0 0 0 0 0 0 0 0 0 0 0 0 0 0 0 0 0 0 0 0 0 0 0 0 0 0 0 0 0 0 0 0 0 0 0 0 0 0 0 0 0 0 0 0 0 0 0 0 0 0 0 0 0 0 0 0 0 0 0 0 0 0 0 0 0 0 0 0 0 0 0 0 0 0 0 0 0 0 0 0 0 0 0 0 0 0 0 0 0 0 0 0 0 0 0 0 0 0 0 0 0 0 0 0 0 0 0 0 0 0 0 0 0 0 0 0 0 0 0 0 0 0 0 0 0 0 0 0 0 0 0 0 0 0 0 0 0 0 0 0 0 0 0 0 0 0 0 0 0 0 0 0 0 0 0 0 0 0 0 0 0 0 0 0 0 0 0 0 0 0 0 0 0 0 0 0 0 0 0 0 0 0 0 0 0 0 0 0 0 0 0 0 0 0 0 0 0 0 0 0 0 0 0 0 0 0 0 0 0 0 0 0 0 0 0 0 0 0 0 0 0 0 0 0 0 0 0 0 0 0 0 0 0 0 0 0 0 0 0 0 0 0 0 0 0 0 0 0 0 0 0 0 0 0 0 0 0 0 0 0 0 0 0 0 0 0 0 0 0 0 0 0 0 0 0 0 0 0 0 0 0 0 0 0 0 0 0 0 0 0 0 0 0 0 0 0 0 0 0 0 0 0 0 0 0 0 0 0 0 0 0 0 0 0 0 0 0 0 0 0 0 0 0 0 0 0 0 0 0 0 0 0 0 0 0 0 0 0 0 0 0 0 0 0 0 0 0 0 0 0 0 0 0 0 0 0 0 0 0 0 0 0 0 0 0 0 0 0 0 0 0 0 0 0 0 0 0 0 0 0 0 0 0 0 0 0 0 0 0 0 0 0 0 0 0 0 0 0 0 0 0 0 0 0 0 0 0 0 0 0 0 0 0 0 0 0 0 0 0 0 0 0 0 0 0 0 0 0 0 0 0 0 0 0 0 0 0 0 0 0 0 0 0 0 0 0 0 0 0 0 0 0 0 0 0 0 0 0 0 0 0 0 0 0 0 0 0 0 0 0 0 0 0
0 0 0 0 0 0 0 0 0 0 0 0 0 0 0 0 0 0 0 0 0 0 0 0 0 0 0 0 0 0 0 0 0 0 0 0 0 0 0 0 0 0 0 0 0 0 0 0 0 0 0 0 0 0 0 0 0 0 0 0 0 0 0 0 0 0 0 0 0 0 0 0 0 0 0 0 0 0 0 0 0 0 0 0 0 0 0 0 0 0 0 0 0 0 0 0 0 0 0 0 0 0 0 0 0 0 0 0 0 0 0 0 0 0 0 0 0 0 0 0 0 0 0 0 0 0 0 0 0 0 0 0 0 0 0 0 0 0 0 0 0 0 0 0 0 0 0 0 0 0 0 0 0 0 0 0 0 0 0 0 0 0 0 0 0 0 0 0 0 0 0 0 0 0 0 0 0 0 0 0 0 0 0 0 0 0 0 0 0 0 0 0 0 0 0 0 0 0 0 0 0 0 0 0 0 0 0 0 0 0 0 0 0 0 0 0 0 0 0 0 0 0 0 0 0 0 0 0 0 0 0 0 0 0 0 0 0 0 0 0 0 0 0 0 0 0 0 0 0 0 0 0 0 0 0 0 0 0 0 0 0 0 0 0 0 0 0 0 0 0 0 0 0 0 0 0 0 0 0 0 0 0 0 0 0 0 0 0 0 0 0 0 0 0 0 0 0 0 0 0 0 0 0 0 0 0 0 0 0 0 0 0 0 0 0 0 0 0 0 0 0 0 0 0 0 0 0 0 0 0 0 0 0 0 0 0 0 0 0 0 0 0 0 0 0 0 0 0 0 0 0 0 0 0 0 0 0 0 0 0 0 0 0 0 0 0 0 0 0 0 0 0 0 0 0 0 0 0 0 0 0 0 0 0 0 0 0 0 0 0 0 0 0 0 0 0 0 0 0 0 0 0 0 0 0 0 0 0 0 0 0 0 0 0 0 0 0 0 0 0 0 0 0 0 0 0 0 0 0 0 0 0 0 0 0 0 0 0 0 0 0 0 0 0 0 0 0 0 0 0 0 0 0 0 0 0 0 0 0 0 0 0 0 0 0 0 0 0 0 0 0 0 0 0 0 0 0 0 0 0 0 0 0 0 0 0 0 0 0 0 0 0 0 0 0 0 0 0 0 0 0 0 0 0 0 0 0 0 0 0 0 0 0 0 0 0 0 0 0 0 0 0 0 0 0 0 0 0 0 0 0 0 0 0 0 0 0 0 0 0 0 0 0 0 0 0 0 0 0 0 0 0 0 0 0 0 0 0 0 0 0 0 0 0 0 0 0 0 0 0 0 0 0 0 0 0 0 0 0 0 0 0 0 0 0 0 0 0 0 0 0 0 0 0 0 0 0 0 0 0 0 0 0 0 0 0 0 0 0 0 0 0 0 0 0 0 0 0 0 0 0 0 0 0 0 0 0 0 0 0 0 0 0 0 0 0 0 0 0 0 0 0 0 0 0 0 0 0 0 0 0 0 0 0 0 0 0 0 0 0 0 0 0 0 0 0 0 0 0 0 0 0 0 0 0 0 0 0 0 0 0 0 0 0 0 0 0 0 0 0 0 0 0 0 0 0 0 0 0 0 0 0 0 0 0 0 0 0 0 0 0 0 0 0 0 0 0 0 0 0